dist/luts/ABB EB ANNA HR 6.CUBE
#Created by: Adobe Photoshop Export Color Lookup Plugin
TITLE "ABB EB ANNA HR 6.psd"
#LUT size
LUT_3D_SIZE 32
#data domain
DOMAIN_MIN 0.0 0.0 0.0
DOMAIN_MAX 1.0 1.0 1.0
#LUT data points
0.000000 0.000000 0.000000
0.047882 0.000000 0.000000
0.088440 0.000000 0.000000
0.126587 0.000000 0.000000
0.163330 0.000000 0.000000
0.198975 0.000000 0.000000
0.233795 0.000000 0.000000
0.267975 0.000000 0.000000
0.301575 0.000000 0.000000
0.334717 0.000000 0.000000
0.367401 0.000000 0.000000
0.399750 0.000000 0.000000
0.431732 0.000000 0.000000
0.463440 0.000000 0.000000
0.494843 0.000000 0.000000
0.526001 0.000000 0.000000
0.556946 0.000000 0.000000
0.587646 0.000000 0.000000
0.618134 0.000000 0.000000
0.648438 0.000000 0.000000
0.678528 0.000000 0.000000
0.708466 0.000000 0.000000
0.738251 0.000000 0.000000
0.767853 0.000000 0.000000
0.797333 0.000000 0.000000
0.826660 0.000000 0.000000
0.855865 0.000000 0.000000
0.884949 0.000000 0.000000
0.913849 0.000000 0.000000
0.942688 0.000000 0.000000
0.971405 0.000000 0.000000
1.000000 0.000000 0.000000
0.000000 0.021118 0.000000
0.047882 0.021118 0.000000
0.088440 0.021118 0.000000
0.126587 0.021118 0.000000
0.163330 0.021118 0.000000
0.198975 0.021118 0.000000
0.233795 0.021118 0.000000
0.267975 0.021118 0.000000
0.301575 0.021118 0.000000
0.334717 0.021118 0.000000
0.367401 0.021118 0.000000
0.399750 0.021118 0.000000
0.431732 0.021118 0.000000
0.463440 0.021118 0.000000
0.494843 0.021118 0.000000
0.526001 0.021118 0.000000
0.556946 0.021118 0.000000
0.587646 0.021118 0.000000
0.618134 0.021118 0.000000
0.648438 0.021118 0.000000
0.678528 0.021118 0.000000
0.708466 0.021118 0.000000
0.738251 0.021118 0.000000
0.767853 0.021118 0.000000
0.797333 0.021118 0.000000
0.826660 0.021118 0.000000
0.855865 0.021118 0.000000
0.884949 0.021118 0.000000
0.913849 0.021118 0.000000
0.942688 0.021118 0.000000
0.971405 0.021118 0.000000
1.000000 0.021118 0.000000
0.000000 0.045990 0.000000
0.047882 0.045990 0.000000
0.088440 0.045990 0.000000
0.126587 0.045990 0.000000
0.163330 0.045990 0.000000
0.198975 0.045990 0.000000
0.233795 0.045990 0.000000
0.267975 0.045990 0.000000
0.301575 0.045990 0.000000
0.334717 0.045990 0.000000
0.367401 0.045990 0.000000
0.399750 0.045990 0.000000
0.431732 0.045990 0.000000
0.463440 0.045990 0.000000
0.494843 0.045990 0.000000
0.526001 0.045990 0.000000
0.556946 0.045990 0.000000
0.587646 0.045990 0.000000
0.618134 0.045990 0.000000
0.648438 0.045990 0.000000
0.678528 0.045990 0.000000
0.708466 0.045990 0.000000
0.738251 0.045990 0.000000
0.767853 0.045990 0.000000
0.797333 0.045990 0.000000
0.826660 0.045990 0.000000
0.855865 0.045990 0.000000
0.884949 0.045990 0.000000
0.913849 0.045990 0.000000
0.942688 0.045990 0.000000
0.971405 0.045990 0.000000
1.000000 0.045990 0.000000
0.000000 0.072510 0.000000
0.047882 0.072510 0.000000
0.088440 0.072510 0.000000
0.126587 0.072510 0.000000
0.163330 0.072510 0.000000
0.198975 0.072510 0.000000
0.233795 0.072510 0.000000
0.267975 0.072510 0.000000
0.301575 0.072510 0.000000
0.334717 0.072510 0.000000
0.367401 0.072510 0.000000
0.399750 0.072510 0.000000
0.431732 0.072510 0.000000
0.463440 0.072510 0.000000
0.494843 0.072510 0.000000
0.526001 0.072510 0.000000
0.556946 0.072510 0.000000
0.587646 0.072510 0.000000
0.618134 0.072510 0.000000
0.648438 0.072510 0.000000
0.678528 0.072510 0.000000
0.708466 0.072510 0.000000
0.738251 0.072510 0.000000
0.767853 0.072510 0.000000
0.797333 0.072510 0.000000
0.826660 0.072510 0.000000
0.855865 0.072510 0.000000
0.884949 0.072510 0.000000
0.913849 0.072510 0.000000
0.942688 0.072510 0.000000
0.971405 0.072510 0.000000
1.000000 0.072510 0.000000
0.000000 0.100189 0.000000
0.047882 0.100189 0.000000
0.088440 0.100189 0.000000
0.126587 0.100189 0.000000
0.163330 0.100189 0.000000
0.198975 0.100189 0.000000
0.233795 0.100189 0.000000
0.267975 0.100189 0.000000
0.301575 0.100189 0.000000
0.334717 0.100189 0.000000
0.367401 0.100189 0.000000
0.399750 0.100189 0.000000
0.431732 0.100189 0.000000
0.463440 0.100189 0.000000
0.494843 0.100189 0.000000
0.526001 0.100189 0.000000
0.556946 0.100189 0.000000
0.587646 0.100189 0.000000
0.618134 0.100189 0.000000
0.648438 0.100189 0.000000
0.678528 0.100189 0.000000
0.708466 0.100189 0.000000
0.738251 0.100189 0.000000
0.767853 0.100189 0.000000
0.797333 0.100189 0.000000
0.826660 0.100189 0.000000
0.855865 0.100189 0.000000
0.884949 0.100189 0.000000
0.913849 0.100189 0.000000
0.942688 0.100189 0.000000
0.971405 0.100189 0.000000
1.000000 0.100189 0.000000
0.000000 0.128723 0.000000
0.047882 0.128723 0.000000
0.088440 0.128723 0.000000
0.126587 0.128723 0.000000
0.163330 0.128723 0.000000
0.198975 0.128723 0.000000
0.233795 0.128723 0.000000
0.267975 0.128723 0.000000
0.301575 0.128723 0.000000
0.334717 0.128723 0.000000
0.367401 0.128723 0.000000
0.399750 0.128723 0.000000
0.431732 0.128723 0.000000
0.463440 0.128723 0.000000
0.494843 0.128723 0.000000
0.526001 0.128723 0.000000
0.556946 0.128723 0.000000
0.587646 0.128723 0.000000
0.618134 0.128723 0.000000
0.648438 0.128723 0.000000
0.678528 0.128723 0.000000
0.708466 0.128723 0.000000
0.738251 0.128723 0.000000
0.767853 0.128723 0.000000
0.797333 0.128723 0.000000
0.826660 0.128723 0.000000
0.855865 0.128723 0.000000
0.884949 0.128723 0.000000
0.913849 0.128723 0.000000
0.942688 0.128723 0.000000
0.971405 0.128723 0.000000
1.000000 0.128723 0.000000
0.000000 0.157990 0.000000
0.047882 0.157990 0.000000
0.088440 0.157990 0.000000
0.126587 0.157990 0.000000
0.163330 0.157990 0.000000
0.198975 0.157990 0.000000
0.233795 0.157990 0.000000
0.267975 0.157990 0.000000
0.301575 0.157990 0.000000
0.334717 0.157990 0.000000
0.367401 0.157990 0.000000
0.399750 0.157990 0.000000
0.431732 0.157990 0.000000
0.463440 0.157990 0.000000
0.494843 0.157990 0.000000
0.526001 0.157990 0.000000
0.556946 0.157990 0.000000
0.587646 0.157990 0.000000
0.618134 0.157990 0.000000
0.648438 0.157990 0.000000
0.678528 0.157990 0.000000
0.708466 0.157990 0.000000
0.738251 0.157990 0.000000
0.767853 0.157990 0.000000
0.797333 0.157990 0.000000
0.826660 0.157990 0.000000
0.855865 0.157990 0.000000
0.884949 0.157990 0.000000
0.913849 0.157990 0.000000
0.942688 0.157990 0.000000
0.971405 0.157990 0.000000
1.000000 0.157990 0.000000
0.000000 0.187866 0.000000
0.047882 0.187866 0.000000
0.088440 0.187866 0.000000
0.126587 0.187866 0.000000
0.163330 0.187866 0.000000
0.198975 0.187866 0.000000
0.233795 0.187866 0.000000
0.267975 0.187866 0.000000
0.301575 0.187866 0.000000
0.334717 0.187866 0.000000
0.367401 0.187866 0.000000
0.399750 0.187866 0.000000
0.431732 0.187866 0.000000
0.463440 0.187866 0.000000
0.494843 0.187866 0.000000
0.526001 0.187866 0.000000
0.556946 0.187866 0.000000
0.587646 0.187866 0.000000
0.618134 0.187866 0.000000
0.648438 0.187866 0.000000
0.678528 0.187866 0.000000
0.708466 0.187866 0.000000
0.738251 0.187866 0.000000
0.767853 0.187866 0.000000
0.797333 0.187866 0.000000
0.826660 0.187866 0.000000
0.855865 0.187866 0.000000
0.884949 0.187866 0.000000
0.913849 0.187866 0.000000
0.942688 0.187866 0.000000
0.971405 0.187866 0.000000
1.000000 0.187866 0.000000
0.000000 0.218262 0.000000
0.047882 0.218262 0.000000
0.088440 0.218262 0.000000
0.126587 0.218262 0.000000
0.163330 0.218262 0.000000
0.198975 0.218262 0.000000
0.233795 0.218262 0.000000
0.267975 0.218262 0.000000
0.301575 0.218262 0.000000
0.334717 0.218262 0.000000
0.367401 0.218262 0.000000
0.399750 0.218262 0.000000
0.431732 0.218262 0.000000
0.463440 0.218262 0.000000
0.494843 0.218262 0.000000
0.526001 0.218262 0.000000
0.556946 0.218262 0.000000
0.587646 0.218262 0.000000
0.618134 0.218262 0.000000
0.648438 0.218262 0.000000
0.678528 0.218262 0.000000
0.708466 0.218262 0.000000
0.738251 0.218262 0.000000
0.767853 0.218262 0.000000
0.797333 0.218262 0.000000
0.826660 0.218262 0.000000
0.855865 0.218262 0.000000
0.884949 0.218262 0.000000
0.913849 0.218262 0.000000
0.942688 0.218262 0.000000
0.971405 0.218262 0.000000
1.000000 0.218262 0.000000
0.000000 0.249176 0.000000
0.047882 0.249176 0.000000
0.088440 0.249176 0.000000
0.126587 0.249176 0.000000
0.163330 0.249176 0.000000
0.198975 0.249176 0.000000
0.233795 0.249176 0.000000
0.267975 0.249176 0.000000
0.301575 0.249176 0.000000
0.334717 0.249176 0.000000
0.367401 0.249176 0.000000
0.399750 0.249176 0.000000
0.431732 0.249176 0.000000
0.463440 0.249176 0.000000
0.494843 0.249176 0.000000
0.526001 0.249176 0.000000
0.556946 0.249176 0.000000
0.587646 0.249176 0.000000
0.618134 0.249176 0.000000
0.648438 0.249176 0.000000
0.678528 0.249176 0.000000
0.708466 0.249176 0.000000
0.738251 0.249176 0.000000
0.767853 0.249176 0.000000
0.797333 0.249176 0.000000
0.826660 0.249176 0.000000
0.855865 0.249176 0.000000
0.884949 0.249176 0.000000
0.913849 0.249176 0.000000
0.942688 0.249176 0.000000
0.971405 0.249176 0.000000
1.000000 0.249176 0.000000
0.000000 0.280487 0.000000
0.047882 0.280487 0.000000
0.088440 0.280487 0.000000
0.126587 0.280487 0.000000
0.163330 0.280487 0.000000
0.198975 0.280487 0.000000
0.233795 0.280487 0.000000
0.267975 0.280487 0.000000
0.301575 0.280487 0.000000
0.334717 0.280487 0.000000
0.367401 0.280487 0.000000
0.399750 0.280487 0.000000
0.431732 0.280487 0.000000
0.463440 0.280487 0.000000
0.494843 0.280487 0.000000
0.526001 0.280487 0.000000
0.556946 0.280487 0.000000
0.587646 0.280487 0.000000
0.618134 0.280487 0.000000
0.648438 0.280487 0.000000
0.678528 0.280487 0.000000
0.708466 0.280487 0.000000
0.738251 0.280487 0.000000
0.767853 0.280487 0.000000
0.797333 0.280487 0.000000
0.826660 0.280487 0.000000
0.855865 0.280487 0.000000
0.884949 0.280487 0.000000
0.913849 0.280487 0.000000
0.942688 0.280487 0.000000
0.971405 0.280487 0.000000
1.000000 0.280487 0.000000
0.000000 0.312164 0.000000
0.047882 0.312164 0.000000
0.088440 0.312164 0.000000
0.126587 0.312164 0.000000
0.163330 0.312164 0.000000
0.198975 0.312164 0.000000
0.233795 0.312164 0.000000
0.267975 0.312164 0.000000
0.301575 0.312164 0.000000
0.334717 0.312164 0.000000
0.367401 0.312164 0.000000
0.399750 0.312164 0.000000
0.431732 0.312164 0.000000
0.463440 0.312164 0.000000
0.494843 0.312164 0.000000
0.526001 0.312164 0.000000
0.556946 0.312164 0.000000
0.587646 0.312164 0.000000
0.618134 0.312164 0.000000
0.648438 0.312164 0.000000
0.678528 0.312164 0.000000
0.708466 0.312164 0.000000
0.738251 0.312164 0.000000
0.767853 0.312164 0.000000
0.797333 0.312164 0.000000
0.826660 0.312164 0.000000
0.855865 0.312164 0.000000
0.884949 0.312164 0.000000
0.913849 0.312164 0.000000
0.942688 0.312164 0.000000
0.971405 0.312164 0.000000
1.000000 0.312164 0.000000
0.000000 0.344238 0.000000
0.047882 0.344238 0.000000
0.088440 0.344238 0.000000
0.126587 0.344238 0.000000
0.163330 0.344238 0.000000
0.198975 0.344238 0.000000
0.233795 0.344238 0.000000
0.267975 0.344238 0.000000
0.301575 0.344238 0.000000
0.334717 0.344238 0.000000
0.367401 0.344238 0.000000
0.399750 0.344238 0.000000
0.431732 0.344238 0.000000
0.463440 0.344238 0.000000
0.494843 0.344238 0.000000
0.526001 0.344238 0.000000
0.556946 0.344238 0.000000
0.587646 0.344238 0.000000
0.618134 0.344238 0.000000
0.648438 0.344238 0.000000
0.678528 0.344238 0.000000
0.708466 0.344238 0.000000
0.738251 0.344238 0.000000
0.767853 0.344238 0.000000
0.797333 0.344238 0.000000
0.826660 0.344238 0.000000
0.855865 0.344238 0.000000
0.884949 0.344238 0.000000
0.913849 0.344238 0.000000
0.942688 0.344238 0.000000
0.971405 0.344238 0.000000
1.000000 0.344238 0.000000
0.000000 0.376648 0.000000
0.047882 0.376648 0.000000
0.088440 0.376648 0.000000
0.126587 0.376648 0.000000
0.163330 0.376648 0.000000
0.198975 0.376648 0.000000
0.233795 0.376648 0.000000
0.267975 0.376648 0.000000
0.301575 0.376648 0.000000
0.334717 0.376648 0.000000
0.367401 0.376648 0.000000
0.399750 0.376648 0.000000
0.431732 0.376648 0.000000
0.463440 0.376648 0.000000
0.494843 0.376648 0.000000
0.526001 0.376648 0.000000
0.556946 0.376648 0.000000
0.587646 0.376648 0.000000
0.618134 0.376648 0.000000
0.648438 0.376648 0.000000
0.678528 0.376648 0.000000
0.708466 0.376648 0.000000
0.738251 0.376648 0.000000
0.767853 0.376648 0.000000
0.797333 0.376648 0.000000
0.826660 0.376648 0.000000
0.855865 0.376648 0.000000
0.884949 0.376648 0.000000
0.913849 0.376648 0.000000
0.942688 0.376648 0.000000
0.971405 0.376648 0.000000
1.000000 0.376648 0.000000
0.000000 0.409332 0.000000
0.047882 0.409332 0.000000
0.088440 0.409332 0.000000
0.126587 0.409332 0.000000
0.163330 0.409332 0.000000
0.198975 0.409332 0.000000
0.233795 0.409332 0.000000
0.267975 0.409332 0.000000
0.301575 0.409332 0.000000
0.334717 0.409332 0.000000
0.367401 0.409332 0.000000
0.399750 0.409332 0.000000
0.431732 0.409332 0.000000
0.463440 0.409332 0.000000
0.494843 0.409332 0.000000
0.526001 0.409332 0.000000
0.556946 0.409332 0.000000
0.587646 0.409332 0.000000
0.618134 0.409332 0.000000
0.648438 0.409332 0.000000
0.678528 0.409332 0.000000
0.708466 0.409332 0.000000
0.738251 0.409332 0.000000
0.767853 0.409332 0.000000
0.797333 0.409332 0.000000
0.826660 0.409332 0.000000
0.855865 0.409332 0.000000
0.884949 0.409332 0.000000
0.913849 0.409332 0.000000
0.942688 0.409332 0.000000
0.971405 0.409332 0.000000
1.000000 0.409332 0.000000
0.000000 0.442322 0.000000
0.047882 0.442322 0.000000
0.088440 0.442322 0.000000
0.126587 0.442322 0.000000
0.163330 0.442322 0.000000
0.198975 0.442322 0.000000
0.233795 0.442322 0.000000
0.267975 0.442322 0.000000
0.301575 0.442322 0.000000
0.334717 0.442322 0.000000
0.367401 0.442322 0.000000
0.399750 0.442322 0.000000
0.431732 0.442322 0.000000
0.463440 0.442322 0.000000
0.494843 0.442322 0.000000
0.526001 0.442322 0.000000
0.556946 0.442322 0.000000
0.587646 0.442322 0.000000
0.618134 0.442322 0.000000
0.648438 0.442322 0.000000
0.678528 0.442322 0.000000
0.708466 0.442322 0.000000
0.738251 0.442322 0.000000
0.767853 0.442322 0.000000
0.797333 0.442322 0.000000
0.826660 0.442322 0.000000
0.855865 0.442322 0.000000
0.884949 0.442322 0.000000
0.913849 0.442322 0.000000
0.942688 0.442322 0.000000
0.971405 0.442322 0.000000
1.000000 0.442322 0.000000
0.000000 0.475616 0.000000
0.047882 0.475616 0.000000
0.088440 0.475616 0.000000
0.126587 0.475616 0.000000
0.163330 0.475616 0.000000
0.198975 0.475616 0.000000
0.233795 0.475616 0.000000
0.267975 0.475616 0.000000
0.301575 0.475616 0.000000
0.334717 0.475616 0.000000
0.367401 0.475616 0.000000
0.399750 0.475616 0.000000
0.431732 0.475616 0.000000
0.463440 0.475616 0.000000
0.494843 0.475616 0.000000
0.526001 0.475616 0.000000
0.556946 0.475616 0.000000
0.587646 0.475616 0.000000
0.618134 0.475616 0.000000
0.648438 0.475616 0.000000
0.678528 0.475616 0.000000
0.708466 0.475616 0.000000
0.738251 0.475616 0.000000
0.767853 0.475616 0.000000
0.797333 0.475616 0.000000
0.826660 0.475616 0.000000
0.855865 0.475616 0.000000
0.884949 0.475616 0.000000
0.913849 0.475616 0.000000
0.942688 0.475616 0.000000
0.971405 0.475616 0.000000
1.000000 0.475616 0.000000
0.000000 0.509155 0.000000
0.047882 0.509155 0.000000
0.088440 0.509155 0.000000
0.126587 0.509155 0.000000
0.163330 0.509155 0.000000
0.198975 0.509155 0.000000
0.233795 0.509155 0.000000
0.267975 0.509155 0.000000
0.301575 0.509155 0.000000
0.334717 0.509155 0.000000
0.367401 0.509155 0.000000
0.399750 0.509155 0.000000
0.431732 0.509155 0.000000
0.463440 0.509155 0.000000
0.494843 0.509155 0.000000
0.526001 0.509155 0.000000
0.556946 0.509155 0.000000
0.587646 0.509155 0.000000
0.618134 0.509155 0.000000
0.648438 0.509155 0.000000
0.678528 0.509155 0.000000
0.708466 0.509155 0.000000
0.738251 0.509155 0.000000
0.767853 0.509155 0.000000
0.797333 0.509155 0.000000
0.826660 0.509155 0.000000
0.855865 0.509155 0.000000
0.884949 0.509155 0.000000
0.913849 0.509155 0.000000
0.942688 0.509155 0.000000
0.971405 0.509155 0.000000
1.000000 0.509155 0.000000
0.000000 0.542938 0.000000
0.047882 0.542938 0.000000
0.088440 0.542938 0.000000
0.126587 0.542938 0.000000
0.163330 0.542938 0.000000
0.198975 0.542938 0.000000
0.233795 0.542938 0.000000
0.267975 0.542938 0.000000
0.301575 0.542938 0.000000
0.334717 0.542938 0.000000
0.367401 0.542938 0.000000
0.399750 0.542938 0.000000
0.431732 0.542938 0.000000
0.463440 0.542938 0.000000
0.494843 0.542938 0.000000
0.526001 0.542938 0.000000
0.556946 0.542938 0.000000
0.587646 0.542938 0.000000
0.618134 0.542938 0.000000
0.648438 0.542938 0.000000
0.678528 0.542938 0.000000
0.708466 0.542938 0.000000
0.738251 0.542938 0.000000
0.767853 0.542938 0.000000
0.797333 0.542938 0.000000
0.826660 0.542938 0.000000
0.855865 0.542938 0.000000
0.884949 0.542938 0.000000
0.913849 0.542938 0.000000
0.942688 0.542938 0.000000
0.971405 0.542938 0.000000
1.000000 0.542938 0.000000
0.000000 0.576935 0.000000
0.047882 0.576935 0.000000
0.088440 0.576935 0.000000
0.126587 0.576935 0.000000
0.163330 0.576935 0.000000
0.198975 0.576935 0.000000
0.233795 0.576935 0.000000
0.267975 0.576935 0.000000
0.301575 0.576935 0.000000
0.334717 0.576935 0.000000
0.367401 0.576935 0.000000
0.399750 0.576935 0.000000
0.431732 0.576935 0.000000
0.463440 0.576935 0.000000
0.494843 0.576935 0.000000
0.526001 0.576935 0.000000
0.556946 0.576935 0.000000
0.587646 0.576935 0.000000
0.618134 0.576935 0.000000
0.648438 0.576935 0.000000
0.678528 0.576935 0.000000
0.708466 0.576935 0.000000
0.738251 0.576935 0.000000
0.767853 0.576935 0.000000
0.797333 0.576935 0.000000
0.826660 0.576935 0.000000
0.855865 0.576935 0.000000
0.884949 0.576935 0.000000
0.913849 0.576935 0.000000
0.942688 0.576935 0.000000
0.971405 0.576935 0.000000
1.000000 0.576935 0.000000
0.000000 0.611176 0.000000
0.047882 0.611176 0.000000
0.088440 0.611176 0.000000
0.126587 0.611176 0.000000
0.163330 0.611176 0.000000
0.198975 0.611176 0.000000
0.233795 0.611176 0.000000
0.267975 0.611176 0.000000
0.301575 0.611176 0.000000
0.334717 0.611176 0.000000
0.367401 0.611176 0.000000
0.399750 0.611176 0.000000
0.431732 0.611176 0.000000
0.463440 0.611176 0.000000
0.494843 0.611176 0.000000
0.526001 0.611176 0.000000
0.556946 0.611176 0.000000
0.587646 0.611176 0.000000
0.618134 0.611176 0.000000
0.648438 0.611176 0.000000
0.678528 0.611176 0.000000
0.708466 0.611176 0.000000
0.738251 0.611176 0.000000
0.767853 0.611176 0.000000
0.797333 0.611176 0.000000
0.826660 0.611176 0.000000
0.855865 0.611176 0.000000
0.884949 0.611176 0.000000
0.913849 0.611176 0.000000
0.942688 0.611176 0.000000
0.971405 0.611176 0.000000
1.000000 0.611176 0.000000
0.000000 0.645599 0.000000
0.047882 0.645599 0.000000
0.088440 0.645599 0.000000
0.126587 0.645599 0.000000
0.163330 0.645599 0.000000
0.198975 0.645599 0.000000
0.233795 0.645599 0.000000
0.267975 0.645599 0.000000
0.301575 0.645599 0.000000
0.334717 0.645599 0.000000
0.367401 0.645599 0.000000
0.399750 0.645599 0.000000
0.431732 0.645599 0.000000
0.463440 0.645599 0.000000
0.494843 0.645599 0.000000
0.526001 0.645599 0.000000
0.556946 0.645599 0.000000
0.587646 0.645599 0.000000
0.618134 0.645599 0.000000
0.648438 0.645599 0.000000
0.678528 0.645599 0.000000
0.708466 0.645599 0.000000
0.738251 0.645599 0.000000
0.767853 0.645599 0.000000
0.797333 0.645599 0.000000
0.826660 0.645599 0.000000
0.855865 0.645599 0.000000
0.884949 0.645599 0.000000
0.913849 0.645599 0.000000
0.942688 0.645599 0.000000
0.971405 0.645599 0.000000
1.000000 0.645599 0.000000
0.000000 0.680237 0.000000
0.047882 0.680237 0.000000
0.088440 0.680237 0.000000
0.126587 0.680237 0.000000
0.163330 0.680237 0.000000
0.198975 0.680237 0.000000
0.233795 0.680237 0.000000
0.267975 0.680237 0.000000
0.301575 0.680237 0.000000
0.334717 0.680237 0.000000
0.367401 0.680237 0.000000
0.399750 0.680237 0.000000
0.431732 0.680237 0.000000
0.463440 0.680237 0.000000
0.494843 0.680237 0.000000
0.526001 0.680237 0.000000
0.556946 0.680237 0.000000
0.587646 0.680237 0.000000
0.618134 0.680237 0.000000
0.648438 0.680237 0.000000
0.678528 0.680237 0.000000
0.708466 0.680237 0.000000
0.738251 0.680237 0.000000
0.767853 0.680237 0.000000
0.797333 0.680237 0.000000
0.826660 0.680237 0.000000
0.855865 0.680237 0.000000
0.884949 0.680237 0.000000
0.913849 0.680237 0.000000
0.942688 0.680237 0.000000
0.971405 0.680237 0.000000
1.000000 0.680237 0.000000
0.000000 0.715057 0.000000
0.047882 0.715057 0.000000
0.088440 0.715057 0.000000
0.126587 0.715057 0.000000
0.163330 0.715057 0.000000
0.198975 0.715057 0.000000
0.233795 0.715057 0.000000
0.267975 0.715057 0.000000
0.301575 0.715057 0.000000
0.334717 0.715057 0.000000
0.367401 0.715057 0.000000
0.399750 0.715057 0.000000
0.431732 0.715057 0.000000
0.463440 0.715057 0.000000
0.494843 0.715057 0.000000
0.526001 0.715057 0.000000
0.556946 0.715057 0.000000
0.587646 0.715057 0.000000
0.618134 0.715057 0.000000
0.648438 0.715057 0.000000
0.678528 0.715057 0.000000
0.708466 0.715057 0.000000
0.738251 0.715057 0.000000
0.767853 0.715057 0.000000
0.797333 0.715057 0.000000
0.826660 0.715057 0.000000
0.855865 0.715057 0.000000
0.884949 0.715057 0.000000
0.913849 0.715057 0.000000
0.942688 0.715057 0.000000
0.971405 0.715057 0.000000
1.000000 0.715057 0.000000
0.000000 0.750092 0.000000
0.047882 0.750092 0.000000
0.088440 0.750092 0.000000
0.126587 0.750092 0.000000
0.163330 0.750092 0.000000
0.198975 0.750092 0.000000
0.233795 0.750092 0.000000
0.267975 0.750092 0.000000
0.301575 0.750092 0.000000
0.334717 0.750092 0.000000
0.367401 0.750092 0.000000
0.399750 0.750092 0.000000
0.431732 0.750092 0.000000
0.463440 0.750092 0.000000
0.494843 0.750092 0.000000
0.526001 0.750092 0.000000
0.556946 0.750092 0.000000
0.587646 0.750092 0.000000
0.618134 0.750092 0.000000
0.648438 0.750092 0.000000
0.678528 0.750092 0.000000
0.708466 0.750092 0.000000
0.738251 0.750092 0.000000
0.767853 0.750092 0.000000
0.797333 0.750092 0.000000
0.826660 0.750092 0.000000
0.855865 0.750092 0.000000
0.884949 0.750092 0.000000
0.913849 0.750092 0.000000
0.942688 0.750092 0.000000
0.971405 0.750092 0.000000
1.000000 0.750092 0.000000
0.000000 0.785309 0.000000
0.047882 0.785309 0.000000
0.088440 0.785309 0.000000
0.126587 0.785309 0.000000
0.163330 0.785309 0.000000
0.198975 0.785309 0.000000
0.233795 0.785309 0.000000
0.267975 0.785309 0.000000
0.301575 0.785309 0.000000
0.334717 0.785309 0.000000
0.367401 0.785309 0.000000
0.399750 0.785309 0.000000
0.431732 0.785309 0.000000
0.463440 0.785309 0.000000
0.494843 0.785309 0.000000
0.526001 0.785309 0.000000
0.556946 0.785309 0.000000
0.587646 0.785309 0.000000
0.618134 0.785309 0.000000
0.648438 0.785309 0.000000
0.678528 0.785309 0.000000
0.708466 0.785309 0.000000
0.738251 0.785309 0.000000
0.767853 0.785309 0.000000
0.797333 0.785309 0.000000
0.826660 0.785309 0.000000
0.855865 0.785309 0.000000
0.884949 0.785309 0.000000
0.913849 0.785309 0.000000
0.942688 0.785309 0.000000
0.971405 0.785309 0.000000
1.000000 0.785309 0.000000
0.000000 0.820679 0.000000
0.047882 0.820679 0.000000
0.088440 0.820679 0.000000
0.126587 0.820679 0.000000
0.163330 0.820679 0.000000
0.198975 0.820679 0.000000
0.233795 0.820679 0.000000
0.267975 0.820679 0.000000
0.301575 0.820679 0.000000
0.334717 0.820679 0.000000
0.367401 0.820679 0.000000
0.399750 0.820679 0.000000
0.431732 0.820679 0.000000
0.463440 0.820679 0.000000
0.494843 0.820679 0.000000
0.526001 0.820679 0.000000
0.556946 0.820679 0.000000
0.587646 0.820679 0.000000
0.618134 0.820679 0.000000
0.648438 0.820679 0.000000
0.678528 0.820679 0.000000
0.708466 0.820679 0.000000
0.738251 0.820679 0.000000
0.767853 0.820679 0.000000
0.797333 0.820679 0.000000
0.826660 0.820679 0.000000
0.855865 0.820679 0.000000
0.884949 0.820679 0.000000
0.913849 0.820679 0.000000
0.942688 0.820679 0.000000
0.971405 0.820679 0.000000
1.000000 0.820679 0.000000
0.000000 0.856232 0.000000
0.047882 0.856232 0.000000
0.088440 0.856232 0.000000
0.126587 0.856232 0.000000
0.163330 0.856232 0.000000
0.198975 0.856232 0.000000
0.233795 0.856232 0.000000
0.267975 0.856232 0.000000
0.301575 0.856232 0.000000
0.334717 0.856232 0.000000
0.367401 0.856232 0.000000
0.399750 0.856232 0.000000
0.431732 0.856232 0.000000
0.463440 0.856232 0.000000
0.494843 0.856232 0.000000
0.526001 0.856232 0.000000
0.556946 0.856232 0.000000
0.587646 0.856232 0.000000
