dist/luts/ABB EB TOBIAS HYDROPOWER 12-Large.CUBE
#Created by: Adobe Photoshop Export Color Lookup Plugin
TITLE "ABB EB TOBIAS HYDROPOWER 12-Large.psd"
#LUT size
LUT_3D_SIZE 8
#data domain
#LUT data points
DOMAIN_MIN 0.000000 0.000000 0.000000
DOMAIN_MAX 0.903226 0.903226 0.903226
0.683502 0.657990 0.712372
0.691711 0.665649 0.719940
0.679382 0.646454 0.701050
0.683502 0.650330 0.704834
0.687592 0.654144 0.708618
0.650726 0.619598 0.674561
0.589539 0.557983 0.625214
0.561157 0.546387 0.621399
0.147491 0.123657 0.124420
0.147491 0.123657 0.124420
0.110962 0.094788 0.116028
0.082306 0.069794 0.086304
0.089417 0.090668 0.103394
0.089417 0.090668 0.103394
0.096558 0.086487 0.111847
0.092987 0.082336 0.107605
0.472595 0.264679 0.210968
0.496643 0.288513 0.235260
0.452606 0.252747 0.186523
0.472595 0.272644 0.206909
0.472595 0.272644 0.206909
0.504669 0.304321 0.239288
0.488617 0.284546 0.239288
0.496643 0.292480 0.247345
0.544983 0.383057 0.386139
0.536896 0.363464 0.362610
0.549011 0.347717 0.350769
0.561157 0.347717 0.346863
0.536896 0.320129 0.311249
0.544983 0.316193 0.311249
0.460571 0.268677 0.283417
0.412842 0.232788 0.251373
0.428711 0.268677 0.311249
0.480591 0.324097 0.342896
0.492615 0.331970 0.334991
0.496643 0.347717 0.346863
0.488617 0.375214 0.354736
0.609894 0.511566 0.479523
0.662994 0.584961 0.548828
0.667114 0.596527 0.598541
0.540924 0.472778 0.452393
0.544983 0.476654 0.456299
0.553070 0.476654 0.460144
0.573303 0.496063 0.479523
0.573303 0.496063 0.479523
0.557098 0.480560 0.464050
0.561157 0.484436 0.467896
0.557098 0.480560 0.464050
0.569275 0.596527 0.655609
0.565186 0.592651 0.651825
0.585510 0.611908 0.670776
0.589539 0.615753 0.674561
0.577393 0.604218 0.663208
0.573303 0.600342 0.659393
0.589539 0.615753 0.670776
0.573303 0.600342 0.655609
0.488617 0.511566 0.571808
0.436646 0.453339 0.514221
0.381226 0.379150 0.448517
0.330231 0.320129 0.397858
0.306885 0.312225 0.393982
0.283661 0.312225 0.386139
0.279785 0.300385 0.386139
0.272064 0.300385 0.382202
0.683502 0.657990 0.712372
0.687592 0.661804 0.716156
0.679382 0.646454 0.701050
0.683502 0.650330 0.704834
0.675293 0.642639 0.697266
0.642548 0.611908 0.666992
0.605804 0.573395 0.640442
0.528839 0.515442 0.590912
0.158569 0.131836 0.149445
0.154877 0.123657 0.141144
0.121826 0.103088 0.124420
0.103760 0.086487 0.107605
0.103760 0.094788 0.111847
0.092987 0.094788 0.107605
0.103760 0.094788 0.120239
0.118225 0.111328 0.136993
0.488617 0.276611 0.235260
0.496643 0.284546 0.243317
0.496643 0.288513 0.235260
0.504669 0.296417 0.243317
0.516724 0.308289 0.255371
0.508667 0.300385 0.247345
0.516724 0.304321 0.263397
0.496643 0.284546 0.243317
0.544983 0.371307 0.378296
0.524780 0.343781 0.346863
0.561157 0.359497 0.362610
0.569275 0.355591 0.354736
0.561157 0.343781 0.334991
0.573303 0.343781 0.338959
0.496643 0.300385 0.315216
0.468567 0.272644 0.287384
0.492615 0.335907 0.378296
0.504669 0.351654 0.370453
0.553070 0.414337 0.409607
0.577393 0.453339 0.444641
0.569275 0.476654 0.448517
0.536896 0.465027 0.425201
0.544983 0.472778 0.436859
0.492615 0.429962 0.432983
0.691711 0.615753 0.594727
0.679382 0.604218 0.583252
0.658905 0.577240 0.560303
0.654816 0.573395 0.556488
0.630280 0.550262 0.533478
0.613953 0.534790 0.518097
0.634369 0.554108 0.537292
0.605804 0.527069 0.510376
0.569275 0.596527 0.655609
0.573303 0.600342 0.659393
0.573303 0.600342 0.659393
0.593628 0.619598 0.678345
0.581421 0.608063 0.666992
0.593628 0.619598 0.678345
0.581421 0.608063 0.663208
0.573303 0.600342 0.655609
0.516724 0.530914 0.590912
0.436646 0.445557 0.510376
0.393066 0.390869 0.460144
0.353699 0.335907 0.417419
0.330231 0.324097 0.409607
0.303009 0.328033 0.401794
0.303009 0.324097 0.409607
0.287506 0.316193 0.397858
0.704041 0.677124 0.731262
0.704041 0.677124 0.731262
0.708191 0.673309 0.727478
0.687592 0.654144 0.708618
0.667114 0.634979 0.689697
0.622101 0.592651 0.648041
0.565186 0.534790 0.602356
0.508667 0.496063 0.571808
0.162292 0.135925 0.170105
0.154877 0.127747 0.161865
0.143799 0.115448 0.141144
0.118225 0.098969 0.120239
0.110962 0.094788 0.116028
0.107330 0.098969 0.116028
0.110962 0.103088 0.128632
0.107330 0.098969 0.124420
0.520782 0.308289 0.275421
0.549011 0.335907 0.303314
0.508667 0.296417 0.255371
0.532837 0.320129 0.279388
0.536896 0.324097 0.283417
0.512726 0.300385 0.259399
0.492615 0.280579 0.239288
0.496643 0.284546 0.243317
0.532837 0.351654 0.362610
0.569275 0.379150 0.382202
0.585510 0.383057 0.386139
0.577393 0.363464 0.362610
0.565186 0.347717 0.338959
0.561157 0.331970 0.327087
0.492615 0.288513 0.299347
0.496643 0.296417 0.299347
0.492615 0.347717 0.386139
0.626190 0.480560 0.494965
0.613953 0.519318 0.498810
0.622101 0.538635 0.514221
0.662994 0.588806 0.552643
0.622101 0.561829 0.518097
0.605804 0.530914 0.494965
0.544983 0.480560 0.483368
0.679382 0.611908 0.590912
0.658905 0.592651 0.571808
0.650726 0.577240 0.556488
0.662994 0.588806 0.567963
0.667114 0.592651 0.571808
0.626190 0.554108 0.533478
0.646606 0.573395 0.552643
0.638458 0.565704 0.544983
0.553070 0.581116 0.640442
0.569275 0.596527 0.655609
0.573303 0.600342 0.659393
0.593628 0.619598 0.678345
0.573303 0.600342 0.659393
0.577393 0.604218 0.663208
0.577393 0.604218 0.659393
0.569275 0.596527 0.651825
0.540924 0.554108 0.613800
0.472595 0.468903 0.537292
0.408875 0.398712 0.471771
0.365479 0.347717 0.429077
0.341949 0.331970 0.417419
0.295258 0.308289 0.386139
0.303009 0.312225 0.401794
0.299133 0.320129 0.405670
0.699951 0.673309 0.727478
0.695831 0.669464 0.723724
0.695831 0.661804 0.716156
0.691711 0.657990 0.712372
0.671204 0.638794 0.693512
0.634369 0.604218 0.659393
0.569275 0.538635 0.606171
0.504669 0.492188 0.567963
0.177185 0.148163 0.157715
0.129120 0.119537 0.128632
0.140137 0.111328 0.136993
0.140137 0.111328 0.136993
0.114563 0.094788 0.116028
0.110962 0.094788 0.116028
0.092987 0.082336 0.107605
0.100128 0.090668 0.116028
0.540924 0.328033 0.295349
0.553070 0.339874 0.307281
0.516724 0.292480 0.263397
0.524780 0.300385 0.271393
0.540924 0.316193 0.287384
0.520782 0.296417 0.267426
0.540924 0.320129 0.279388
0.516724 0.296417 0.255371
0.577393 0.383057 0.397858
0.581421 0.383057 0.390045
0.561157 0.359497 0.362610
0.540924 0.328033 0.327087
0.577393 0.359497 0.350769
0.549011 0.320129 0.315216
0.464600 0.252747 0.263397
0.532837 0.320129 0.319183
0.488617 0.343781 0.382202
0.561157 0.418274 0.432983
0.565186 0.484436 0.460144
0.622101 0.542542 0.518097
0.630280 0.554108 0.518097
0.613953 0.546387 0.502686
0.605804 0.530914 0.494965
0.516724 0.453339 0.456299
0.687592 0.627289 0.602356
0.679382 0.619598 0.594727
0.683502 0.615753 0.594727
0.675293 0.608063 0.587097
0.675293 0.608063 0.587097
0.658905 0.592651 0.571808
0.658905 0.592651 0.571808
0.671204 0.604218 0.583252
0.561157 0.588806 0.648041
0.569275 0.596527 0.655609
0.585510 0.611908 0.670776
0.593628 0.619598 0.678345
0.585510 0.611908 0.670776
0.577393 0.604218 0.663208
0.573303 0.600342 0.655609
0.585510 0.611908 0.666992
0.553070 0.557983 0.621399
0.484589 0.480560 0.548828
0.416809 0.402618 0.475647
0.369415 0.343781 0.425201
0.338043 0.328033 0.413483
0.314667 0.320129 0.401794
0.314667 0.320129 0.409607
0.310760 0.320129 0.409607
0.699951 0.665649 0.712372
0.708191 0.673309 0.719940
0.691711 0.665649 0.719940
0.683502 0.657990 0.712372
0.658905 0.627289 0.682129
0.609894 0.573395 0.632843
0.561157 0.527069 0.594727
0.496643 0.476654 0.556488
0.237610 0.172516 0.174194
0.199707 0.164398 0.170105
0.162292 0.140015 0.145294
0.143799 0.135925 0.136993
0.129120 0.111328 0.116028
0.132812 0.086487 0.099091
0.132812 0.098969 0.116028
0.110962 0.078156 0.103394
0.528839 0.316193 0.283417
0.553070 0.339874 0.307281
0.512726 0.300385 0.267426
0.524780 0.312225 0.279388
0.569275 0.355591 0.323151
0.532837 0.320129 0.287384
0.496643 0.272644 0.243317
0.536896 0.312225 0.283417
0.553070 0.371307 0.382202
0.544983 0.355591 0.358643
0.549011 0.343781 0.354736
0.577393 0.347717 0.358643
0.577393 0.347717 0.350769
0.544983 0.335907 0.323151
0.464600 0.260712 0.271393
0.532837 0.320129 0.319183
0.448639 0.312225 0.338959
0.488617 0.351654 0.378296
0.472595 0.355591 0.354736
0.476562 0.379150 0.370453
0.553070 0.476654 0.460144
0.561157 0.492188 0.471771
0.577393 0.503845 0.467896
0.448639 0.390869 0.409607
0.753540 0.707733 0.674561
0.741150 0.696289 0.663208
0.732910 0.677124 0.678345
0.745270 0.688629 0.689697
0.737030 0.680969 0.682129
0.720520 0.665649 0.666992
0.687592 0.650330 0.617615
0.662994 0.627289 0.594727
0.561157 0.592651 0.651825
0.577393 0.608063 0.666992
0.593628 0.623413 0.682129
0.601746 0.631104 0.689697
0.593628 0.623413 0.682129
0.593628 0.623413 0.682129
0.577393 0.608063 0.666992
0.589539 0.619598 0.678345
0.577393 0.569550 0.628998
0.508667 0.499939 0.552643
0.436646 0.414337 0.471771
0.400970 0.375214 0.444641
0.400970 0.386993 0.460144
0.357605 0.347717 0.421295
0.306885 0.304321 0.378296
0.314667 0.320129 0.393982
0.712280 0.677124 0.723724
0.712280 0.677124 0.723724
0.691711 0.665649 0.719940
0.687592 0.654144 0.708618
0.638458 0.600342 0.659393
0.609894 0.573395 0.632843
0.557098 0.511566 0.583252
0.480591 0.461121 0.541138
0.416809 0.272644 0.255371
0.393066 0.264679 0.247345
0.291382 0.208740 0.206909
0.203461 0.168457 0.165955
0.136444 0.123657 0.120239
0.125488 0.107208 0.120239
0.103760 0.103088 0.136993
0.100128 0.103088 0.124420
0.557098 0.343781 0.311249
0.561157 0.347717 0.315216
0.536896 0.324097 0.291382
0.528839 0.316193 0.283417
0.512726 0.300385 0.267426
0.532837 0.320129 0.287384
0.536896 0.312225 0.283417
0.532837 0.308289 0.279388
0.540924 0.347717 0.362610
0.565186 0.367371 0.374359
0.569275 0.363464 0.374359
0.557098 0.328033 0.338959
0.601746 0.371307 0.374359
0.524780 0.316193 0.303314
0.500641 0.296417 0.307281
0.561157 0.347717 0.346863
0.444641 0.324097 0.354736
0.444641 0.320129 0.342896
0.488617 0.398712 0.386139
0.520782 0.437744 0.425201
0.557098 0.472778 0.460144
0.544983 0.461121 0.448517
0.540924 0.472778 0.444641
0.400970 0.355591 0.374359
0.484589 0.465027 0.483368
0.553070 0.530914 0.548828
0.557098 0.527069 0.506531
0.613953 0.581116 0.560303
0.642548 0.608063 0.587097
0.642548 0.608063 0.587097
0.658905 0.592651 0.609985
0.658905 0.592651 0.609985
0.585510 0.615753 0.674561
0.593628 0.623413 0.682129
0.597687 0.627289 0.685944
0.601746 0.631104 0.689697
0.605804 0.634979 0.693512
0.585510 0.615753 0.674561
0.593628 0.623413 0.682129
0.601746 0.631104 0.689697
0.561157 0.554108 0.613800
0.520782 0.511566 0.564148
0.456604 0.433868 0.491089
0.448639 0.433868 0.498810
0.393066 0.383057 0.456299
0.381226 0.371307 0.444641
0.373322 0.371307 0.444641
0.357605 0.363464 0.436859
0.708191 0.673309 0.719940
0.708191 0.673309 0.719940
0.687592 0.654144 0.708618
0.699951 0.657990 0.716156
0.634369 0.584961 0.648041
0.593628 0.546387 0.609985
0.561157 0.515442 0.579468
0.500641 0.472778 0.548828
0.460571 0.224792 0.198761
0.464600 0.228821 0.194702
0.448639 0.272644 0.251373
0.373322 0.236816 0.223114
0.268250 0.188660 0.194702
0.184692 0.131836 0.145294
0.136444 0.123657 0.145294
0.089417 0.090668 0.103394
0.544983 0.331970 0.299347
0.549011 0.335907 0.303314
0.544983 0.331970 0.299347
0.540924 0.328033 0.295349
0.549011 0.335907 0.303314
0.532837 0.320129 0.287384
0.528839 0.304321 0.275421
0.520782 0.296417 0.267426
0.553070 0.355591 0.370453
0.549011 0.343781 0.354736
0.561157 0.355591 0.366516
0.601746 0.371307 0.382202
0.597687 0.367371 0.370453
0.472595 0.264679 0.251373
0.484589 0.280579 0.291382
0.508667 0.296417 0.295349
0.412842 0.316193 0.346863
0.444641 0.343781 0.366516
0.544983 0.472778 0.464050
0.544983 0.472778 0.464050
0.557098 0.480560 0.471771
0.536896 0.461121 0.452393
0.536896 0.476654 0.464050
0.428711 0.386993 0.413483
0.218597 0.240784 0.303314
0.233795 0.256714 0.319183
0.237610 0.232788 0.295349
0.241425 0.236816 0.299347
0.237610 0.232788 0.295349
0.241425 0.236816 0.299347
0.218597 0.224792 0.275421
0.222382 0.228821 0.279388
0.589539 0.619598 0.678345
0.597687 0.627289 0.685944
0.597687 0.627289 0.685944
0.597687 0.627289 0.685944
0.597687 0.627289 0.685944
0.593628 0.623413 0.682129
0.605804 0.634979 0.693512
0.597687 0.627289 0.685944
0.569275 0.561829 0.621399
0.544983 0.534790 0.587097
0.484589 0.468903 0.525787
0.436646 0.429962 0.491089
0.424744 0.422150 0.491089
0.420776 0.418274 0.487244
0.408875 0.406525 0.475647
0.400970 0.410461 0.475647
0.704041 0.669464 0.716156
0.708191 0.673309 0.719940
0.712280 0.669464 0.727478
0.695831 0.642639 0.704834
0.634369 0.577240 0.644226
0.597687 0.542542 0.609985
0.532837 0.484436 0.541138
0.464600 0.433868 0.502686
0.532837 0.284546 0.267426
0.520782 0.264679 0.251373
0.488617 0.248749 0.239288
0.496643 0.256714 0.255371
0.464600 0.252747 0.259399
0.428711 0.252747 0.247345
0.314667 0.180603 0.182404
0.177185 0.127747 0.128632
0.569275 0.355591 0.323151
0.524780 0.312225 0.279388
0.516724 0.304321 0.271393
0.536896 0.324097 0.291382
0.532837 0.320129 0.287384
0.540924 0.328033 0.295349
0.536896 0.312225 0.283417
0.553070 0.328033 0.299347
0.561157 0.363464 0.378296
0.557098 0.351654 0.362610
0.544983 0.339874 0.350769
0.585510 0.355591 0.366516
0.589539 0.359497 0.362610
0.464600 0.256714 0.243317
0.484589 0.280579 0.291382
0.528839 0.316193 0.315216
0.377289 0.296417 0.327087
0.408875 0.324097 0.350769
0.452606 0.375214 0.374359
0.480591 0.422150 0.413483
0.464600 0.410461 0.401794
0.468567 0.426056 0.413483
0.448639 0.386993 0.390045
0.272064 0.228821 0.263397
0.210999 0.240784 0.303314
0.241425 0.272644 0.334991
0.226166 0.252747 0.334991
0.237610 0.264679 0.346863
0.222382 0.248749 0.331055
0.214813 0.240784 0.323151
0.214813 0.248749 0.319183
0.214813 0.248749 0.319183
0.593628 0.623413 0.682129
0.601746 0.631104 0.689697
0.577393 0.608063 0.666992
0.601746 0.631104 0.689697
0.585510 0.615753 0.674561
0.589539 0.619598 0.678345
0.605804 0.634979 0.693512
0.601746 0.631104 0.689697
0.565186 0.557983 0.617615
0.544983 0.534790 0.587097
0.516724 0.507690 0.560303
0.504669 0.499939 0.560303
0.460571 0.457245 0.525787
0.452606 0.461121 0.525787
0.448639 0.445557 0.506531
0.440674 0.449463 0.506531
