dist/luts/ABB EB ANNA HR 6.CUBE
#Created by: Adobe Photoshop Export Color Lookup Plugin
TITLE "ABB EB ANNA HR 6.psd"
#LUT size
LUT_3D_SIZE 8
#data domain
#LUT data points
DOMAIN_MIN 0.000000 0.000000 0.000000
DOMAIN_MAX 0.903226 0.903226 0.903226
0.000000 0.000000 0.000000
0.163330 0.000000 0.000000
0.301575 0.000000 0.000000
0.431732 0.000000 0.000000
0.556946 0.000000 0.000000
0.678528 0.000000 0.000000
0.797333 0.000000 0.000000
0.913849 0.000000 0.000000
0.000000 0.100189 0.000000
0.163330 0.100189 0.000000
0.301575 0.100189 0.000000
0.431732 0.100189 0.000000
0.556946 0.100189 0.000000
0.678528 0.100189 0.000000
0.797333 0.100189 0.000000
0.913849 0.100189 0.000000
0.000000 0.218262 0.000000
0.163330 0.218262 0.000000
0.301575 0.218262 0.000000
0.431732 0.218262 0.000000
0.556946 0.218262 0.000000
0.678528 0.218262 0.000000
0.797333 0.218262 0.000000
0.913849 0.218262 0.000000
0.000000 0.344238 0.000000
0.163330 0.344238 0.000000
0.301575 0.344238 0.000000
0.431732 0.344238 0.000000
0.556946 0.344238 0.000000
0.678528 0.344238 0.000000
0.797333 0.344238 0.000000
0.913849 0.344238 0.000000
0.000000 0.475616 0.000000
0.163330 0.475616 0.000000
0.301575 0.475616 0.000000
0.431732 0.475616 0.000000
0.556946 0.475616 0.000000
0.678528 0.475616 0.000000
0.797333 0.475616 0.000000
0.913849 0.475616 0.000000
0.000000 0.611176 0.000000
0.163330 0.611176 0.000000
0.301575 0.611176 0.000000
0.431732 0.611176 0.000000
0.556946 0.611176 0.000000
0.678528 0.611176 0.000000
0.797333 0.611176 0.000000
0.913849 0.611176 0.000000
0.000000 0.750092 0.000000
0.163330 0.750092 0.000000
0.301575 0.750092 0.000000
0.431732 0.750092 0.000000
0.556946 0.750092 0.000000
0.678528 0.750092 0.000000
0.797333 0.750092 0.000000
0.913849 0.750092 0.000000
0.000000 0.891937 0.000000
0.163330 0.891937 0.000000
0.301575 0.891937 0.000000
0.431732 0.891937 0.000000
0.556946 0.891937 0.000000
0.678528 0.891937 0.000000
0.797333 0.891937 0.000000
0.913849 0.891937 0.000000
0.000000 0.000000 0.113220
0.163330 0.000000 0.113220
0.301575 0.000000 0.113220
0.431732 0.000000 0.113220
0.556946 0.000000 0.113220
0.678528 0.000000 0.113220
0.797333 0.000000 0.113220
0.913849 0.000000 0.113220
0.000000 0.100189 0.113220
0.163330 0.100189 0.113220
0.301575 0.100189 0.113220
0.431732 0.100189 0.113220
0.556946 0.100189 0.113220
0.678528 0.100189 0.113220
0.797333 0.100189 0.113220
0.913849 0.100189 0.113220
0.000000 0.218262 0.113220
0.163330 0.218262 0.113220
0.301575 0.218262 0.113220
0.431732 0.218262 0.113220
0.556946 0.218262 0.113220
0.678528 0.218262 0.113220
0.797333 0.218262 0.113220
0.913849 0.218262 0.113220
0.000000 0.344238 0.113220
0.163330 0.344238 0.113220
0.301575 0.344238 0.113220
0.431732 0.344238 0.113220
0.556946 0.344238 0.113220
0.678528 0.344238 0.113220
0.797333 0.344238 0.113220
0.913849 0.344238 0.113220
0.000000 0.475616 0.113220
0.163330 0.475616 0.113220
0.301575 0.475616 0.113220
0.431732 0.475616 0.113220
0.556946 0.475616 0.113220
0.678528 0.475616 0.113220
0.797333 0.475616 0.113220
0.913849 0.475616 0.113220
0.000000 0.611176 0.113220
0.163330 0.611176 0.113220
0.301575 0.611176 0.113220
0.431732 0.611176 0.113220
0.556946 0.611176 0.113220
0.678528 0.611176 0.113220
0.797333 0.611176 0.113220
0.913849 0.611176 0.113220
0.000000 0.750092 0.113220
0.163330 0.750092 0.113220
0.301575 0.750092 0.113220
0.431732 0.750092 0.113220
0.556946 0.750092 0.113220
0.678528 0.750092 0.113220
0.797333 0.750092 0.113220
0.913849 0.750092 0.113220
0.000000 0.891937 0.113220
0.163330 0.891937 0.113220
0.301575 0.891937 0.113220
0.431732 0.891937 0.113220
0.556946 0.891937 0.113220
0.678528 0.891937 0.113220
0.797333 0.891937 0.113220
0.913849 0.891937 0.113220
0.000000 0.000000 0.236694
0.163330 0.000000 0.236694
0.301575 0.000000 0.236694
0.431732 0.000000 0.236694
0.556946 0.000000 0.236694
0.678528 0.000000 0.236694
0.797333 0.000000 0.236694
0.913849 0.000000 0.236694
0.000000 0.100189 0.236694
0.163330 0.100189 0.236694
0.301575 0.100189 0.236694
0.431732 0.100189 0.236694
0.556946 0.100189 0.236694
0.678528 0.100189 0.236694
0.797333 0.100189 0.236694
0.913849 0.100189 0.236694
0.000000 0.218262 0.236694
0.163330 0.218262 0.236694
0.301575 0.218262 0.236694
0.431732 0.218262 0.236694
0.556946 0.218262 0.236694
0.678528 0.218262 0.236694
0.797333 0.218262 0.236694
0.913849 0.218262 0.236694
0.000000 0.344238 0.236694
0.163330 0.344238 0.236694
0.301575 0.344238 0.236694
0.431732 0.344238 0.236694
0.556946 0.344238 0.236694
0.678528 0.344238 0.236694
0.797333 0.344238 0.236694
0.913849 0.344238 0.236694
0.000000 0.475616 0.236694
0.163330 0.475616 0.236694
0.301575 0.475616 0.236694
0.431732 0.475616 0.236694
0.556946 0.475616 0.236694
0.678528 0.475616 0.236694
0.797333 0.475616 0.236694
0.913849 0.475616 0.236694
0.000000 0.611176 0.236694
0.163330 0.611176 0.236694
0.301575 0.611176 0.236694
0.431732 0.611176 0.236694
0.556946 0.611176 0.236694
0.678528 0.611176 0.236694
0.797333 0.611176 0.236694
0.913849 0.611176 0.236694
0.000000 0.750092 0.236694
0.163330 0.750092 0.236694
0.301575 0.750092 0.236694
0.431732 0.750092 0.236694
0.556946 0.750092 0.236694
0.678528 0.750092 0.236694
0.797333 0.750092 0.236694
0.913849 0.750092 0.236694
0.000000 0.891937 0.236694
0.163330 0.891937 0.236694
0.301575 0.891937 0.236694
0.431732 0.891937 0.236694
0.556946 0.891937 0.236694
0.678528 0.891937 0.236694
0.797333 0.891937 0.236694
0.913849 0.891937 0.236694
0.000000 0.000000 0.364319
0.163330 0.000000 0.364319
0.301575 0.000000 0.364319
0.431732 0.000000 0.364319
0.556946 0.000000 0.364319
0.678528 0.000000 0.364319
0.797333 0.000000 0.364319
0.913849 0.000000 0.364319
0.000000 0.100189 0.364319
0.163330 0.100189 0.364319
0.301575 0.100189 0.364319
0.431732 0.100189 0.364319
0.556946 0.100189 0.364319
0.678528 0.100189 0.364319
0.797333 0.100189 0.364319
0.913849 0.100189 0.364319
0.000000 0.218262 0.364319
0.163330 0.218262 0.364319
0.301575 0.218262 0.364319
0.431732 0.218262 0.364319
0.556946 0.218262 0.364319
0.678528 0.218262 0.364319
0.797333 0.218262 0.364319
0.913849 0.218262 0.364319
0.000000 0.344238 0.364319
0.163330 0.344238 0.364319
0.301575 0.344238 0.364319
0.431732 0.344238 0.364319
0.556946 0.344238 0.364319
0.678528 0.344238 0.364319
0.797333 0.344238 0.364319
0.913849 0.344238 0.364319
0.000000 0.475616 0.364319
0.163330 0.475616 0.364319
0.301575 0.475616 0.364319
0.431732 0.475616 0.364319
0.556946 0.475616 0.364319
0.678528 0.475616 0.364319
0.797333 0.475616 0.364319
0.913849 0.475616 0.364319
0.000000 0.611176 0.364319
0.163330 0.611176 0.364319
0.301575 0.611176 0.364319
0.431732 0.611176 0.364319
0.556946 0.611176 0.364319
0.678528 0.611176 0.364319
0.797333 0.611176 0.364319
0.913849 0.611176 0.364319
0.000000 0.750092 0.364319
0.163330 0.750092 0.364319
0.301575 0.750092 0.364319
0.431732 0.750092 0.364319
0.556946 0.750092 0.364319
0.678528 0.750092 0.364319
0.797333 0.750092 0.364319
0.913849 0.750092 0.364319
0.000000 0.891937 0.364319
0.163330 0.891937 0.364319
0.301575 0.891937 0.364319
0.431732 0.891937 0.364319
0.556946 0.891937 0.364319
0.678528 0.891937 0.364319
0.797333 0.891937 0.364319
0.913849 0.891937 0.364319
0.000000 0.000000 0.494812
0.163330 0.000000 0.494812
0.301575 0.000000 0.494812
0.431732 0.000000 0.494812
0.556946 0.000000 0.494812
0.678528 0.000000 0.494812
0.797333 0.000000 0.494812
0.913849 0.000000 0.494812
0.000000 0.100189 0.494812
0.163330 0.100189 0.494812
0.301575 0.100189 0.494812
0.431732 0.100189 0.494812
0.556946 0.100189 0.494812
0.678528 0.100189 0.494812
0.797333 0.100189 0.494812
0.913849 0.100189 0.494812
0.000000 0.218262 0.494812
0.163330 0.218262 0.494812
0.301575 0.218262 0.494812
0.431732 0.218262 0.494812
0.556946 0.218262 0.494812
0.678528 0.218262 0.494812
0.797333 0.218262 0.494812
0.913849 0.218262 0.494812
0.000000 0.344238 0.494812
0.163330 0.344238 0.494812
0.301575 0.344238 0.494812
0.431732 0.344238 0.494812
0.556946 0.344238 0.494812
0.678528 0.344238 0.494812
0.797333 0.344238 0.494812
0.913849 0.344238 0.494812
0.000000 0.475616 0.494812
0.163330 0.475616 0.494812
0.301575 0.475616 0.494812
0.431732 0.475616 0.494812
0.556946 0.475616 0.494812
0.678528 0.475616 0.494812
0.797333 0.475616 0.494812
0.913849 0.475616 0.494812
0.000000 0.611176 0.494812
0.163330 0.611176 0.494812
0.301575 0.611176 0.494812
0.431732 0.611176 0.494812
0.556946 0.611176 0.494812
0.678528 0.611176 0.494812
0.797333 0.611176 0.494812
0.913849 0.611176 0.494812
0.000000 0.750092 0.494812
0.163330 0.750092 0.494812
0.301575 0.750092 0.494812
0.431732 0.750092 0.494812
0.556946 0.750092 0.494812
0.678528 0.750092 0.494812
0.797333 0.750092 0.494812
0.913849 0.750092 0.494812
0.000000 0.891937 0.494812
0.163330 0.891937 0.494812
0.301575 0.891937 0.494812
0.431732 0.891937 0.494812
0.556946 0.891937 0.494812
0.678528 0.891937 0.494812
0.797333 0.891937 0.494812
0.913849 0.891937 0.494812
0.000000 0.000000 0.627380
0.163330 0.000000 0.627380
0.301575 0.000000 0.627380
0.431732 0.000000 0.627380
0.556946 0.000000 0.627380
0.678528 0.000000 0.627380
0.797333 0.000000 0.627380
0.913849 0.000000 0.627380
0.000000 0.100189 0.627380
0.163330 0.100189 0.627380
0.301575 0.100189 0.627380
0.431732 0.100189 0.627380
0.556946 0.100189 0.627380
0.678528 0.100189 0.627380
0.797333 0.100189 0.627380
0.913849 0.100189 0.627380
0.000000 0.218262 0.627380
0.163330 0.218262 0.627380
0.301575 0.218262 0.627380
0.431732 0.218262 0.627380
0.556946 0.218262 0.627380
0.678528 0.218262 0.627380
0.797333 0.218262 0.627380
0.913849 0.218262 0.627380
0.000000 0.344238 0.627380
0.163330 0.344238 0.627380
0.301575 0.344238 0.627380
0.431732 0.344238 0.627380
0.556946 0.344238 0.627380
0.678528 0.344238 0.627380
0.797333 0.344238 0.627380
0.913849 0.344238 0.627380
0.000000 0.475616 0.627380
0.163330 0.475616 0.627380
0.301575 0.475616 0.627380
0.431732 0.475616 0.627380
0.556946 0.475616 0.627380
0.678528 0.475616 0.627380
0.797333 0.475616 0.627380
0.913849 0.475616 0.627380
0.000000 0.611176 0.627380
0.163330 0.611176 0.627380
0.301575 0.611176 0.627380
0.431732 0.611176 0.627380
0.556946 0.611176 0.627380
0.678528 0.611176 0.627380
0.797333 0.611176 0.627380
0.913849 0.611176 0.627380
0.000000 0.750092 0.627380
0.163330 0.750092 0.627380
0.301575 0.750092 0.627380
0.431732 0.750092 0.627380
0.556946 0.750092 0.627380
0.678528 0.750092 0.627380
0.797333 0.750092 0.627380
0.913849 0.750092 0.627380
0.000000 0.891937 0.627380
0.163330 0.891937 0.627380
0.301575 0.891937 0.627380
0.431732 0.891937 0.627380
0.556946 0.891937 0.627380
0.678528 0.891937 0.627380
0.797333 0.891937 0.627380
0.913849 0.891937 0.627380
0.000000 0.000000 0.761658
0.163330 0.000000 0.761658
0.301575 0.000000 0.761658
0.431732 0.000000 0.761658
0.556946 0.000000 0.761658
0.678528 0.000000 0.761658
0.797333 0.000000 0.761658
0.913849 0.000000 0.761658
0.000000 0.100189 0.761658
0.163330 0.100189 0.761658
0.301575 0.100189 0.761658
0.431732 0.100189 0.761658
0.556946 0.100189 0.761658
0.678528 0.100189 0.761658
0.797333 0.100189 0.761658
0.913849 0.100189 0.761658
0.000000 0.218262 0.761658
0.163330 0.218262 0.761658
0.301575 0.218262 0.761658
0.431732 0.218262 0.761658
0.556946 0.218262 0.761658
0.678528 0.218262 0.761658
0.797333 0.218262 0.761658
0.913849 0.218262 0.761658
0.000000 0.344238 0.761658
0.163330 0.344238 0.761658
0.301575 0.344238 0.761658
0.431732 0.344238 0.761658
0.556946 0.344238 0.761658
0.678528 0.344238 0.761658
0.797333 0.344238 0.761658
0.913849 0.344238 0.761658
0.000000 0.475616 0.761658
0.163330 0.475616 0.761658
0.301575 0.475616 0.761658
0.431732 0.475616 0.761658
0.556946 0.475616 0.761658
0.678528 0.475616 0.761658
0.797333 0.475616 0.761658
0.913849 0.475616 0.761658
0.000000 0.611176 0.761658
0.163330 0.611176 0.761658
0.301575 0.611176 0.761658
0.431732 0.611176 0.761658
0.556946 0.611176 0.761658
0.678528 0.611176 0.761658
0.797333 0.611176 0.761658
0.913849 0.611176 0.761658
0.000000 0.750092 0.761658
0.163330 0.750092 0.761658
0.301575 0.750092 0.761658
0.431732 0.750092 0.761658
0.556946 0.750092 0.761658
0.678528 0.750092 0.761658
0.797333 0.750092 0.761658
0.913849 0.750092 0.761658
0.000000 0.891937 0.761658
0.163330 0.891937 0.761658
0.301575 0.891937 0.761658
0.431732 0.891937 0.761658
0.556946 0.891937 0.761658
0.678528 0.891937 0.761658
0.797333 0.891937 0.761658
0.913849 0.891937 0.761658
0.000000 0.000000 0.897400
0.163330 0.000000 0.897400
0.301575 0.000000 0.897400
0.431732 0.000000 0.897400
0.556946 0.000000 0.897400
0.678528 0.000000 0.897400
0.797333 0.000000 0.897400
0.913849 0.000000 0.897400
0.000000 0.100189 0.897400
0.163330 0.100189 0.897400
0.301575 0.100189 0.897400
0.431732 0.100189 0.897400
0.556946 0.100189 0.897400
0.678528 0.100189 0.897400
0.797333 0.100189 0.897400
0.913849 0.100189 0.897400
0.000000 0.218262 0.897400
0.163330 0.218262 0.897400
0.301575 0.218262 0.897400
0.431732 0.218262 0.897400
0.556946 0.218262 0.897400
0.678528 0.218262 0.897400
0.797333 0.218262 0.897400
0.913849 0.218262 0.897400
0.000000 0.344238 0.897400
0.163330 0.344238 0.897400
0.301575 0.344238 0.897400
0.431732 0.344238 0.897400
0.556946 0.344238 0.897400
0.678528 0.344238 0.897400
0.797333 0.344238 0.897400
0.913849 0.344238 0.897400
0.000000 0.475616 0.897400
0.163330 0.475616 0.897400
0.301575 0.475616 0.897400
0.431732 0.475616 0.897400
0.556946 0.475616 0.897400
0.678528 0.475616 0.897400
0.797333 0.475616 0.897400
0.913849 0.475616 0.897400
0.000000 0.611176 0.897400
0.163330 0.611176 0.897400
0.301575 0.611176 0.897400
0.431732 0.611176 0.897400
0.556946 0.611176 0.897400
0.678528 0.611176 0.897400
0.797333 0.611176 0.897400
0.913849 0.611176 0.897400
0.000000 0.750092 0.897400
0.163330 0.750092 0.897400
0.301575 0.750092 0.897400
0.431732 0.750092 0.897400
0.556946 0.750092 0.897400
0.678528 0.750092 0.897400
0.797333 0.750092 0.897400
0.913849 0.750092 0.897400
0.000000 0.891937 0.897400
0.163330 0.891937 0.897400
0.301575 0.891937 0.897400
0.431732 0.891937 0.897400
0.556946 0.891937 0.897400
0.678528 0.891937 0.897400
0.797333 0.891937 0.897400
0.913849 0.891937 0.897400
