dist/luts/ABB EB ANNA HR 6.CUBE
#Created by: Adobe Photoshop Export Color Lookup Plugin
TITLE "ABB EB ANNA HR 6.psd"
#LUT size
LUT_3D_SIZE 5
#data domain
#LUT data points
DOMAIN_MIN 0.000000 0.000000 0.000000
DOMAIN_MAX 0.903226 0.903226 0.903226
0.000000 0.000000 0.000000
0.267975 0.000000 0.000000
0.494843 0.000000 0.000000
0.708466 0.000000 0.000000
0.913849 0.000000 0.000000
0.000000 0.187866 0.000000
0.267975 0.187866 0.000000
0.494843 0.187866 0.000000
0.708466 0.187866 0.000000
0.913849 0.187866 0.000000
0.000000 0.409332 0.000000
0.267975 0.409332 0.000000
0.494843 0.409332 0.000000
0.708466 0.409332 0.000000
0.913849 0.409332 0.000000
0.000000 0.645599 0.000000
0.267975 0.645599 0.000000
0.494843 0.645599 0.000000
0.708466 0.645599 0.000000
0.913849 0.645599 0.000000
0.000000 0.891937 0.000000
0.267975 0.891937 0.000000
0.494843 0.891937 0.000000
0.708466 0.891937 0.000000
0.913849 0.891937 0.000000
0.000000 0.000000 0.205353
0.267975 0.000000 0.205353
0.494843 0.000000 0.205353
0.708466 0.000000 0.205353
0.913849 0.000000 0.205353
0.000000 0.187866 0.205353
0.267975 0.187866 0.205353
0.494843 0.187866 0.205353
0.708466 0.187866 0.205353
0.913849 0.187866 0.205353
0.000000 0.409332 0.205353
0.267975 0.409332 0.205353
0.494843 0.409332 0.205353
0.708466 0.409332 0.205353
0.913849 0.409332 0.205353
0.000000 0.645599 0.205353
0.267975 0.645599 0.205353
0.494843 0.645599 0.205353
0.708466 0.645599 0.205353
0.913849 0.645599 0.205353
0.000000 0.891937 0.205353
0.267975 0.891937 0.205353
0.494843 0.891937 0.205353
0.708466 0.891937 0.205353
0.913849 0.891937 0.205353
0.000000 0.000000 0.429260
0.267975 0.000000 0.429260
0.494843 0.000000 0.429260
0.708466 0.000000 0.429260
0.913849 0.000000 0.429260
0.000000 0.187866 0.429260
0.267975 0.187866 0.429260
0.494843 0.187866 0.429260
0.708466 0.187866 0.429260
0.913849 0.187866 0.429260
0.000000 0.409332 0.429260
0.267975 0.409332 0.429260
0.494843 0.409332 0.429260
0.708466 0.409332 0.429260
0.913849 0.409332 0.429260
0.000000 0.645599 0.429260
0.267975 0.645599 0.429260
0.494843 0.645599 0.429260
0.708466 0.645599 0.429260
0.913849 0.645599 0.429260
0.000000 0.891937 0.429260
0.267975 0.891937 0.429260
0.494843 0.891937 0.429260
0.708466 0.891937 0.429260
0.913849 0.891937 0.429260
0.000000 0.000000 0.660797
0.267975 0.000000 0.660797
0.494843 0.000000 0.660797
0.708466 0.000000 0.660797
0.913849 0.000000 0.660797
0.000000 0.187866 0.660797
0.267975 0.187866 0.660797
0.494843 0.187866 0.660797
0.708466 0.187866 0.660797
0.913849 0.187866 0.660797
0.000000 0.409332 0.660797
0.267975 0.409332 0.660797
0.494843 0.409332 0.660797
0.708466 0.409332 0.660797
0.913849 0.409332 0.660797
0.000000 0.645599 0.660797
0.267975 0.645599 0.660797
0.494843 0.645599 0.660797
0.708466 0.645599 0.660797
0.913849 0.645599 0.660797
0.000000 0.891937 0.660797
0.267975 0.891937 0.660797
0.494843 0.891937 0.660797
0.708466 0.891937 0.660797
0.913849 0.891937 0.660797
0.000000 0.000000 0.897400
0.267975 0.000000 0.897400
0.494843 0.000000 0.897400
0.708466 0.000000 0.897400
0.913849 0.000000 0.897400
0.000000 0.187866 0.897400
0.267975 0.187866 0.897400
0.494843 0.187866 0.897400
0.708466 0.187866 0.897400
0.913849 0.187866 0.897400
0.000000 0.409332 0.897400
0.267975 0.409332 0.897400
0.494843 0.409332 0.897400
0.708466 0.409332 0.897400
0.913849 0.409332 0.897400
0.000000 0.645599 0.897400
0.267975 0.645599 0.897400
0.494843 0.645599 0.897400
0.708466 0.645599 0.897400
0.913849 0.645599 0.897400
0.000000 0.891937 0.897400
0.267975 0.891937 0.897400
0.494843 0.891937 0.897400
0.708466 0.891937 0.897400
0.913849 0.891937 0.897400
