dist/luts/ABB EB TOBIAS HYDROPOWER 12-Large.CUBE
#Created by: Adobe Photoshop Export Color Lookup Plugin
TITLE "ABB EB TOBIAS HYDROPOWER 12-Large.psd"
#LUT size
LUT_3D_SIZE 5
#data domain
#LUT data points
DOMAIN_MIN 0.000000 0.000000 0.000000
DOMAIN_MAX 0.903226 0.903226 0.903226
0.683502 0.657990 0.712372
0.687592 0.654144 0.708618
0.687592 0.654144 0.708618
0.630280 0.600342 0.655609
0.561157 0.546387 0.621399
0.424744 0.220795 0.174194
0.440674 0.236816 0.190582
0.432709 0.228821 0.182404
0.428711 0.224792 0.178314
0.361572 0.156281 0.107605
0.544983 0.347717 0.362610
0.549011 0.359497 0.362610
0.528839 0.308289 0.323151
0.634369 0.499939 0.483368
0.675293 0.596527 0.560303
0.188416 0.216766 0.275421
0.218597 0.248749 0.307281
0.210999 0.240784 0.299347
0.222382 0.252747 0.311249
0.214813 0.244781 0.307281
0.488617 0.511566 0.571808
0.397003 0.406525 0.471771
0.318542 0.308289 0.386139
0.279785 0.308289 0.382202
0.272064 0.300385 0.382202
0.671204 0.646454 0.701050
0.683502 0.650330 0.704834
0.695831 0.661804 0.716156
0.646606 0.615753 0.670776
0.508667 0.496063 0.571808
0.444641 0.240784 0.194702
0.428711 0.224792 0.178314
0.428711 0.224792 0.178314
0.393066 0.188660 0.141144
0.408875 0.204742 0.157715
0.569275 0.371307 0.386139
0.549011 0.351654 0.366516
0.508667 0.292480 0.315216
0.577393 0.394806 0.405670
0.658905 0.573395 0.541138
0.214813 0.244781 0.307281
0.229980 0.260712 0.323151
0.218597 0.248749 0.311249
0.207245 0.236816 0.299347
0.199707 0.228821 0.291382
0.508667 0.523193 0.583252
0.408875 0.406525 0.475647
0.334137 0.316193 0.397858
0.295258 0.320129 0.393982
0.283661 0.304321 0.390045
0.704041 0.677124 0.731262
0.704041 0.669464 0.723724
0.699951 0.665649 0.719940
0.609894 0.581116 0.636627
0.484589 0.472778 0.548828
0.444641 0.240784 0.194702
0.416809 0.212769 0.165955
0.436646 0.232788 0.186523
0.420776 0.216766 0.170105
0.444641 0.240784 0.194702
0.573303 0.375214 0.390045
0.540924 0.324097 0.354736
0.504669 0.300385 0.327087
0.524780 0.300385 0.334991
0.581421 0.429962 0.421295
0.222382 0.248749 0.323151
0.203461 0.228821 0.303314
0.237610 0.264679 0.338959
0.199707 0.224792 0.299347
0.214813 0.244781 0.307281
0.544983 0.550262 0.613800
0.444641 0.433868 0.506531
0.361572 0.335907 0.417419
0.310760 0.316193 0.397858
0.299133 0.308289 0.397858
0.712280 0.677124 0.723724
0.708191 0.680969 0.735016
0.658905 0.627289 0.682129
0.565186 0.530914 0.590912
0.480591 0.461121 0.541138
0.460571 0.256714 0.210968
0.460571 0.256714 0.210968
0.452606 0.248749 0.202850
0.456604 0.252747 0.206909
0.464600 0.260712 0.215027
0.532837 0.339874 0.354736
0.536896 0.339874 0.354736
0.484589 0.292480 0.307281
0.642548 0.465027 0.471771
0.667114 0.554108 0.525787
0.195923 0.228821 0.299347
0.214813 0.248749 0.327087
0.229980 0.264679 0.342896
0.203461 0.236816 0.315216
0.195923 0.220795 0.295349
0.589539 0.581116 0.640442
0.492615 0.468903 0.525787
0.424744 0.410461 0.475647
0.400970 0.390869 0.464050
0.338043 0.343781 0.417419
0.704041 0.669464 0.716156
0.691711 0.650330 0.708618
0.683502 0.631104 0.693512
0.573303 0.519318 0.587097
0.464600 0.433868 0.502686
0.492615 0.288513 0.243317
0.476562 0.272644 0.227173
0.460571 0.256714 0.210968
0.480591 0.276611 0.231201
0.492615 0.280579 0.239288
0.544983 0.351654 0.382202
0.524780 0.328033 0.366516
0.593628 0.468903 0.460144
0.642548 0.565704 0.518097
0.667114 0.584961 0.560303
0.222382 0.252747 0.342896
0.218597 0.252747 0.331055
0.233795 0.268677 0.346863
0.192169 0.224792 0.303314
0.195923 0.220795 0.311249
0.565186 0.557983 0.617615
0.524780 0.515442 0.567963
0.476562 0.472778 0.533478
0.448639 0.457245 0.521912
0.440674 0.449463 0.506531
