dist/luts/ABB EB TOBIAS HYDROPOWER 12-Large.CUBE
#Created by: Adobe Photoshop Export Color Lookup Plugin
TITLE "ABB EB TOBIAS HYDROPOWER 12-Large.psd"
#LUT size
LUT_3D_SIZE 32
#data domain
DOMAIN_MIN 0.0 0.0 0.0
DOMAIN_MAX 1.0 1.0 1.0
#LUT data points
0.683502 0.657990 0.712372
0.675293 0.650330 0.704834
0.687592 0.661804 0.716156
0.704041 0.677124 0.731262
0.691711 0.665649 0.719940
0.662994 0.638794 0.693512
0.699951 0.665649 0.719940
0.687592 0.654144 0.708618
0.679382 0.646454 0.701050
0.683502 0.650330 0.704834
0.687592 0.654144 0.708618
0.683502 0.650330 0.704834
0.683502 0.650330 0.704834
0.687592 0.654144 0.708618
0.687592 0.654144 0.708618
0.695831 0.661804 0.716156
0.687592 0.654144 0.708618
0.667114 0.634979 0.689697
0.654816 0.623413 0.678345
0.654816 0.623413 0.678345
0.650726 0.619598 0.674561
0.630280 0.600342 0.655609
0.630280 0.592651 0.651825
0.618042 0.581116 0.640442
0.589539 0.557983 0.625214
0.577393 0.546387 0.613800
0.577393 0.557983 0.628998
0.589539 0.569550 0.640442
0.561157 0.546387 0.621399
0.520782 0.507690 0.583252
0.508667 0.499939 0.590912
0.488617 0.480560 0.571808
0.699951 0.657990 0.708618
0.687592 0.646454 0.697266
0.662994 0.642639 0.685944
0.658905 0.638794 0.682129
0.658905 0.642639 0.685944
0.667114 0.650330 0.693512
0.671204 0.638794 0.685944
0.667114 0.634979 0.682129
0.662994 0.631104 0.678345
0.654816 0.623413 0.670776
0.650726 0.611908 0.663208
0.642548 0.604218 0.655609
0.638458 0.604218 0.648041
0.634369 0.600342 0.644226
0.622101 0.577240 0.625214
0.622101 0.577240 0.625214
0.622101 0.577240 0.617615
0.622101 0.577240 0.617615
0.613953 0.569550 0.609985
0.589539 0.546387 0.587097
0.565186 0.519318 0.560303
0.540924 0.496063 0.537292
0.516724 0.476654 0.525787
0.512726 0.472778 0.521912
0.512726 0.480560 0.533478
0.504669 0.472778 0.525787
0.464600 0.441650 0.498810
0.444641 0.422150 0.479523
0.416809 0.402618 0.467896
0.377289 0.363464 0.429077
0.381226 0.371307 0.444641
0.369415 0.359497 0.432983
0.432709 0.367371 0.409607
0.428711 0.363464 0.405670
0.448639 0.375214 0.401794
0.460571 0.386993 0.413483
0.480591 0.398712 0.425201
0.508667 0.426056 0.452393
0.488617 0.402618 0.421295
0.524780 0.437744 0.456299
0.540924 0.453339 0.471771
0.520782 0.433868 0.452393
0.528839 0.426056 0.448517
0.549011 0.445557 0.467896
0.565186 0.461121 0.483368
0.561157 0.457245 0.479523
0.573303 0.468903 0.491089
0.589539 0.484436 0.506531
0.585510 0.496063 0.514221
0.573303 0.484436 0.502686
0.557098 0.476654 0.483368
0.565186 0.484436 0.491089
0.577393 0.496063 0.502686
0.585510 0.503845 0.510376
0.557098 0.492188 0.510376
0.573303 0.507690 0.525787
0.581421 0.503845 0.518097
0.565186 0.488312 0.502686
0.573303 0.492188 0.498810
0.601746 0.519318 0.525787
0.605804 0.523193 0.529602
0.593628 0.511566 0.518097
0.618042 0.534790 0.541138
0.593628 0.511566 0.518097
0.233795 0.212769 0.247345
0.233795 0.212769 0.247345
0.222382 0.200714 0.235260
0.229980 0.208740 0.243317
0.245239 0.224792 0.259399
0.241425 0.220795 0.255371
0.252899 0.228821 0.247345
0.252899 0.228821 0.247345
0.264374 0.228821 0.243317
0.268250 0.232788 0.247345
0.268250 0.232788 0.247345
0.272064 0.236816 0.251373
0.275940 0.236816 0.247345
0.275940 0.236816 0.247345
0.275940 0.232788 0.235260
0.272064 0.228821 0.231201
0.264374 0.220795 0.223114
0.264374 0.220795 0.223114
0.279785 0.224792 0.215027
0.287506 0.232788 0.223114
0.291382 0.236816 0.235260
0.291382 0.236816 0.235260
0.310760 0.228821 0.227173
0.334137 0.252747 0.251373
0.334137 0.256714 0.255371
0.306885 0.228821 0.227173
0.299133 0.212769 0.223114
0.314667 0.228821 0.239288
0.314667 0.232788 0.231201
0.303009 0.220795 0.219086
0.326324 0.248749 0.263397
0.314667 0.236816 0.251373
0.147491 0.123657 0.124420
0.143799 0.119537 0.120239
0.151154 0.127747 0.128632
0.158569 0.135925 0.136993
0.147491 0.123657 0.124420
0.129120 0.103088 0.103394
0.132812 0.119537 0.141144
0.118225 0.103088 0.124420
0.110962 0.094788 0.116028
0.118225 0.103088 0.124420
0.118225 0.103088 0.124420
0.103760 0.086487 0.107605
0.082306 0.069794 0.086304
0.075287 0.061401 0.077728
0.103760 0.094788 0.111847
0.100128 0.090668 0.107605
0.089417 0.090668 0.103394
0.085846 0.086487 0.099091
0.085846 0.086487 0.099091
0.085846 0.086487 0.099091
0.089417 0.090668 0.103394
0.089417 0.090668 0.103394
0.100128 0.090668 0.116028
0.092987 0.082336 0.107605
0.096558 0.086487 0.111847
0.110962 0.103088 0.128632
0.110962 0.103088 0.128632
0.096558 0.086487 0.111847
0.092987 0.082336 0.107605
0.103760 0.094788 0.120239
0.089417 0.078156 0.103394
0.110962 0.103088 0.128632
0.536896 0.284546 0.279388
0.565186 0.312225 0.307281
0.565186 0.312225 0.307281
0.544983 0.292480 0.287384
0.504669 0.248749 0.243317
0.536896 0.280579 0.275421
0.540924 0.300385 0.283417
0.544983 0.304321 0.287384
0.544983 0.304321 0.287384
0.540924 0.300385 0.283417
0.549011 0.300385 0.283417
0.540924 0.292480 0.275421
0.520782 0.264679 0.247345
0.492615 0.236816 0.219086
0.536896 0.272644 0.255371
0.508667 0.244781 0.227173
0.508667 0.236816 0.223114
0.516724 0.244781 0.231201
0.504669 0.224792 0.215027
0.500641 0.220795 0.210968
0.492615 0.220795 0.206909
0.476562 0.204742 0.190582
0.460571 0.236816 0.219086
0.448639 0.224792 0.206909
0.444641 0.232788 0.202850
0.440674 0.228821 0.198761
0.397003 0.208740 0.170105
0.377289 0.188660 0.149445
0.334137 0.184601 0.141144
0.306885 0.156281 0.111847
0.272064 0.160339 0.128632
0.268250 0.156281 0.124420
0.310760 0.164398 0.128632
0.314667 0.168457 0.132812
0.318542 0.172516 0.136993
0.330231 0.184601 0.149445
0.349762 0.204742 0.170105
0.361572 0.216766 0.182404
0.357605 0.172516 0.149445
0.357605 0.172516 0.149445
0.353699 0.168457 0.145294
0.357605 0.172516 0.149445
0.369415 0.180603 0.141144
0.389099 0.200714 0.161865
0.424744 0.212769 0.170105
0.436646 0.224792 0.182404
0.492615 0.248749 0.198761
0.472595 0.228821 0.178314
0.492615 0.224792 0.178314
0.520782 0.252747 0.206909
0.549011 0.248749 0.202850
0.528839 0.228821 0.182404
0.553070 0.240784 0.190582
0.589539 0.276611 0.227173
0.528839 0.240784 0.190582
0.565186 0.276611 0.227173
0.573303 0.272644 0.227173
0.569275 0.268677 0.223114
0.585510 0.284546 0.239288
0.573303 0.272644 0.227173
0.549011 0.256714 0.219086
0.573303 0.280579 0.243317
0.540924 0.256714 0.215027
0.553070 0.268677 0.227173
0.424744 0.220795 0.174194
0.393066 0.188660 0.141144
0.416809 0.212769 0.165955
0.428711 0.224792 0.178314
0.416809 0.212769 0.165955
0.420776 0.216766 0.170105
0.420776 0.216766 0.170105
0.440674 0.236816 0.190582
0.452606 0.248749 0.202850
0.444641 0.240784 0.194702
0.432709 0.228821 0.182404
0.428711 0.224792 0.178314
0.428711 0.224792 0.178314
0.424744 0.220795 0.174194
0.432709 0.228821 0.182404
0.432709 0.228821 0.182404
0.432709 0.228821 0.182404
0.424744 0.220795 0.174194
0.416809 0.212769 0.165955
0.416809 0.212769 0.165955
0.420776 0.216766 0.170105
0.428711 0.224792 0.178314
0.416809 0.212769 0.165955
0.404907 0.200714 0.153595
0.400970 0.196716 0.149445
0.400970 0.196716 0.149445
0.389099 0.184601 0.136993
0.365479 0.160339 0.111847
0.361572 0.156281 0.107605
0.373322 0.168457 0.120239
0.377289 0.172516 0.124420
0.361572 0.156281 0.107605
0.472595 0.264679 0.210968
0.484589 0.276611 0.223114
0.492615 0.284546 0.231201
0.488617 0.280579 0.227173
0.496643 0.288513 0.235260
0.504669 0.296417 0.243317
0.460571 0.260712 0.194702
0.448639 0.248749 0.182404
0.452606 0.252747 0.186523
0.476562 0.276611 0.210968
0.484589 0.284546 0.219086
0.476562 0.276611 0.210968
0.472595 0.272644 0.206909
0.480591 0.280579 0.215027
0.504669 0.304321 0.239288
0.484589 0.284546 0.219086
0.472595 0.272644 0.206909
0.484589 0.284546 0.219086
0.496643 0.296417 0.231201
0.500641 0.300385 0.235260
0.504669 0.304321 0.239288
0.512726 0.312225 0.247345
0.512726 0.308289 0.263397
0.492615 0.288513 0.243317
0.488617 0.284546 0.239288
0.488617 0.284546 0.239288
0.480591 0.276611 0.231201
0.488617 0.284546 0.239288
0.496643 0.292480 0.247345
0.480591 0.276611 0.231201
0.468567 0.264679 0.219086
0.460571 0.256714 0.210968
0.540924 0.331970 0.303314
0.553070 0.343781 0.315216
0.553070 0.343781 0.315216
0.540924 0.331970 0.303314
0.540924 0.331970 0.303314
0.553070 0.343781 0.315216
0.557098 0.343781 0.311249
0.520782 0.308289 0.275421
0.516724 0.304321 0.271393
0.561157 0.347717 0.315216
0.581421 0.367371 0.334991
0.553070 0.339874 0.307281
0.544983 0.331970 0.299347
0.565186 0.351654 0.319183
0.516724 0.304321 0.271393
0.565186 0.351654 0.319183
0.544983 0.331970 0.299347
0.528839 0.316193 0.283417
0.573303 0.359497 0.327087
0.569275 0.355591 0.323151
0.536896 0.324097 0.291382
0.549011 0.335907 0.303314
0.565186 0.339874 0.315216
0.565186 0.339874 0.315216
0.561157 0.335907 0.311249
0.557098 0.331970 0.307281
0.557098 0.331970 0.307281
0.553070 0.328033 0.303314
0.553070 0.328033 0.303314
0.553070 0.328033 0.303314
0.520782 0.296417 0.271393
0.540924 0.316193 0.291382
0.484589 0.304321 0.307281
0.476562 0.296417 0.299347
0.444641 0.264679 0.267426
0.476562 0.296417 0.299347
0.504669 0.324097 0.327087
0.464600 0.284546 0.287384
0.480591 0.292480 0.291382
0.500641 0.312225 0.311249
0.500641 0.312225 0.311249
0.496643 0.308289 0.307281
0.504669 0.316193 0.315216
0.504669 0.316193 0.315216
0.504669 0.316193 0.315216
0.524780 0.335907 0.334991
0.492615 0.304321 0.303314
0.484589 0.296417 0.295349
0.496643 0.308289 0.307281
0.508667 0.320129 0.319183
0.492615 0.304321 0.303314
0.484589 0.296417 0.295349
0.488617 0.300385 0.299347
0.488617 0.300385 0.299347
0.528839 0.339874 0.338959
0.516724 0.328033 0.327087
0.512726 0.324097 0.323151
0.516724 0.328033 0.327087
0.508667 0.331970 0.327087
0.504669 0.328033 0.323151
0.512726 0.335907 0.331055
0.524780 0.347717 0.342896
0.508667 0.339874 0.331055
0.520782 0.351654 0.342896
0.484589 0.304321 0.307281
0.488617 0.308289 0.311249
0.516724 0.339874 0.334991
0.512726 0.335907 0.331055
0.508667 0.331970 0.327087
0.528839 0.351654 0.346863
0.524780 0.335907 0.334991
0.532837 0.343781 0.342896
0.524780 0.335907 0.334991
0.516724 0.328033 0.327087
0.524780 0.335907 0.334991
0.540924 0.351654 0.350769
0.536896 0.339874 0.342896
0.516724 0.320129 0.323151
0.516724 0.320129 0.323151
0.532837 0.335907 0.338959
0.544983 0.347717 0.350769
0.544983 0.347717 0.350769
0.532837 0.331970 0.334991
0.516724 0.316193 0.319183
0.508667 0.308289 0.311249
0.508667 0.308289 0.311249
0.492615 0.304321 0.295349
0.516724 0.328033 0.319183
0.528839 0.335907 0.319183
0.516724 0.324097 0.307281
0.520782 0.312225 0.299347
0.520782 0.312225 0.299347
0.512726 0.296417 0.295349
0.496643 0.280579 0.279388
0.504669 0.300385 0.311249
0.496643 0.292480 0.303314
0.544983 0.383057 0.386139
0.569275 0.406525 0.409607
0.581421 0.406525 0.405670
0.549011 0.375214 0.374359
0.536896 0.363464 0.362610
0.569275 0.394806 0.393982
0.585510 0.383057 0.386139
0.573303 0.371307 0.374359
0.549011 0.347717 0.350769
0.553070 0.351654 0.354736
0.585510 0.371307 0.370453
0.577393 0.363464 0.362610
0.561157 0.347717 0.346863
0.565186 0.351654 0.350769
0.549011 0.331970 0.331055
0.536896 0.320129 0.319183
0.536896 0.320129 0.311249
0.549011 0.331970 0.323151
0.544983 0.328033 0.319183
0.532837 0.316193 0.307281
0.544983 0.316193 0.311249
0.561157 0.331970 0.327087
0.532837 0.339874 0.354736
0.496643 0.304321 0.319183
0.460571 0.268677 0.283417
0.448639 0.256714 0.271393
0.440674 0.248749 0.271393
0.408875 0.216766 0.239288
0.412842 0.232788 0.251373
0.464600 0.284546 0.303314
0.448639 0.268677 0.287384
0.452606 0.272644 0.291382
0.544983 0.347717 0.362610
0.540924 0.343781 0.358643
0.549011 0.343781 0.362610
0.557098 0.351654 0.370453
0.569275 0.363464 0.382202
0.577393 0.371307 0.390045
0.544983 0.339874 0.358643
0.569275 0.363464 0.382202
0.557098 0.351654 0.370453
0.549011 0.343781 0.362610
0.577393 0.363464 0.374359
0.565186 0.351654 0.362610
0.540924 0.328033 0.338959
0.561157 0.347717 0.358643
0.573303 0.351654 0.362610
0.581421 0.359497 0.370453
0.573303 0.351654 0.362610
0.549011 0.328033 0.338959
0.524780 0.308289 0.307281
0.504669 0.288513 0.287384
0.492615 0.264679 0.267426
0.480591 0.252747 0.255371
0.524780 0.312225 0.319183
0.520782 0.308289 0.315216
0.504669 0.304321 0.299347
0.524780 0.324097 0.319183
0.553070 0.355591 0.331055
0.553070 0.355591 0.331055
0.553070 0.363464 0.327087
0.581421 0.390869 0.354736
0.585510 0.398712 0.362610
0.581421 0.394806 0.358643
0.544983 0.347717 0.362610
0.532837 0.335907 0.350769
0.540924 0.335907 0.354736
0.540924 0.335907 0.354736
0.540924 0.335907 0.354736
0.536896 0.331970 0.350769
0.540924 0.351654 0.354736
0.549011 0.359497 0.362610
0.553070 0.355591 0.362610
0.549011 0.351654 0.358643
0.569275 0.347717 0.362610
0.577393 0.355591 0.370453
0.589539 0.355591 0.374359
0.581421 0.347717 0.366516
0.528839 0.308289 0.323151
0.536896 0.316193 0.331055
0.536896 0.347717 0.350769
0.561157 0.371307 0.374359
0.540924 0.386993 0.378296
0.553070 0.398712 0.390045
0.581421 0.449463 0.432983
0.634369 0.499939 0.483368
0.634369 0.534790 0.506531
0.650726 0.550262 0.521912
0.662994 0.565704 0.537292
0.675293 0.577240 0.548828
0.671204 0.584961 0.552643
0.675293 0.588806 0.556488
0.675293 0.596527 0.560303
0.683502 0.604218 0.567963
0.687592 0.608063 0.571808
0.691711 0.611908 0.575623
0.500641 0.324097 0.350769
0.508667 0.331970 0.358643
0.504669 0.328033 0.354736
0.484589 0.308289 0.334991
0.484589 0.308289 0.334991
0.508667 0.331970 0.358643
0.500641 0.308289 0.338959
0.504669 0.312225 0.342896
0.488617 0.304321 0.334991
0.488617 0.304321 0.334991
0.528839 0.351654 0.378296
0.593628 0.414337 0.440765
0.605804 0.453339 0.460144
0.593628 0.441650 0.448517
0.613953 0.492188 0.491089
0.667114 0.542542 0.541138
0.671204 0.588806 0.564148
0.675293 0.592651 0.567963
0.650726 0.604218 0.567963
0.634369 0.588806 0.552643
0.613953 0.584961 0.541138
0.622101 0.592651 0.548828
0.654816 0.584961 0.541138
0.667114 0.596527 0.552643
0.658905 0.588806 0.544983
0.654816 0.584961 0.541138
0.658905 0.584961 0.548828
0.654816 0.581116 0.544983
0.675293 0.596527 0.560303
0.716431 0.634979 0.598541
0.687592 0.611908 0.583252
0.691711 0.615753 0.587097
0.428711 0.268677 0.311249
0.448639 0.288513 0.331055
0.464600 0.304321 0.331055
0.472595 0.312225 0.338959
0.480591 0.324097 0.342896
0.484589 0.328033 0.346863
0.488617 0.312225 0.331055
0.504669 0.328033 0.346863
0.492615 0.331970 0.334991
0.492615 0.331970 0.334991
0.512726 0.355591 0.358643
0.516724 0.359497 0.362610
0.496643 0.347717 0.346863
0.488617 0.339874 0.338959
0.492615 0.363464 0.346863
0.488617 0.359497 0.342896
0.488617 0.375214 0.354736
0.516724 0.402618 0.382202
0.549011 0.441650 0.413483
0.581421 0.472778 0.444641
0.609894 0.511566 0.479523
0.638458 0.538635 0.506531
0.658905 0.573395 0.537292
0.683502 0.596527 0.560303
0.662994 0.584961 0.548828
0.691711 0.611908 0.575623
0.683502 0.608063 0.587097
0.650726 0.577240 0.556488
0.667114 0.596527 0.598541
0.650726 0.581116 0.583252
0.512726 0.453339 0.475647
0.416809 0.359497 0.382202
0.326324 0.264679 0.307281
0.338043 0.276611 0.319183
0.326324 0.264679 0.307281
0.322449 0.260712 0.303314
0.338043 0.276611 0.319183
0.345886 0.284546 0.327087
0.369415 0.316193 0.323151
0.381226 0.328033 0.334991
0.412842 0.359497 0.366516
0.448639 0.394806 0.401794
0.448639 0.394806 0.401794
0.432709 0.379150 0.386139
0.428711 0.375214 0.382202
0.440674 0.386993 0.393982
0.389099 0.335907 0.342896
0.400970 0.347717 0.354736
0.420776 0.367371 0.374359
0.432709 0.379150 0.386139
0.436646 0.383057 0.390045
0.456604 0.402618 0.409607
0.456604 0.402618 0.409607
0.424744 0.371307 0.378296
0.373322 0.312225 0.354736
0.381226 0.320129 0.362610
0.385162 0.335907 0.374359
0.377289 0.328033 0.366516
0.314667 0.288513 0.319183
0.252899 0.224792 0.255371
0.203461 0.196716 0.227173
0.203461 0.196716 0.227173
0.203461 0.212769 0.247345
0.184692 0.192657 0.227173
0.488617 0.371307 0.378296
0.496643 0.379150 0.386139
0.496643 0.379150 0.386139
0.488617 0.371307 0.378296
0.476562 0.367371 0.370453
0.468567 0.359497 0.362610
0.524780 0.406525 0.417419
0.524780 0.406525 0.417419
0.512726 0.394806 0.405670
0.496643 0.379150 0.390045
0.492615 0.375214 0.386139
0.500641 0.383057 0.393982
0.508667 0.390869 0.401794
0.504669 0.386993 0.397858
0.488617 0.371307 0.382202
0.500641 0.383057 0.393982
0.520782 0.402618 0.413483
0.524780 0.406525 0.417419
0.516724 0.398712 0.409607
0.500641 0.383057 0.393982
0.488617 0.371307 0.382202
0.480591 0.363464 0.374359
0.516724 0.394806 0.417419
0.492615 0.371307 0.393982
0.504669 0.383057 0.405670
0.524780 0.402618 0.425201
0.512726 0.390869 0.413483
0.520782 0.398712 0.421295
0.528839 0.406525 0.429077
0.496643 0.375214 0.397858
0.536896 0.414337 0.436859
0.528839 0.406525 0.429077
0.557098 0.398712 0.409607
0.544983 0.386993 0.397858
0.577393 0.418274 0.429077
0.581421 0.422150 0.432983
0.553070 0.394806 0.405670
0.549011 0.390869 0.401794
0.573303 0.414337 0.425201
0.577393 0.418274 0.429077
0.565186 0.406525 0.417419
0.561157 0.402618 0.413483
0.577393 0.418274 0.429077
0.569275 0.410461 0.421295
0.553070 0.394806 0.405670
0.553070 0.394806 0.405670
0.569275 0.410461 0.421295
0.569275 0.410461 0.421295
0.565186 0.406525 0.417419
0.565186 0.406525 0.417419
0.565186 0.406525 0.417419
0.569275 0.410461 0.421295
0.577393 0.418274 0.429077
0.577393 0.418274 0.429077
0.585510 0.426056 0.436859
0.577393 0.418274 0.429077
0.565186 0.406525 0.417419
0.565186 0.406525 0.417419
0.569275 0.418274 0.425201
0.544983 0.394806 0.401794
0.528839 0.379150 0.386139
0.553070 0.402618 0.409607
0.536896 0.394806 0.401794
0.540924 0.398712 0.405670
0.540924 0.472778 0.452393
0.565186 0.496063 0.475647
0.557098 0.488312 0.467896
0.524780 0.457245 0.436859
0.544983 0.476654 0.456299
0.593628 0.523193 0.502686
0.565186 0.488312 0.471771
0.569275 0.492188 0.475647
0.553070 0.476654 0.460144
0.544983 0.468903 0.452393
0.557098 0.480560 0.464050
0.565186 0.488312 0.471771
0.573303 0.496063 0.479523
0.593628 0.515442 0.498810
0.589539 0.511566 0.494965
0.589539 0.511566 0.494965
0.573303 0.496063 0.479523
0.565186 0.488312 0.471771
0.581421 0.503845 0.487244
0.577393 0.499939 0.483368
0.557098 0.480560 0.464050
0.557098 0.480560 0.464050
0.561157 0.484436 0.467896
0.561157 0.484436 0.467896
0.561157 0.484436 0.467896
0.557098 0.480560 0.464050
0.553070 0.476654 0.460144
0.553070 0.476654 0.460144
0.557098 0.480560 0.464050
0.561157 0.484436 0.467896
0.536896 0.461121 0.444641
0.557098 0.480560 0.464050
0.188416 0.216766 0.275421
0.195923 0.224792 0.283417
0.207245 0.236816 0.295349
0.210999 0.240784 0.299347
0.210999 0.240784 0.299347
0.210999 0.240784 0.299347
0.218597 0.248749 0.307281
0.218597 0.248749 0.307281
0.222382 0.252747 0.311249
0.222382 0.252747 0.311249
0.222382 0.252747 0.311249
0.222382 0.252747 0.311249
0.222382 0.252747 0.311249
0.222382 0.252747 0.311249
0.210999 0.240784 0.299347
0.214813 0.244781 0.303314
0.214813 0.244781 0.303314
0.222382 0.252747 0.311249
0.229980 0.260712 0.319183
0.229980 0.260712 0.319183
0.226166 0.256714 0.315216
0.222382 0.252747 0.311249
0.199707 0.232788 0.295349
0.199707 0.232788 0.295349
0.203461 0.236816 0.299347
0.214813 0.248749 0.311249
0.222382 0.256714 0.319183
0.222382 0.256714 0.319183
0.214813 0.244781 0.307281
0.203461 0.232788 0.295349
0.207245 0.236816 0.299347
0.207245 0.236816 0.299347
0.222382 0.256714 0.327087
0.226166 0.260712 0.331055
0.233795 0.268677 0.338959
0.229980 0.264679 0.334991
0.226166 0.260712 0.331055
0.229980 0.264679 0.334991
0.256714 0.288513 0.350769
0.229980 0.260712 0.323151
0.222382 0.252747 0.315216
0.245239 0.276611 0.338959
0.260559 0.292480 0.354736
0.256714 0.288513 0.350769
0.241425 0.272644 0.334991
0.241425 0.272644 0.334991
0.226166 0.256714 0.319183
0.233795 0.264679 0.327087
0.222382 0.252747 0.315216
0.229980 0.260712 0.323151
0.260559 0.292480 0.354736
0.237610 0.268677 0.331055
0.218597 0.248749 0.311249
0.249054 0.280579 0.342896
0.184692 0.212769 0.271393
0.207245 0.236816 0.295349
0.218597 0.248749 0.307281
0.207245 0.236816 0.295349
0.210999 0.240784 0.299347
0.229980 0.260712 0.319183
0.233795 0.264679 0.323151
0.214813 0.244781 0.303314
0.203461 0.232788 0.291382
0.233795 0.264679 0.323151
0.549011 0.577240 0.632843
0.549011 0.577240 0.632843
0.553070 0.581116 0.636627
0.553070 0.581116 0.636627
0.549011 0.577240 0.632843
0.544983 0.573395 0.628998
0.561157 0.588806 0.644226
0.561157 0.588806 0.644226
0.561157 0.588806 0.644226
0.565186 0.592651 0.648041
0.569275 0.596527 0.651825
0.573303 0.600342 0.655609
0.577393 0.596527 0.655609
0.581421 0.600342 0.659393
0.569275 0.588806 0.648041
0.581421 0.600342 0.659393
0.597687 0.608063 0.666992
0.593628 0.604218 0.663208
0.581421 0.592651 0.651825
0.569275 0.581116 0.640442
0.565186 0.577240 0.636627
0.565186 0.577240 0.636627
0.581421 0.592651 0.636627
0.569275 0.581116 0.625214
0.569275 0.581116 0.625214
0.565186 0.577240 0.621399
0.557098 0.569550 0.613800
0.569275 0.581116 0.625214
0.577393 0.588806 0.632843
0.557098 0.569550 0.613800
0.573303 0.584961 0.628998
0.565186 0.577240 0.621399
0.569275 0.596527 0.655609
0.581421 0.608063 0.666992
0.581421 0.608063 0.666992
0.573303 0.600342 0.659393
0.565186 0.592651 0.651825
0.561157 0.588806 0.648041
0.585510 0.611908 0.670776
0.585510 0.611908 0.670776
0.585510 0.611908 0.670776
0.581421 0.608063 0.666992
0.581421 0.608063 0.666992
0.581421 0.608063 0.666992
0.589539 0.615753 0.674561
0.597687 0.623413 0.682129
0.577393 0.604218 0.663208
0.577393 0.604218 0.663208
0.577393 0.604218 0.663208
0.577393 0.604218 0.663208
0.577393 0.604218 0.663208
0.577393 0.604218 0.663208
0.573303 0.600342 0.659393
0.573303 0.600342 0.659393
0.589539 0.615753 0.670776
0.589539 0.615753 0.670776
0.589539 0.615753 0.670776
0.589539 0.615753 0.670776
0.585510 0.611908 0.666992
0.577393 0.604218 0.659393
0.573303 0.600342 0.655609
0.569275 0.596527 0.651825
0.565186 0.592651 0.648041
0.565186 0.592651 0.648041
0.585510 0.615753 0.674561
0.585510 0.615753 0.674561
0.585510 0.615753 0.674561
0.593628 0.623413 0.682129
0.593628 0.623413 0.682129
0.581421 0.611908 0.670776
0.601746 0.631104 0.689697
0.581421 0.611908 0.670776
0.573303 0.604218 0.663208
0.589539 0.619598 0.678345
0.601746 0.631104 0.689697
0.597687 0.627289 0.685944
0.597687 0.627289 0.685944
0.609894 0.638794 0.697266
0.605804 0.634979 0.693512
0.597687 0.627289 0.685944
0.597687 0.627289 0.685944
0.601746 0.631104 0.689697
0.597687 0.627289 0.685944
0.589539 0.619598 0.678345
0.589539 0.619598 0.678345
0.593628 0.623413 0.682129
0.593628 0.623413 0.682129
0.589539 0.619598 0.678345
0.585510 0.615753 0.674561
0.581421 0.611908 0.670776
0.581421 0.611908 0.670776
0.581421 0.611908 0.670776
0.581421 0.611908 0.670776
0.585510 0.615753 0.674561
0.581421 0.611908 0.670776
0.581421 0.611908 0.670776
0.472595 0.503845 0.560303
0.468567 0.499939 0.556488
0.456604 0.488312 0.544983
0.452606 0.484436 0.541138
0.468567 0.499939 0.556488
0.488617 0.519318 0.575623
0.504669 0.534790 0.590912
0.508667 0.538635 0.594727
0.508667 0.538635 0.594727
0.508667 0.538635 0.594727
0.508667 0.538635 0.594727
0.512726 0.542542 0.598541
0.520782 0.550262 0.606171
0.528839 0.557983 0.613800
0.524780 0.554108 0.609985
0.524780 0.554108 0.609985
0.520782 0.550262 0.606171
0.524780 0.554108 0.609985
0.524780 0.554108 0.609985
0.520782 0.550262 0.606171
0.512726 0.542542 0.598541
0.500641 0.530914 0.587097
0.528839 0.557983 0.613800
0.516724 0.546387 0.602356
0.508667 0.538635 0.594727
0.504669 0.534790 0.590912
0.508667 0.538635 0.594727
0.504669 0.534790 0.590912
0.496643 0.527069 0.583252
0.484589 0.515442 0.571808
0.504669 0.534790 0.590912
0.500641 0.530914 0.587097
0.428711 0.468903 0.521912
0.424744 0.465027 0.518097
0.393066 0.433868 0.487244
0.404907 0.445557 0.498810
0.424744 0.465027 0.518097
0.408875 0.449463 0.502686
0.408875 0.445557 0.514221
0.400970 0.437744 0.506531
0.404907 0.441650 0.510376
0.416809 0.453339 0.521912
0.408875 0.445557 0.514221
0.393066 0.429962 0.498810
0.389099 0.426056 0.502686
0.400970 0.437744 0.514221
0.432709 0.468903 0.544983
0.400970 0.437744 0.514221
0.369415 0.406525 0.483368
