dist/luts/download17d8550068d4367a2799bf089c8c20f0.CUBE
#Created by: Adobe Photoshop Export Color Lookup Plugin
TITLE "download17d8550068d4367a2799bf089c8c20f0.psd"
#LUT size
LUT_3D_SIZE 8
#data domain
#LUT data points
DOMAIN_MIN 0.000000 0.000000 0.000000
DOMAIN_MAX 0.903226 0.903226 0.903226
0.000000 0.000000 0.000000
0.102783 0.000000 0.000000
0.221985 0.000000 0.000000
0.348358 0.000000 0.000000
0.479584 0.000000 0.000000
0.614502 0.000000 0.000000
0.752502 0.000000 0.000000
0.893066 0.000000 0.000000
0.000000 0.129028 0.000000
0.102783 0.129028 0.000000
0.221985 0.129028 0.000000
0.348358 0.129028 0.000000
0.479584 0.129028 0.000000
0.614502 0.129028 0.000000
0.752502 0.129028 0.000000
0.893066 0.129028 0.000000
0.000000 0.258057 0.000000
0.102783 0.258057 0.000000
0.221985 0.258057 0.000000
0.348358 0.258057 0.000000
0.479584 0.258057 0.000000
0.614502 0.258057 0.000000
0.752502 0.258057 0.000000
0.893066 0.258057 0.000000
0.000000 0.387085 0.000000
0.102783 0.387085 0.000000
0.221985 0.387085 0.000000
0.348358 0.387085 0.000000
0.479584 0.387085 0.000000
0.614502 0.387085 0.000000
0.752502 0.387085 0.000000
0.893066 0.387085 0.000000
0.000000 0.516144 0.000000
0.102783 0.516144 0.000000
0.221985 0.516144 0.000000
0.348358 0.516144 0.000000
0.479584 0.516144 0.000000
0.614502 0.516144 0.000000
0.752502 0.516144 0.000000
0.893066 0.516144 0.000000
0.000000 0.645172 0.000000
0.102783 0.645172 0.000000
0.221985 0.645172 0.000000
0.348358 0.645172 0.000000
0.479584 0.645172 0.000000
0.614502 0.645172 0.000000
0.752502 0.645172 0.000000
0.893066 0.645172 0.000000
0.000000 0.774200 0.000000
0.102783 0.774200 0.000000
0.221985 0.774200 0.000000
0.348358 0.774200 0.000000
0.479584 0.774200 0.000000
0.614502 0.774200 0.000000
0.752502 0.774200 0.000000
0.893066 0.774200 0.000000
0.000000 0.903229 0.000000
0.102783 0.903229 0.000000
0.221985 0.903229 0.000000
0.348358 0.903229 0.000000
0.479584 0.903229 0.000000
0.614502 0.903229 0.000000
0.752502 0.903229 0.000000
0.893066 0.903229 0.000000
0.000000 0.000000 0.163330
0.102783 0.000000 0.163330
0.221985 0.000000 0.163330
0.348358 0.000000 0.163330
0.479584 0.000000 0.163330
0.614502 0.000000 0.163330
0.752502 0.000000 0.163330
0.893066 0.000000 0.163330
0.000000 0.129028 0.163330
0.102783 0.129028 0.163330
0.221985 0.129028 0.163330
0.348358 0.129028 0.163330
0.479584 0.129028 0.163330
0.614502 0.129028 0.163330
0.752502 0.129028 0.163330
0.893066 0.129028 0.163330
0.000000 0.258057 0.163330
0.102783 0.258057 0.163330
0.221985 0.258057 0.163330
0.348358 0.258057 0.163330
0.479584 0.258057 0.163330
0.614502 0.258057 0.163330
0.752502 0.258057 0.163330
0.893066 0.258057 0.163330
0.000000 0.387085 0.163330
0.102783 0.387085 0.163330
0.221985 0.387085 0.163330
0.348358 0.387085 0.163330
0.479584 0.387085 0.163330
0.614502 0.387085 0.163330
0.752502 0.387085 0.163330
0.893066 0.387085 0.163330
0.000000 0.516144 0.163330
0.102783 0.516144 0.163330
0.221985 0.516144 0.163330
0.348358 0.516144 0.163330
0.479584 0.516144 0.163330
0.614502 0.516144 0.163330
0.752502 0.516144 0.163330
0.893066 0.516144 0.163330
0.000000 0.645172 0.163330
0.102783 0.645172 0.163330
0.221985 0.645172 0.163330
0.348358 0.645172 0.163330
0.479584 0.645172 0.163330
0.614502 0.645172 0.163330
0.752502 0.645172 0.163330
0.893066 0.645172 0.163330
0.000000 0.774200 0.163330
0.102783 0.774200 0.163330
0.221985 0.774200 0.163330
0.348358 0.774200 0.163330
0.479584 0.774200 0.163330
0.614502 0.774200 0.163330
0.752502 0.774200 0.163330
0.893066 0.774200 0.163330
0.000000 0.903229 0.163330
0.102783 0.903229 0.163330
0.221985 0.903229 0.163330
0.348358 0.903229 0.163330
0.479584 0.903229 0.163330
0.614502 0.903229 0.163330
0.752502 0.903229 0.163330
0.893066 0.903229 0.163330
0.000000 0.000000 0.301575
0.102783 0.000000 0.301575
0.221985 0.000000 0.301575
0.348358 0.000000 0.301575
0.479584 0.000000 0.301575
0.614502 0.000000 0.301575
0.752502 0.000000 0.301575
0.893066 0.000000 0.301575
0.000000 0.129028 0.301575
0.102783 0.129028 0.301575
0.221985 0.129028 0.301575
0.348358 0.129028 0.301575
0.479584 0.129028 0.301575
0.614502 0.129028 0.301575
0.752502 0.129028 0.301575
0.893066 0.129028 0.301575
0.000000 0.258057 0.301575
0.102783 0.258057 0.301575
0.221985 0.258057 0.301575
0.348358 0.258057 0.301575
0.479584 0.258057 0.301575
0.614502 0.258057 0.301575
0.752502 0.258057 0.301575
0.893066 0.258057 0.301575
0.000000 0.387085 0.301575
0.102783 0.387085 0.301575
0.221985 0.387085 0.301575
0.348358 0.387085 0.301575
0.479584 0.387085 0.301575
0.614502 0.387085 0.301575
0.752502 0.387085 0.301575
0.893066 0.387085 0.301575
0.000000 0.516144 0.301575
0.102783 0.516144 0.301575
0.221985 0.516144 0.301575
0.348358 0.516144 0.301575
0.479584 0.516144 0.301575
0.614502 0.516144 0.301575
0.752502 0.516144 0.301575
0.893066 0.516144 0.301575
0.000000 0.645172 0.301575
0.102783 0.645172 0.301575
0.221985 0.645172 0.301575
0.348358 0.645172 0.301575
0.479584 0.645172 0.301575
0.614502 0.645172 0.301575
0.752502 0.645172 0.301575
0.893066 0.645172 0.301575
0.000000 0.774200 0.301575
0.102783 0.774200 0.301575
0.221985 0.774200 0.301575
0.348358 0.774200 0.301575
0.479584 0.774200 0.301575
0.614502 0.774200 0.301575
0.752502 0.774200 0.301575
0.893066 0.774200 0.301575
0.000000 0.903229 0.301575
0.102783 0.903229 0.301575
0.221985 0.903229 0.301575
0.348358 0.903229 0.301575
0.479584 0.903229 0.301575
0.614502 0.903229 0.301575
0.752502 0.903229 0.301575
0.893066 0.903229 0.301575
0.000000 0.000000 0.431732
0.102783 0.000000 0.431732
0.221985 0.000000 0.431732
0.348358 0.000000 0.431732
0.479584 0.000000 0.431732
0.614502 0.000000 0.431732
0.752502 0.000000 0.431732
0.893066 0.000000 0.431732
0.000000 0.129028 0.431732
0.102783 0.129028 0.431732
0.221985 0.129028 0.431732
0.348358 0.129028 0.431732
0.479584 0.129028 0.431732
0.614502 0.129028 0.431732
0.752502 0.129028 0.431732
0.893066 0.129028 0.431732
0.000000 0.258057 0.431732
0.102783 0.258057 0.431732
0.221985 0.258057 0.431732
0.348358 0.258057 0.431732
0.479584 0.258057 0.431732
0.614502 0.258057 0.431732
0.752502 0.258057 0.431732
0.893066 0.258057 0.431732
0.000000 0.387085 0.431732
0.102783 0.387085 0.431732
0.221985 0.387085 0.431732
0.348358 0.387085 0.431732
0.479584 0.387085 0.431732
0.614502 0.387085 0.431732
0.752502 0.387085 0.431732
0.893066 0.387085 0.431732
0.000000 0.516144 0.431732
0.102783 0.516144 0.431732
0.221985 0.516144 0.431732
0.348358 0.516144 0.431732
0.479584 0.516144 0.431732
0.614502 0.516144 0.431732
0.752502 0.516144 0.431732
0.893066 0.516144 0.431732
0.000000 0.645172 0.431732
0.102783 0.645172 0.431732
0.221985 0.645172 0.431732
0.348358 0.645172 0.431732
0.479584 0.645172 0.431732
0.614502 0.645172 0.431732
0.752502 0.645172 0.431732
0.893066 0.645172 0.431732
0.000000 0.774200 0.431732
0.102783 0.774200 0.431732
0.221985 0.774200 0.431732
0.348358 0.774200 0.431732
0.479584 0.774200 0.431732
0.614502 0.774200 0.431732
0.752502 0.774200 0.431732
0.893066 0.774200 0.431732
0.000000 0.903229 0.431732
0.102783 0.903229 0.431732
0.221985 0.903229 0.431732
0.348358 0.903229 0.431732
0.479584 0.903229 0.431732
0.614502 0.903229 0.431732
0.752502 0.903229 0.431732
0.893066 0.903229 0.431732
0.000000 0.000000 0.556946
0.102783 0.000000 0.556946
0.221985 0.000000 0.556946
0.348358 0.000000 0.556946
0.479584 0.000000 0.556946
0.614502 0.000000 0.556946
0.752502 0.000000 0.556946
0.893066 0.000000 0.556946
0.000000 0.129028 0.556946
0.102783 0.129028 0.556946
0.221985 0.129028 0.556946
0.348358 0.129028 0.556946
0.479584 0.129028 0.556946
0.614502 0.129028 0.556946
0.752502 0.129028 0.556946
0.893066 0.129028 0.556946
0.000000 0.258057 0.556946
0.102783 0.258057 0.556946
0.221985 0.258057 0.556946
0.348358 0.258057 0.556946
0.479584 0.258057 0.556946
0.614502 0.258057 0.556946
0.752502 0.258057 0.556946
0.893066 0.258057 0.556946
0.000000 0.387085 0.556946
0.102783 0.387085 0.556946
0.221985 0.387085 0.556946
0.348358 0.387085 0.556946
0.479584 0.387085 0.556946
0.614502 0.387085 0.556946
0.752502 0.387085 0.556946
0.893066 0.387085 0.556946
0.000000 0.516144 0.556946
0.102783 0.516144 0.556946
0.221985 0.516144 0.556946
0.348358 0.516144 0.556946
0.479584 0.516144 0.556946
0.614502 0.516144 0.556946
0.752502 0.516144 0.556946
0.893066 0.516144 0.556946
0.000000 0.645172 0.556946
0.102783 0.645172 0.556946
0.221985 0.645172 0.556946
0.348358 0.645172 0.556946
0.479584 0.645172 0.556946
0.614502 0.645172 0.556946
0.752502 0.645172 0.556946
0.893066 0.645172 0.556946
0.000000 0.774200 0.556946
0.102783 0.774200 0.556946
0.221985 0.774200 0.556946
0.348358 0.774200 0.556946
0.479584 0.774200 0.556946
0.614502 0.774200 0.556946
0.752502 0.774200 0.556946
0.893066 0.774200 0.556946
0.000000 0.903229 0.556946
0.102783 0.903229 0.556946
0.221985 0.903229 0.556946
0.348358 0.903229 0.556946
0.479584 0.903229 0.556946
0.614502 0.903229 0.556946
0.752502 0.903229 0.556946
0.893066 0.903229 0.556946
0.000000 0.000000 0.678528
0.102783 0.000000 0.678528
0.221985 0.000000 0.678528
0.348358 0.000000 0.678528
0.479584 0.000000 0.678528
0.614502 0.000000 0.678528
0.752502 0.000000 0.678528
0.893066 0.000000 0.678528
0.000000 0.129028 0.678528
0.102783 0.129028 0.678528
0.221985 0.129028 0.678528
0.348358 0.129028 0.678528
0.479584 0.129028 0.678528
0.614502 0.129028 0.678528
0.752502 0.129028 0.678528
0.893066 0.129028 0.678528
0.000000 0.258057 0.678528
0.102783 0.258057 0.678528
0.221985 0.258057 0.678528
0.348358 0.258057 0.678528
0.479584 0.258057 0.678528
0.614502 0.258057 0.678528
0.752502 0.258057 0.678528
0.893066 0.258057 0.678528
0.000000 0.387085 0.678528
0.102783 0.387085 0.678528
0.221985 0.387085 0.678528
0.348358 0.387085 0.678528
0.479584 0.387085 0.678528
0.614502 0.387085 0.678528
0.752502 0.387085 0.678528
0.893066 0.387085 0.678528
0.000000 0.516144 0.678528
0.102783 0.516144 0.678528
0.221985 0.516144 0.678528
0.348358 0.516144 0.678528
0.479584 0.516144 0.678528
0.614502 0.516144 0.678528
0.752502 0.516144 0.678528
0.893066 0.516144 0.678528
0.000000 0.645172 0.678528
0.102783 0.645172 0.678528
0.221985 0.645172 0.678528
0.348358 0.645172 0.678528
0.479584 0.645172 0.678528
0.614502 0.645172 0.678528
0.752502 0.645172 0.678528
0.893066 0.645172 0.678528
0.000000 0.774200 0.678528
0.102783 0.774200 0.678528
0.221985 0.774200 0.678528
0.348358 0.774200 0.678528
0.479584 0.774200 0.678528
0.614502 0.774200 0.678528
0.752502 0.774200 0.678528
0.893066 0.774200 0.678528
0.000000 0.903229 0.678528
0.102783 0.903229 0.678528
0.221985 0.903229 0.678528
0.348358 0.903229 0.678528
0.479584 0.903229 0.678528
0.614502 0.903229 0.678528
0.752502 0.903229 0.678528
0.893066 0.903229 0.678528
0.000000 0.000000 0.797333
0.102783 0.000000 0.797333
0.221985 0.000000 0.797333
0.348358 0.000000 0.797333
0.479584 0.000000 0.797333
0.614502 0.000000 0.797333
0.752502 0.000000 0.797333
0.893066 0.000000 0.797333
0.000000 0.129028 0.797333
0.102783 0.129028 0.797333
0.221985 0.129028 0.797333
0.348358 0.129028 0.797333
0.479584 0.129028 0.797333
0.614502 0.129028 0.797333
0.752502 0.129028 0.797333
0.893066 0.129028 0.797333
0.000000 0.258057 0.797333
0.102783 0.258057 0.797333
0.221985 0.258057 0.797333
0.348358 0.258057 0.797333
0.479584 0.258057 0.797333
0.614502 0.258057 0.797333
0.752502 0.258057 0.797333
0.893066 0.258057 0.797333
0.000000 0.387085 0.797333
0.102783 0.387085 0.797333
0.221985 0.387085 0.797333
0.348358 0.387085 0.797333
0.479584 0.387085 0.797333
0.614502 0.387085 0.797333
0.752502 0.387085 0.797333
0.893066 0.387085 0.797333
0.000000 0.516144 0.797333
0.102783 0.516144 0.797333
0.221985 0.516144 0.797333
0.348358 0.516144 0.797333
0.479584 0.516144 0.797333
0.614502 0.516144 0.797333
0.752502 0.516144 0.797333
0.893066 0.516144 0.797333
0.000000 0.645172 0.797333
0.102783 0.645172 0.797333
0.221985 0.645172 0.797333
0.348358 0.645172 0.797333
0.479584 0.645172 0.797333
0.614502 0.645172 0.797333
0.752502 0.645172 0.797333
0.893066 0.645172 0.797333
0.000000 0.774200 0.797333
0.102783 0.774200 0.797333
0.221985 0.774200 0.797333
0.348358 0.774200 0.797333
0.479584 0.774200 0.797333
0.614502 0.774200 0.797333
0.752502 0.774200 0.797333
0.893066 0.774200 0.797333
0.000000 0.903229 0.797333
0.102783 0.903229 0.797333
0.221985 0.903229 0.797333
0.348358 0.903229 0.797333
0.479584 0.903229 0.797333
0.614502 0.903229 0.797333
0.752502 0.903229 0.797333
0.893066 0.903229 0.797333
0.000000 0.000000 0.913849
0.102783 0.000000 0.913849
0.221985 0.000000 0.913849
0.348358 0.000000 0.913849
0.479584 0.000000 0.913849
0.614502 0.000000 0.913849
0.752502 0.000000 0.913849
0.893066 0.000000 0.913849
0.000000 0.129028 0.913849
0.102783 0.129028 0.913849
0.221985 0.129028 0.913849
0.348358 0.129028 0.913849
0.479584 0.129028 0.913849
0.614502 0.129028 0.913849
0.752502 0.129028 0.913849
0.893066 0.129028 0.913849
0.000000 0.258057 0.913849
0.102783 0.258057 0.913849
0.221985 0.258057 0.913849
0.348358 0.258057 0.913849
0.479584 0.258057 0.913849
0.614502 0.258057 0.913849
0.752502 0.258057 0.913849
0.893066 0.258057 0.913849
0.000000 0.387085 0.913849
0.102783 0.387085 0.913849
0.221985 0.387085 0.913849
0.348358 0.387085 0.913849
0.479584 0.387085 0.913849
0.614502 0.387085 0.913849
0.752502 0.387085 0.913849
0.893066 0.387085 0.913849
0.000000 0.516144 0.913849
0.102783 0.516144 0.913849
0.221985 0.516144 0.913849
0.348358 0.516144 0.913849
0.479584 0.516144 0.913849
0.614502 0.516144 0.913849
0.752502 0.516144 0.913849
0.893066 0.516144 0.913849
0.000000 0.645172 0.913849
0.102783 0.645172 0.913849
0.221985 0.645172 0.913849
0.348358 0.645172 0.913849
0.479584 0.645172 0.913849
0.614502 0.645172 0.913849
0.752502 0.645172 0.913849
0.893066 0.645172 0.913849
0.000000 0.774200 0.913849
0.102783 0.774200 0.913849
0.221985 0.774200 0.913849
0.348358 0.774200 0.913849
0.479584 0.774200 0.913849
0.614502 0.774200 0.913849
0.752502 0.774200 0.913849
0.893066 0.774200 0.913849
0.000000 0.903229 0.913849
0.102783 0.903229 0.913849
0.221985 0.903229 0.913849
0.348358 0.903229 0.913849
0.479584 0.903229 0.913849
0.614502 0.903229 0.913849
0.752502 0.903229 0.913849
0.893066 0.903229 0.913849
