dist/luts/download17d8550068d4367a2799bf089c8c20f0.CUBE
#Created by: Adobe Photoshop Export Color Lookup Plugin
TITLE "download17d8550068d4367a2799bf089c8c20f0.psd"
#LUT size
LUT_3D_SIZE 5
#data domain
#LUT data points
DOMAIN_MIN 0.000000 0.000000 0.000000
DOMAIN_MAX 0.903226 0.903226 0.903226
0.000000 0.000000 0.000000
0.191376 0.000000 0.000000
0.413422 0.000000 0.000000
0.648743 0.000000 0.000000
0.893066 0.000000 0.000000
0.000000 0.225800 0.000000
0.191376 0.225800 0.000000
0.413422 0.225800 0.000000
0.648743 0.225800 0.000000
0.893066 0.225800 0.000000
0.000000 0.451599 0.000000
0.191376 0.451599 0.000000
0.413422 0.451599 0.000000
0.648743 0.451599 0.000000
0.893066 0.451599 0.000000
0.000000 0.677429 0.000000
0.191376 0.677429 0.000000
0.413422 0.677429 0.000000
0.648743 0.677429 0.000000
0.893066 0.677429 0.000000
0.000000 0.903229 0.000000
0.191376 0.903229 0.000000
0.413422 0.903229 0.000000
0.648743 0.903229 0.000000
0.893066 0.903229 0.000000
0.000000 0.000000 0.267975
0.191376 0.000000 0.267975
0.413422 0.000000 0.267975
0.648743 0.000000 0.267975
0.893066 0.000000 0.267975
0.000000 0.225800 0.267975
0.191376 0.225800 0.267975
0.413422 0.225800 0.267975
0.648743 0.225800 0.267975
0.893066 0.225800 0.267975
0.000000 0.451599 0.267975
0.191376 0.451599 0.267975
0.413422 0.451599 0.267975
0.648743 0.451599 0.267975
0.893066 0.451599 0.267975
0.000000 0.677429 0.267975
0.191376 0.677429 0.267975
0.413422 0.677429 0.267975
0.648743 0.677429 0.267975
0.893066 0.677429 0.267975
0.000000 0.903229 0.267975
0.191376 0.903229 0.267975
0.413422 0.903229 0.267975
0.648743 0.903229 0.267975
0.893066 0.903229 0.267975
0.000000 0.000000 0.494843
0.191376 0.000000 0.494843
0.413422 0.000000 0.494843
0.648743 0.000000 0.494843
0.893066 0.000000 0.494843
0.000000 0.225800 0.494843
0.191376 0.225800 0.494843
0.413422 0.225800 0.494843
0.648743 0.225800 0.494843
0.893066 0.225800 0.494843
0.000000 0.451599 0.494843
0.191376 0.451599 0.494843
0.413422 0.451599 0.494843
0.648743 0.451599 0.494843
0.893066 0.451599 0.494843
0.000000 0.677429 0.494843
0.191376 0.677429 0.494843
0.413422 0.677429 0.494843
0.648743 0.677429 0.494843
0.893066 0.677429 0.494843
0.000000 0.903229 0.494843
0.191376 0.903229 0.494843
0.413422 0.903229 0.494843
0.648743 0.903229 0.494843
0.893066 0.903229 0.494843
0.000000 0.000000 0.708466
0.191376 0.000000 0.708466
0.413422 0.000000 0.708466
0.648743 0.000000 0.708466
0.893066 0.000000 0.708466
0.000000 0.225800 0.708466
0.191376 0.225800 0.708466
0.413422 0.225800 0.708466
0.648743 0.225800 0.708466
0.893066 0.225800 0.708466
0.000000 0.451599 0.708466
0.191376 0.451599 0.708466
0.413422 0.451599 0.708466
0.648743 0.451599 0.708466
0.893066 0.451599 0.708466
0.000000 0.677429 0.708466
0.191376 0.677429 0.708466
0.413422 0.677429 0.708466
0.648743 0.677429 0.708466
0.893066 0.677429 0.708466
0.000000 0.903229 0.708466
0.191376 0.903229 0.708466
0.413422 0.903229 0.708466
0.648743 0.903229 0.708466
0.893066 0.903229 0.708466
0.000000 0.000000 0.913849
0.191376 0.000000 0.913849
0.413422 0.000000 0.913849
0.648743 0.000000 0.913849
0.893066 0.000000 0.913849
0.000000 0.225800 0.913849
0.191376 0.225800 0.913849
0.413422 0.225800 0.913849
0.648743 0.225800 0.913849
0.893066 0.225800 0.913849
0.000000 0.451599 0.913849
0.191376 0.451599 0.913849
0.413422 0.451599 0.913849
0.648743 0.451599 0.913849
0.893066 0.451599 0.913849
0.000000 0.677429 0.913849
0.191376 0.677429 0.913849
0.413422 0.677429 0.913849
0.648743 0.677429 0.913849
0.893066 0.677429 0.913849
0.000000 0.903229 0.913849
0.191376 0.903229 0.913849
0.413422 0.903229 0.913849
0.648743 0.903229 0.913849
0.893066 0.903229 0.913849
