dist/luts/download17d8550068d4367a2799bf089c8c20f0.CUBE
#Created by: Adobe Photoshop Export Color Lookup Plugin
TITLE "download17d8550068d4367a2799bf089c8c20f0.psd"
#LUT size
LUT_3D_SIZE 32
#data domain
DOMAIN_MIN 0.0 0.0 0.0
DOMAIN_MAX 1.0 1.0 1.0
#LUT data points
0.000000 0.000000 0.000000
0.022034 0.000000 0.000000
0.047577 0.000000 0.000000
0.074677 0.000000 0.000000
0.102783 0.000000 0.000000
0.131683 0.000000 0.000000
0.161255 0.000000 0.000000
0.191376 0.000000 0.000000
0.221985 0.000000 0.000000
0.253052 0.000000 0.000000
0.284454 0.000000 0.000000
0.316254 0.000000 0.000000
0.348358 0.000000 0.000000
0.380737 0.000000 0.000000
0.413422 0.000000 0.000000
0.446350 0.000000 0.000000
0.479584 0.000000 0.000000
0.513000 0.000000 0.000000
0.546631 0.000000 0.000000
0.580475 0.000000 0.000000
0.614502 0.000000 0.000000
0.648743 0.000000 0.000000
0.683167 0.000000 0.000000
0.717743 0.000000 0.000000
0.752502 0.000000 0.000000
0.787415 0.000000 0.000000
0.822479 0.000000 0.000000
0.857727 0.000000 0.000000
0.893066 0.000000 0.000000
0.928589 0.000000 0.000000
0.964233 0.000000 0.000000
1.000000 0.000000 0.000000
0.000000 0.032257 0.000000
0.022034 0.032257 0.000000
0.047577 0.032257 0.000000
0.074677 0.032257 0.000000
0.102783 0.032257 0.000000
0.131683 0.032257 0.000000
0.161255 0.032257 0.000000
0.191376 0.032257 0.000000
0.221985 0.032257 0.000000
0.253052 0.032257 0.000000
0.284454 0.032257 0.000000
0.316254 0.032257 0.000000
0.348358 0.032257 0.000000
0.380737 0.032257 0.000000
0.413422 0.032257 0.000000
0.446350 0.032257 0.000000
0.479584 0.032257 0.000000
0.513000 0.032257 0.000000
0.546631 0.032257 0.000000
0.580475 0.032257 0.000000
0.614502 0.032257 0.000000
0.648743 0.032257 0.000000
0.683167 0.032257 0.000000
0.717743 0.032257 0.000000
0.752502 0.032257 0.000000
0.787415 0.032257 0.000000
0.822479 0.032257 0.000000
0.857727 0.032257 0.000000
0.893066 0.032257 0.000000
0.928589 0.032257 0.000000
0.964233 0.032257 0.000000
1.000000 0.032257 0.000000
0.000000 0.064514 0.000000
0.022034 0.064514 0.000000
0.047577 0.064514 0.000000
0.074677 0.064514 0.000000
0.102783 0.064514 0.000000
0.131683 0.064514 0.000000
0.161255 0.064514 0.000000
0.191376 0.064514 0.000000
0.221985 0.064514 0.000000
0.253052 0.064514 0.000000
0.284454 0.064514 0.000000
0.316254 0.064514 0.000000
0.348358 0.064514 0.000000
0.380737 0.064514 0.000000
0.413422 0.064514 0.000000
0.446350 0.064514 0.000000
0.479584 0.064514 0.000000
0.513000 0.064514 0.000000
0.546631 0.064514 0.000000
0.580475 0.064514 0.000000
0.614502 0.064514 0.000000
0.648743 0.064514 0.000000
0.683167 0.064514 0.000000
0.717743 0.064514 0.000000
0.752502 0.064514 0.000000
0.787415 0.064514 0.000000
0.822479 0.064514 0.000000
0.857727 0.064514 0.000000
0.893066 0.064514 0.000000
0.928589 0.064514 0.000000
0.964233 0.064514 0.000000
1.000000 0.064514 0.000000
0.000000 0.096771 0.000000
0.022034 0.096771 0.000000
0.047577 0.096771 0.000000
0.074677 0.096771 0.000000
0.102783 0.096771 0.000000
0.131683 0.096771 0.000000
0.161255 0.096771 0.000000
0.191376 0.096771 0.000000
0.221985 0.096771 0.000000
0.253052 0.096771 0.000000
0.284454 0.096771 0.000000
0.316254 0.096771 0.000000
0.348358 0.096771 0.000000
0.380737 0.096771 0.000000
0.413422 0.096771 0.000000
0.446350 0.096771 0.000000
0.479584 0.096771 0.000000
0.513000 0.096771 0.000000
0.546631 0.096771 0.000000
0.580475 0.096771 0.000000
0.614502 0.096771 0.000000
0.648743 0.096771 0.000000
0.683167 0.096771 0.000000
0.717743 0.096771 0.000000
0.752502 0.096771 0.000000
0.787415 0.096771 0.000000
0.822479 0.096771 0.000000
0.857727 0.096771 0.000000
0.893066 0.096771 0.000000
0.928589 0.096771 0.000000
0.964233 0.096771 0.000000
1.000000 0.096771 0.000000
0.000000 0.129028 0.000000
0.022034 0.129028 0.000000
0.047577 0.129028 0.000000
0.074677 0.129028 0.000000
0.102783 0.129028 0.000000
0.131683 0.129028 0.000000
0.161255 0.129028 0.000000
0.191376 0.129028 0.000000
0.221985 0.129028 0.000000
0.253052 0.129028 0.000000
0.284454 0.129028 0.000000
0.316254 0.129028 0.000000
0.348358 0.129028 0.000000
0.380737 0.129028 0.000000
0.413422 0.129028 0.000000
0.446350 0.129028 0.000000
0.479584 0.129028 0.000000
0.513000 0.129028 0.000000
0.546631 0.129028 0.000000
0.580475 0.129028 0.000000
0.614502 0.129028 0.000000
0.648743 0.129028 0.000000
0.683167 0.129028 0.000000
0.717743 0.129028 0.000000
0.752502 0.129028 0.000000
0.787415 0.129028 0.000000
0.822479 0.129028 0.000000
0.857727 0.129028 0.000000
0.893066 0.129028 0.000000
0.928589 0.129028 0.000000
0.964233 0.129028 0.000000
1.000000 0.129028 0.000000
0.000000 0.161285 0.000000
0.022034 0.161285 0.000000
0.047577 0.161285 0.000000
0.074677 0.161285 0.000000
0.102783 0.161285 0.000000
0.131683 0.161285 0.000000
0.161255 0.161285 0.000000
0.191376 0.161285 0.000000
0.221985 0.161285 0.000000
0.253052 0.161285 0.000000
0.284454 0.161285 0.000000
0.316254 0.161285 0.000000
0.348358 0.161285 0.000000
0.380737 0.161285 0.000000
0.413422 0.161285 0.000000
0.446350 0.161285 0.000000
0.479584 0.161285 0.000000
0.513000 0.161285 0.000000
0.546631 0.161285 0.000000
0.580475 0.161285 0.000000
0.614502 0.161285 0.000000
0.648743 0.161285 0.000000
0.683167 0.161285 0.000000
0.717743 0.161285 0.000000
0.752502 0.161285 0.000000
0.787415 0.161285 0.000000
0.822479 0.161285 0.000000
0.857727 0.161285 0.000000
0.893066 0.161285 0.000000
0.928589 0.161285 0.000000
0.964233 0.161285 0.000000
1.000000 0.161285 0.000000
0.000000 0.193542 0.000000
0.022034 0.193542 0.000000
0.047577 0.193542 0.000000
0.074677 0.193542 0.000000
0.102783 0.193542 0.000000
0.131683 0.193542 0.000000
0.161255 0.193542 0.000000
0.191376 0.193542 0.000000
0.221985 0.193542 0.000000
0.253052 0.193542 0.000000
0.284454 0.193542 0.000000
0.316254 0.193542 0.000000
0.348358 0.193542 0.000000
0.380737 0.193542 0.000000
0.413422 0.193542 0.000000
0.446350 0.193542 0.000000
0.479584 0.193542 0.000000
0.513000 0.193542 0.000000
0.546631 0.193542 0.000000
0.580475 0.193542 0.000000
0.614502 0.193542 0.000000
0.648743 0.193542 0.000000
0.683167 0.193542 0.000000
0.717743 0.193542 0.000000
0.752502 0.193542 0.000000
0.787415 0.193542 0.000000
0.822479 0.193542 0.000000
0.857727 0.193542 0.000000
0.893066 0.193542 0.000000
0.928589 0.193542 0.000000
0.964233 0.193542 0.000000
1.000000 0.193542 0.000000
0.000000 0.225800 0.000000
0.022034 0.225800 0.000000
0.047577 0.225800 0.000000
0.074677 0.225800 0.000000
0.102783 0.225800 0.000000
0.131683 0.225800 0.000000
0.161255 0.225800 0.000000
0.191376 0.225800 0.000000
0.221985 0.225800 0.000000
0.253052 0.225800 0.000000
0.284454 0.225800 0.000000
0.316254 0.225800 0.000000
0.348358 0.225800 0.000000
0.380737 0.225800 0.000000
0.413422 0.225800 0.000000
0.446350 0.225800 0.000000
0.479584 0.225800 0.000000
0.513000 0.225800 0.000000
0.546631 0.225800 0.000000
0.580475 0.225800 0.000000
0.614502 0.225800 0.000000
0.648743 0.225800 0.000000
0.683167 0.225800 0.000000
0.717743 0.225800 0.000000
0.752502 0.225800 0.000000
0.787415 0.225800 0.000000
0.822479 0.225800 0.000000
0.857727 0.225800 0.000000
0.893066 0.225800 0.000000
0.928589 0.225800 0.000000
0.964233 0.225800 0.000000
1.000000 0.225800 0.000000
0.000000 0.258057 0.000000
0.022034 0.258057 0.000000
0.047577 0.258057 0.000000
0.074677 0.258057 0.000000
0.102783 0.258057 0.000000
0.131683 0.258057 0.000000
0.161255 0.258057 0.000000
0.191376 0.258057 0.000000
0.221985 0.258057 0.000000
0.253052 0.258057 0.000000
0.284454 0.258057 0.000000
0.316254 0.258057 0.000000
0.348358 0.258057 0.000000
0.380737 0.258057 0.000000
0.413422 0.258057 0.000000
0.446350 0.258057 0.000000
0.479584 0.258057 0.000000
0.513000 0.258057 0.000000
0.546631 0.258057 0.000000
0.580475 0.258057 0.000000
0.614502 0.258057 0.000000
0.648743 0.258057 0.000000
0.683167 0.258057 0.000000
0.717743 0.258057 0.000000
0.752502 0.258057 0.000000
0.787415 0.258057 0.000000
0.822479 0.258057 0.000000
0.857727 0.258057 0.000000
0.893066 0.258057 0.000000
0.928589 0.258057 0.000000
0.964233 0.258057 0.000000
1.000000 0.258057 0.000000
0.000000 0.290314 0.000000
0.022034 0.290314 0.000000
0.047577 0.290314 0.000000
0.074677 0.290314 0.000000
0.102783 0.290314 0.000000
0.131683 0.290314 0.000000
0.161255 0.290314 0.000000
0.191376 0.290314 0.000000
0.221985 0.290314 0.000000
0.253052 0.290314 0.000000
0.284454 0.290314 0.000000
0.316254 0.290314 0.000000
0.348358 0.290314 0.000000
0.380737 0.290314 0.000000
0.413422 0.290314 0.000000
0.446350 0.290314 0.000000
0.479584 0.290314 0.000000
0.513000 0.290314 0.000000
0.546631 0.290314 0.000000
0.580475 0.290314 0.000000
0.614502 0.290314 0.000000
0.648743 0.290314 0.000000
0.683167 0.290314 0.000000
0.717743 0.290314 0.000000
0.752502 0.290314 0.000000
0.787415 0.290314 0.000000
0.822479 0.290314 0.000000
0.857727 0.290314 0.000000
0.893066 0.290314 0.000000
0.928589 0.290314 0.000000
0.964233 0.290314 0.000000
1.000000 0.290314 0.000000
0.000000 0.322571 0.000000
0.022034 0.322571 0.000000
0.047577 0.322571 0.000000
0.074677 0.322571 0.000000
0.102783 0.322571 0.000000
0.131683 0.322571 0.000000
0.161255 0.322571 0.000000
0.191376 0.322571 0.000000
0.221985 0.322571 0.000000
0.253052 0.322571 0.000000
0.284454 0.322571 0.000000
0.316254 0.322571 0.000000
0.348358 0.322571 0.000000
0.380737 0.322571 0.000000
0.413422 0.322571 0.000000
0.446350 0.322571 0.000000
0.479584 0.322571 0.000000
0.513000 0.322571 0.000000
0.546631 0.322571 0.000000
0.580475 0.322571 0.000000
0.614502 0.322571 0.000000
0.648743 0.322571 0.000000
0.683167 0.322571 0.000000
0.717743 0.322571 0.000000
0.752502 0.322571 0.000000
0.787415 0.322571 0.000000
0.822479 0.322571 0.000000
0.857727 0.322571 0.000000
0.893066 0.322571 0.000000
0.928589 0.322571 0.000000
0.964233 0.322571 0.000000
1.000000 0.322571 0.000000
0.000000 0.354828 0.000000
0.022034 0.354828 0.000000
0.047577 0.354828 0.000000
0.074677 0.354828 0.000000
0.102783 0.354828 0.000000
0.131683 0.354828 0.000000
0.161255 0.354828 0.000000
0.191376 0.354828 0.000000
0.221985 0.354828 0.000000
0.253052 0.354828 0.000000
0.284454 0.354828 0.000000
0.316254 0.354828 0.000000
0.348358 0.354828 0.000000
0.380737 0.354828 0.000000
0.413422 0.354828 0.000000
0.446350 0.354828 0.000000
0.479584 0.354828 0.000000
0.513000 0.354828 0.000000
0.546631 0.354828 0.000000
0.580475 0.354828 0.000000
0.614502 0.354828 0.000000
0.648743 0.354828 0.000000
0.683167 0.354828 0.000000
0.717743 0.354828 0.000000
0.752502 0.354828 0.000000
0.787415 0.354828 0.000000
0.822479 0.354828 0.000000
0.857727 0.354828 0.000000
0.893066 0.354828 0.000000
0.928589 0.354828 0.000000
0.964233 0.354828 0.000000
1.000000 0.354828 0.000000
0.000000 0.387085 0.000000
0.022034 0.387085 0.000000
0.047577 0.387085 0.000000
0.074677 0.387085 0.000000
0.102783 0.387085 0.000000
0.131683 0.387085 0.000000
0.161255 0.387085 0.000000
0.191376 0.387085 0.000000
0.221985 0.387085 0.000000
0.253052 0.387085 0.000000
0.284454 0.387085 0.000000
0.316254 0.387085 0.000000
0.348358 0.387085 0.000000
0.380737 0.387085 0.000000
0.413422 0.387085 0.000000
0.446350 0.387085 0.000000
0.479584 0.387085 0.000000
0.513000 0.387085 0.000000
0.546631 0.387085 0.000000
0.580475 0.387085 0.000000
0.614502 0.387085 0.000000
0.648743 0.387085 0.000000
0.683167 0.387085 0.000000
0.717743 0.387085 0.000000
0.752502 0.387085 0.000000
0.787415 0.387085 0.000000
0.822479 0.387085 0.000000
0.857727 0.387085 0.000000
0.893066 0.387085 0.000000
0.928589 0.387085 0.000000
0.964233 0.387085 0.000000
1.000000 0.387085 0.000000
0.000000 0.419342 0.000000
0.022034 0.419342 0.000000
0.047577 0.419342 0.000000
0.074677 0.419342 0.000000
0.102783 0.419342 0.000000
0.131683 0.419342 0.000000
0.161255 0.419342 0.000000
0.191376 0.419342 0.000000
0.221985 0.419342 0.000000
0.253052 0.419342 0.000000
0.284454 0.419342 0.000000
0.316254 0.419342 0.000000
0.348358 0.419342 0.000000
0.380737 0.419342 0.000000
0.413422 0.419342 0.000000
0.446350 0.419342 0.000000
0.479584 0.419342 0.000000
0.513000 0.419342 0.000000
0.546631 0.419342 0.000000
0.580475 0.419342 0.000000
0.614502 0.419342 0.000000
0.648743 0.419342 0.000000
0.683167 0.419342 0.000000
0.717743 0.419342 0.000000
0.752502 0.419342 0.000000
0.787415 0.419342 0.000000
0.822479 0.419342 0.000000
0.857727 0.419342 0.000000
0.893066 0.419342 0.000000
0.928589 0.419342 0.000000
0.964233 0.419342 0.000000
1.000000 0.419342 0.000000
0.000000 0.451599 0.000000
0.022034 0.451599 0.000000
0.047577 0.451599 0.000000
0.074677 0.451599 0.000000
0.102783 0.451599 0.000000
0.131683 0.451599 0.000000
0.161255 0.451599 0.000000
0.191376 0.451599 0.000000
0.221985 0.451599 0.000000
0.253052 0.451599 0.000000
0.284454 0.451599 0.000000
0.316254 0.451599 0.000000
0.348358 0.451599 0.000000
0.380737 0.451599 0.000000
0.413422 0.451599 0.000000
0.446350 0.451599 0.000000
0.479584 0.451599 0.000000
0.513000 0.451599 0.000000
0.546631 0.451599 0.000000
0.580475 0.451599 0.000000
0.614502 0.451599 0.000000
0.648743 0.451599 0.000000
0.683167 0.451599 0.000000
0.717743 0.451599 0.000000
0.752502 0.451599 0.000000
0.787415 0.451599 0.000000
0.822479 0.451599 0.000000
0.857727 0.451599 0.000000
0.893066 0.451599 0.000000
0.928589 0.451599 0.000000
0.964233 0.451599 0.000000
1.000000 0.451599 0.000000
0.000000 0.483856 0.000000
0.022034 0.483856 0.000000
0.047577 0.483856 0.000000
0.074677 0.483856 0.000000
0.102783 0.483856 0.000000
0.131683 0.483856 0.000000
0.161255 0.483856 0.000000
0.191376 0.483856 0.000000
0.221985 0.483856 0.000000
0.253052 0.483856 0.000000
0.284454 0.483856 0.000000
0.316254 0.483856 0.000000
0.348358 0.483856 0.000000
0.380737 0.483856 0.000000
0.413422 0.483856 0.000000
0.446350 0.483856 0.000000
0.479584 0.483856 0.000000
0.513000 0.483856 0.000000
0.546631 0.483856 0.000000
0.580475 0.483856 0.000000
0.614502 0.483856 0.000000
0.648743 0.483856 0.000000
0.683167 0.483856 0.000000
0.717743 0.483856 0.000000
0.752502 0.483856 0.000000
0.787415 0.483856 0.000000
0.822479 0.483856 0.000000
0.857727 0.483856 0.000000
0.893066 0.483856 0.000000
0.928589 0.483856 0.000000
0.964233 0.483856 0.000000
1.000000 0.483856 0.000000
0.000000 0.516144 0.000000
0.022034 0.516144 0.000000
0.047577 0.516144 0.000000
0.074677 0.516144 0.000000
0.102783 0.516144 0.000000
0.131683 0.516144 0.000000
0.161255 0.516144 0.000000
0.191376 0.516144 0.000000
0.221985 0.516144 0.000000
0.253052 0.516144 0.000000
0.284454 0.516144 0.000000
0.316254 0.516144 0.000000
0.348358 0.516144 0.000000
0.380737 0.516144 0.000000
0.413422 0.516144 0.000000
0.446350 0.516144 0.000000
0.479584 0.516144 0.000000
0.513000 0.516144 0.000000
0.546631 0.516144 0.000000
0.580475 0.516144 0.000000
0.614502 0.516144 0.000000
0.648743 0.516144 0.000000
0.683167 0.516144 0.000000
0.717743 0.516144 0.000000
0.752502 0.516144 0.000000
0.787415 0.516144 0.000000
0.822479 0.516144 0.000000
0.857727 0.516144 0.000000
0.893066 0.516144 0.000000
0.928589 0.516144 0.000000
0.964233 0.516144 0.000000
1.000000 0.516144 0.000000
0.000000 0.548401 0.000000
0.022034 0.548401 0.000000
0.047577 0.548401 0.000000
0.074677 0.548401 0.000000
0.102783 0.548401 0.000000
0.131683 0.548401 0.000000
0.161255 0.548401 0.000000
0.191376 0.548401 0.000000
0.221985 0.548401 0.000000
0.253052 0.548401 0.000000
0.284454 0.548401 0.000000
0.316254 0.548401 0.000000
0.348358 0.548401 0.000000
0.380737 0.548401 0.000000
0.413422 0.548401 0.000000
0.446350 0.548401 0.000000
0.479584 0.548401 0.000000
0.513000 0.548401 0.000000
0.546631 0.548401 0.000000
0.580475 0.548401 0.000000
0.614502 0.548401 0.000000
0.648743 0.548401 0.000000
0.683167 0.548401 0.000000
0.717743 0.548401 0.000000
0.752502 0.548401 0.000000
0.787415 0.548401 0.000000
0.822479 0.548401 0.000000
0.857727 0.548401 0.000000
0.893066 0.548401 0.000000
0.928589 0.548401 0.000000
0.964233 0.548401 0.000000
1.000000 0.548401 0.000000
0.000000 0.580658 0.000000
0.022034 0.580658 0.000000
0.047577 0.580658 0.000000
0.074677 0.580658 0.000000
0.102783 0.580658 0.000000
0.131683 0.580658 0.000000
0.161255 0.580658 0.000000
0.191376 0.580658 0.000000
0.221985 0.580658 0.000000
0.253052 0.580658 0.000000
0.284454 0.580658 0.000000
0.316254 0.580658 0.000000
0.348358 0.580658 0.000000
0.380737 0.580658 0.000000
0.413422 0.580658 0.000000
0.446350 0.580658 0.000000
0.479584 0.580658 0.000000
0.513000 0.580658 0.000000
0.546631 0.580658 0.000000
0.580475 0.580658 0.000000
0.614502 0.580658 0.000000
0.648743 0.580658 0.000000
0.683167 0.580658 0.000000
0.717743 0.580658 0.000000
0.752502 0.580658 0.000000
0.787415 0.580658 0.000000
0.822479 0.580658 0.000000
0.857727 0.580658 0.000000
0.893066 0.580658 0.000000
0.928589 0.580658 0.000000
0.964233 0.580658 0.000000
1.000000 0.580658 0.000000
0.000000 0.612915 0.000000
0.022034 0.612915 0.000000
0.047577 0.612915 0.000000
0.074677 0.612915 0.000000
0.102783 0.612915 0.000000
0.131683 0.612915 0.000000
0.161255 0.612915 0.000000
0.191376 0.612915 0.000000
0.221985 0.612915 0.000000
0.253052 0.612915 0.000000
0.284454 0.612915 0.000000
0.316254 0.612915 0.000000
0.348358 0.612915 0.000000
0.380737 0.612915 0.000000
0.413422 0.612915 0.000000
0.446350 0.612915 0.000000
0.479584 0.612915 0.000000
0.513000 0.612915 0.000000
0.546631 0.612915 0.000000
0.580475 0.612915 0.000000
0.614502 0.612915 0.000000
0.648743 0.612915 0.000000
0.683167 0.612915 0.000000
0.717743 0.612915 0.000000
0.752502 0.612915 0.000000
0.787415 0.612915 0.000000
0.822479 0.612915 0.000000
0.857727 0.612915 0.000000
0.893066 0.612915 0.000000
0.928589 0.612915 0.000000
0.964233 0.612915 0.000000
1.000000 0.612915 0.000000
0.000000 0.645172 0.000000
0.022034 0.645172 0.000000
0.047577 0.645172 0.000000
0.074677 0.645172 0.000000
0.102783 0.645172 0.000000
0.131683 0.645172 0.000000
0.161255 0.645172 0.000000
0.191376 0.645172 0.000000
0.221985 0.645172 0.000000
0.253052 0.645172 0.000000
0.284454 0.645172 0.000000
0.316254 0.645172 0.000000
0.348358 0.645172 0.000000
0.380737 0.645172 0.000000
0.413422 0.645172 0.000000
0.446350 0.645172 0.000000
0.479584 0.645172 0.000000
0.513000 0.645172 0.000000
0.546631 0.645172 0.000000
0.580475 0.645172 0.000000
0.614502 0.645172 0.000000
0.648743 0.645172 0.000000
0.683167 0.645172 0.000000
0.717743 0.645172 0.000000
0.752502 0.645172 0.000000
0.787415 0.645172 0.000000
0.822479 0.645172 0.000000
0.857727 0.645172 0.000000
0.893066 0.645172 0.000000
0.928589 0.645172 0.000000
0.964233 0.645172 0.000000
1.000000 0.645172 0.000000
0.000000 0.677429 0.000000
0.022034 0.677429 0.000000
0.047577 0.677429 0.000000
0.074677 0.677429 0.000000
0.102783 0.677429 0.000000
0.131683 0.677429 0.000000
0.161255 0.677429 0.000000
0.191376 0.677429 0.000000
0.221985 0.677429 0.000000
0.253052 0.677429 0.000000
0.284454 0.677429 0.000000
0.316254 0.677429 0.000000
0.348358 0.677429 0.000000
0.380737 0.677429 0.000000
0.413422 0.677429 0.000000
0.446350 0.677429 0.000000
0.479584 0.677429 0.000000
0.513000 0.677429 0.000000
0.546631 0.677429 0.000000
0.580475 0.677429 0.000000
0.614502 0.677429 0.000000
0.648743 0.677429 0.000000
0.683167 0.677429 0.000000
0.717743 0.677429 0.000000
0.752502 0.677429 0.000000
0.787415 0.677429 0.000000
0.822479 0.677429 0.000000
0.857727 0.677429 0.000000
0.893066 0.677429 0.000000
0.928589 0.677429 0.000000
0.964233 0.677429 0.000000
1.000000 0.677429 0.000000
0.000000 0.709686 0.000000
0.022034 0.709686 0.000000
0.047577 0.709686 0.000000
0.074677 0.709686 0.000000
0.102783 0.709686 0.000000
0.131683 0.709686 0.000000
0.161255 0.709686 0.000000
0.191376 0.709686 0.000000
0.221985 0.709686 0.000000
0.253052 0.709686 0.000000
0.284454 0.709686 0.000000
0.316254 0.709686 0.000000
0.348358 0.709686 0.000000
0.380737 0.709686 0.000000
0.413422 0.709686 0.000000
0.446350 0.709686 0.000000
0.479584 0.709686 0.000000
0.513000 0.709686 0.000000
0.546631 0.709686 0.000000
0.580475 0.709686 0.000000
0.614502 0.709686 0.000000
0.648743 0.709686 0.000000
0.683167 0.709686 0.000000
0.717743 0.709686 0.000000
0.752502 0.709686 0.000000
0.787415 0.709686 0.000000
0.822479 0.709686 0.000000
0.857727 0.709686 0.000000
0.893066 0.709686 0.000000
0.928589 0.709686 0.000000
0.964233 0.709686 0.000000
1.000000 0.709686 0.000000
0.000000 0.741943 0.000000
0.022034 0.741943 0.000000
0.047577 0.741943 0.000000
0.074677 0.741943 0.000000
0.102783 0.741943 0.000000
0.131683 0.741943 0.000000
0.161255 0.741943 0.000000
0.191376 0.741943 0.000000
0.221985 0.741943 0.000000
0.253052 0.741943 0.000000
0.284454 0.741943 0.000000
0.316254 0.741943 0.000000
0.348358 0.741943 0.000000
0.380737 0.741943 0.000000
0.413422 0.741943 0.000000
0.446350 0.741943 0.000000
0.479584 0.741943 0.000000
0.513000 0.741943 0.000000
0.546631 0.741943 0.000000
0.580475 0.741943 0.000000
0.614502 0.741943 0.000000
0.648743 0.741943 0.000000
0.683167 0.741943 0.000000
0.717743 0.741943 0.000000
0.752502 0.741943 0.000000
0.787415 0.741943 0.000000
0.822479 0.741943 0.000000
0.857727 0.741943 0.000000
0.893066 0.741943 0.000000
0.928589 0.741943 0.000000
0.964233 0.741943 0.000000
1.000000 0.741943 0.000000
0.000000 0.774200 0.000000
0.022034 0.774200 0.000000
0.047577 0.774200 0.000000
0.074677 0.774200 0.000000
0.102783 0.774200 0.000000
0.131683 0.774200 0.000000
0.161255 0.774200 0.000000
0.191376 0.774200 0.000000
0.221985 0.774200 0.000000
0.253052 0.774200 0.000000
0.284454 0.774200 0.000000
0.316254 0.774200 0.000000
0.348358 0.774200 0.000000
0.380737 0.774200 0.000000
0.413422 0.774200 0.000000
0.446350 0.774200 0.000000
0.479584 0.774200 0.000000
0.513000 0.774200 0.000000
0.546631 0.774200 0.000000
0.580475 0.774200 0.000000
0.614502 0.774200 0.000000
0.648743 0.774200 0.000000
0.683167 0.774200 0.000000
0.717743 0.774200 0.000000
0.752502 0.774200 0.000000
0.787415 0.774200 0.000000
0.822479 0.774200 0.000000
0.857727 0.774200 0.000000
0.893066 0.774200 0.000000
0.928589 0.774200 0.000000
0.964233 0.774200 0.000000
1.000000 0.774200 0.000000
0.000000 0.806458 0.000000
0.022034 0.806458 0.000000
0.047577 0.806458 0.000000
0.074677 0.806458 0.000000
0.102783 0.806458 0.000000
0.131683 0.806458 0.000000
0.161255 0.806458 0.000000
0.191376 0.806458 0.000000
0.221985 0.806458 0.000000
0.253052 0.806458 0.000000
0.284454 0.806458 0.000000
0.316254 0.806458 0.000000
0.348358 0.806458 0.000000
0.380737 0.806458 0.000000
0.413422 0.806458 0.000000
0.446350 0.806458 0.000000
0.479584 0.806458 0.000000
0.513000 0.806458 0.000000
0.546631 0.806458 0.000000
0.580475 0.806458 0.000000
0.614502 0.806458 0.000000
0.648743 0.806458 0.000000
0.683167 0.806458 0.000000
0.717743 0.806458 0.000000
0.752502 0.806458 0.000000
0.787415 0.806458 0.000000
0.822479 0.806458 0.000000
0.857727 0.806458 0.000000
0.893066 0.806458 0.000000
0.928589 0.806458 0.000000
0.964233 0.806458 0.000000
1.000000 0.806458 0.000000
0.000000 0.838715 0.000000
0.022034 0.838715 0.000000
0.047577 0.838715 0.000000
0.074677 0.838715 0.000000
0.102783 0.838715 0.000000
0.131683 0.838715 0.000000
0.161255 0.838715 0.000000
0.191376 0.838715 0.000000
0.221985 0.838715 0.000000
0.253052 0.838715 0.000000
0.284454 0.838715 0.000000
0.316254 0.838715 0.000000
0.348358 0.838715 0.000000
0.380737 0.838715 0.000000
0.413422 0.838715 0.000000
0.446350 0.838715 0.000000
0.479584 0.838715 0.000000
0.513000 0.838715 0.000000
0.546631 0.838715 0.000000
0.580475 0.838715 0.000000
0.614502 0.838715 0.000000
0.648743 0.838715 0.000000
0.683167 0.838715 0.000000
0.717743 0.838715 0.000000
0.752502 0.838715 0.000000
0.787415 0.838715 0.000000
0.822479 0.838715 0.000000
0.857727 0.838715 0.000000
0.893066 0.838715 0.000000
0.928589 0.838715 0.000000
0.964233 0.838715 0.000000
1.000000 0.838715 0.000000
0.000000 0.870972 0.000000
0.022034 0.870972 0.000000
0.047577 0.870972 0.000000
0.074677 0.870972 0.000000
0.102783 0.870972 0.000000
0.131683 0.870972 0.000000
0.161255 0.870972 0.000000
0.191376 0.870972 0.000000
0.221985 0.870972 0.000000
0.253052 0.870972 0.000000
0.284454 0.870972 0.000000
0.316254 0.870972 0.000000
0.348358 0.870972 0.000000
0.380737 0.870972 0.000000
0.413422 0.870972 0.000000
0.446350 0.870972 0.000000
0.479584 0.870972 0.000000
