dist/luts/GettyImages_1128201588-1.CUBE
#Created by: Adobe Photoshop Export Color Lookup Plugin
TITLE "GettyImages_1128201588-1.psd"
#LUT size
LUT_3D_SIZE 8
#data domain
#LUT data points
DOMAIN_MIN 0.000000 0.000000 0.000000
DOMAIN_MAX 0.903226 0.903226 0.903226
0.000000 0.000000 0.000000
0.110596 0.000000 0.000000
0.233032 0.000000 0.000000
0.360382 0.000000 0.000000
0.491089 0.000000 0.000000
0.624237 0.000000 0.000000
0.759430 0.000000 0.000000
0.896332 0.000000 0.000000
0.000000 0.121124 0.000000
0.110596 0.121124 0.000000
0.233032 0.121124 0.000000
0.360382 0.121124 0.000000
0.491089 0.121124 0.000000
0.624237 0.121124 0.000000
0.759430 0.121124 0.000000
0.896332 0.121124 0.000000
0.000000 0.247467 0.000000
0.110596 0.247467 0.000000
0.233032 0.247467 0.000000
0.360382 0.247467 0.000000
0.491089 0.247467 0.000000
0.624237 0.247467 0.000000
0.759430 0.247467 0.000000
0.896332 0.247467 0.000000
0.000000 0.375885 0.000000
0.110596 0.375885 0.000000
0.233032 0.375885 0.000000
0.360382 0.375885 0.000000
0.491089 0.375885 0.000000
0.624237 0.375885 0.000000
0.759430 0.375885 0.000000
0.896332 0.375885 0.000000
0.000000 0.505707 0.000000
0.110596 0.505707 0.000000
0.233032 0.505707 0.000000
0.360382 0.505707 0.000000
0.491089 0.505707 0.000000
0.624237 0.505707 0.000000
0.759430 0.505707 0.000000
0.896332 0.505707 0.000000
0.000000 0.636475 0.000000
0.110596 0.636475 0.000000
0.233032 0.636475 0.000000
0.360382 0.636475 0.000000
0.491089 0.636475 0.000000
0.624237 0.636475 0.000000
0.759430 0.636475 0.000000
0.896332 0.636475 0.000000
0.000000 0.768097 0.000000
0.110596 0.768097 0.000000
0.233032 0.768097 0.000000
0.360382 0.768097 0.000000
0.491089 0.768097 0.000000
0.624237 0.768097 0.000000
0.759430 0.768097 0.000000
0.896332 0.768097 0.000000
0.000000 0.900391 0.000000
0.110596 0.900391 0.000000
0.233032 0.900391 0.000000
0.360382 0.900391 0.000000
0.491089 0.900391 0.000000
0.624237 0.900391 0.000000
0.759430 0.900391 0.000000
0.896332 0.900391 0.000000
0.000000 0.000000 0.152802
0.110596 0.000000 0.152802
0.233032 0.000000 0.152802
0.360382 0.000000 0.152802
0.491089 0.000000 0.152802
0.624237 0.000000 0.152802
0.759430 0.000000 0.152802
0.896332 0.000000 0.152802
0.000000 0.121124 0.152802
0.110596 0.121124 0.152802
0.233032 0.121124 0.152802
0.360382 0.121124 0.152802
0.491089 0.121124 0.152802
0.624237 0.121124 0.152802
0.759430 0.121124 0.152802
0.896332 0.121124 0.152802
0.000000 0.247467 0.152802
0.110596 0.247467 0.152802
0.233032 0.247467 0.152802
0.360382 0.247467 0.152802
0.491089 0.247467 0.152802
0.624237 0.247467 0.152802
0.759430 0.247467 0.152802
0.896332 0.247467 0.152802
0.000000 0.375885 0.152802
0.110596 0.375885 0.152802
0.233032 0.375885 0.152802
0.360382 0.375885 0.152802
0.491089 0.375885 0.152802
0.624237 0.375885 0.152802
0.759430 0.375885 0.152802
0.896332 0.375885 0.152802
0.000000 0.505707 0.152802
0.110596 0.505707 0.152802
0.233032 0.505707 0.152802
0.360382 0.505707 0.152802
0.491089 0.505707 0.152802
0.624237 0.505707 0.152802
0.759430 0.505707 0.152802
0.896332 0.505707 0.152802
0.000000 0.636475 0.152802
0.110596 0.636475 0.152802
0.233032 0.636475 0.152802
0.360382 0.636475 0.152802
0.491089 0.636475 0.152802
0.624237 0.636475 0.152802
0.759430 0.636475 0.152802
0.896332 0.636475 0.152802
0.000000 0.768097 0.152802
0.110596 0.768097 0.152802
0.233032 0.768097 0.152802
0.360382 0.768097 0.152802
0.491089 0.768097 0.152802
0.624237 0.768097 0.152802
0.759430 0.768097 0.152802
0.896332 0.768097 0.152802
0.000000 0.900391 0.152802
0.110596 0.900391 0.152802
0.233032 0.900391 0.152802
0.360382 0.900391 0.152802
0.491089 0.900391 0.152802
0.624237 0.900391 0.152802
0.759430 0.900391 0.152802
0.896332 0.900391 0.152802
0.000000 0.000000 0.288605
0.110596 0.000000 0.288605
0.233032 0.000000 0.288605
0.360382 0.000000 0.288605
0.491089 0.000000 0.288605
0.624237 0.000000 0.288605
0.759430 0.000000 0.288605
0.896332 0.000000 0.288605
0.000000 0.121124 0.288605
0.110596 0.121124 0.288605
0.233032 0.121124 0.288605
0.360382 0.121124 0.288605
0.491089 0.121124 0.288605
0.624237 0.121124 0.288605
0.759430 0.121124 0.288605
0.896332 0.121124 0.288605
0.000000 0.247467 0.288605
0.110596 0.247467 0.288605
0.233032 0.247467 0.288605
0.360382 0.247467 0.288605
0.491089 0.247467 0.288605
0.624237 0.247467 0.288605
0.759430 0.247467 0.288605
0.896332 0.247467 0.288605
0.000000 0.375885 0.288605
0.110596 0.375885 0.288605
0.233032 0.375885 0.288605
0.360382 0.375885 0.288605
0.491089 0.375885 0.288605
0.624237 0.375885 0.288605
0.759430 0.375885 0.288605
0.896332 0.375885 0.288605
0.000000 0.505707 0.288605
0.110596 0.505707 0.288605
0.233032 0.505707 0.288605
0.360382 0.505707 0.288605
0.491089 0.505707 0.288605
0.624237 0.505707 0.288605
0.759430 0.505707 0.288605
0.896332 0.505707 0.288605
0.000000 0.636475 0.288605
0.110596 0.636475 0.288605
0.233032 0.636475 0.288605
0.360382 0.636475 0.288605
0.491089 0.636475 0.288605
0.624237 0.636475 0.288605
0.759430 0.636475 0.288605
0.896332 0.636475 0.288605
0.000000 0.768097 0.288605
0.110596 0.768097 0.288605
0.233032 0.768097 0.288605
0.360382 0.768097 0.288605
0.491089 0.768097 0.288605
0.624237 0.768097 0.288605
0.759430 0.768097 0.288605
0.896332 0.768097 0.288605
0.000000 0.900391 0.288605
0.110596 0.900391 0.288605
0.233032 0.900391 0.288605
0.360382 0.900391 0.288605
0.491089 0.900391 0.288605
0.624237 0.900391 0.288605
0.759430 0.900391 0.288605
0.896332 0.900391 0.288605
0.000000 0.000000 0.418640
0.110596 0.000000 0.418640
0.233032 0.000000 0.418640
0.360382 0.000000 0.418640
0.491089 0.000000 0.418640
0.624237 0.000000 0.418640
0.759430 0.000000 0.418640
0.896332 0.000000 0.418640
0.000000 0.121124 0.418640
0.110596 0.121124 0.418640
0.233032 0.121124 0.418640
0.360382 0.121124 0.418640
0.491089 0.121124 0.418640
0.624237 0.121124 0.418640
0.759430 0.121124 0.418640
0.896332 0.121124 0.418640
0.000000 0.247467 0.418640
0.110596 0.247467 0.418640
0.233032 0.247467 0.418640
0.360382 0.247467 0.418640
0.491089 0.247467 0.418640
0.624237 0.247467 0.418640
0.759430 0.247467 0.418640
0.896332 0.247467 0.418640
0.000000 0.375885 0.418640
0.110596 0.375885 0.418640
0.233032 0.375885 0.418640
0.360382 0.375885 0.418640
0.491089 0.375885 0.418640
0.624237 0.375885 0.418640
0.759430 0.375885 0.418640
0.896332 0.375885 0.418640
0.000000 0.505707 0.418640
0.110596 0.505707 0.418640
0.233032 0.505707 0.418640
0.360382 0.505707 0.418640
0.491089 0.505707 0.418640
0.624237 0.505707 0.418640
0.759430 0.505707 0.418640
0.896332 0.505707 0.418640
0.000000 0.636475 0.418640
0.110596 0.636475 0.418640
0.233032 0.636475 0.418640
0.360382 0.636475 0.418640
0.491089 0.636475 0.418640
0.624237 0.636475 0.418640
0.759430 0.636475 0.418640
0.896332 0.636475 0.418640
0.000000 0.768097 0.418640
0.110596 0.768097 0.418640
0.233032 0.768097 0.418640
0.360382 0.768097 0.418640
0.491089 0.768097 0.418640
0.624237 0.768097 0.418640
0.759430 0.768097 0.418640
0.896332 0.768097 0.418640
0.000000 0.900391 0.418640
0.110596 0.900391 0.418640
0.233032 0.900391 0.418640
0.360382 0.900391 0.418640
0.491089 0.900391 0.418640
0.624237 0.900391 0.418640
0.759430 0.900391 0.418640
0.896332 0.900391 0.418640
0.000000 0.000000 0.545105
0.110596 0.000000 0.545105
0.233032 0.000000 0.545105
0.360382 0.000000 0.545105
0.491089 0.000000 0.545105
0.624237 0.000000 0.545105
0.759430 0.000000 0.545105
0.896332 0.000000 0.545105
0.000000 0.121124 0.545105
0.110596 0.121124 0.545105
0.233032 0.121124 0.545105
0.360382 0.121124 0.545105
0.491089 0.121124 0.545105
0.624237 0.121124 0.545105
0.759430 0.121124 0.545105
0.896332 0.121124 0.545105
0.000000 0.247467 0.545105
0.110596 0.247467 0.545105
0.233032 0.247467 0.545105
0.360382 0.247467 0.545105
0.491089 0.247467 0.545105
0.624237 0.247467 0.545105
0.759430 0.247467 0.545105
0.896332 0.247467 0.545105
0.000000 0.375885 0.545105
0.110596 0.375885 0.545105
0.233032 0.375885 0.545105
0.360382 0.375885 0.545105
0.491089 0.375885 0.545105
0.624237 0.375885 0.545105
0.759430 0.375885 0.545105
0.896332 0.375885 0.545105
0.000000 0.505707 0.545105
0.110596 0.505707 0.545105
0.233032 0.505707 0.545105
0.360382 0.505707 0.545105
0.491089 0.505707 0.545105
0.624237 0.505707 0.545105
0.759430 0.505707 0.545105
0.896332 0.505707 0.545105
0.000000 0.636475 0.545105
0.110596 0.636475 0.545105
0.233032 0.636475 0.545105
0.360382 0.636475 0.545105
0.491089 0.636475 0.545105
0.624237 0.636475 0.545105
0.759430 0.636475 0.545105
0.896332 0.636475 0.545105
0.000000 0.768097 0.545105
0.110596 0.768097 0.545105
0.233032 0.768097 0.545105
0.360382 0.768097 0.545105
0.491089 0.768097 0.545105
0.624237 0.768097 0.545105
0.759430 0.768097 0.545105
0.896332 0.768097 0.545105
0.000000 0.900391 0.545105
0.110596 0.900391 0.545105
0.233032 0.900391 0.545105
0.360382 0.900391 0.545105
0.491089 0.900391 0.545105
0.624237 0.900391 0.545105
0.759430 0.900391 0.545105
0.896332 0.900391 0.545105
0.000000 0.000000 0.668945
0.110596 0.000000 0.668945
0.233032 0.000000 0.668945
0.360382 0.000000 0.668945
0.491089 0.000000 0.668945
0.624237 0.000000 0.668945
0.759430 0.000000 0.668945
0.896332 0.000000 0.668945
0.000000 0.121124 0.668945
0.110596 0.121124 0.668945
0.233032 0.121124 0.668945
0.360382 0.121124 0.668945
0.491089 0.121124 0.668945
0.624237 0.121124 0.668945
0.759430 0.121124 0.668945
0.896332 0.121124 0.668945
0.000000 0.247467 0.668945
0.110596 0.247467 0.668945
0.233032 0.247467 0.668945
0.360382 0.247467 0.668945
0.491089 0.247467 0.668945
0.624237 0.247467 0.668945
0.759430 0.247467 0.668945
0.896332 0.247467 0.668945
0.000000 0.375885 0.668945
0.110596 0.375885 0.668945
0.233032 0.375885 0.668945
0.360382 0.375885 0.668945
0.491089 0.375885 0.668945
0.624237 0.375885 0.668945
0.759430 0.375885 0.668945
0.896332 0.375885 0.668945
0.000000 0.505707 0.668945
0.110596 0.505707 0.668945
0.233032 0.505707 0.668945
0.360382 0.505707 0.668945
0.491089 0.505707 0.668945
0.624237 0.505707 0.668945
0.759430 0.505707 0.668945
0.896332 0.505707 0.668945
0.000000 0.636475 0.668945
0.110596 0.636475 0.668945
0.233032 0.636475 0.668945
0.360382 0.636475 0.668945
0.491089 0.636475 0.668945
0.624237 0.636475 0.668945
0.759430 0.636475 0.668945
0.896332 0.636475 0.668945
0.000000 0.768097 0.668945
0.110596 0.768097 0.668945
0.233032 0.768097 0.668945
0.360382 0.768097 0.668945
0.491089 0.768097 0.668945
0.624237 0.768097 0.668945
0.759430 0.768097 0.668945
0.896332 0.768097 0.668945
0.000000 0.900391 0.668945
0.110596 0.900391 0.668945
0.233032 0.900391 0.668945
0.360382 0.900391 0.668945
0.491089 0.900391 0.668945
0.624237 0.900391 0.668945
0.759430 0.900391 0.668945
0.896332 0.900391 0.668945
0.000000 0.000000 0.790741
0.110596 0.000000 0.790741
0.233032 0.000000 0.790741
0.360382 0.000000 0.790741
0.491089 0.000000 0.790741
0.624237 0.000000 0.790741
0.759430 0.000000 0.790741
0.896332 0.000000 0.790741
0.000000 0.121124 0.790741
0.110596 0.121124 0.790741
0.233032 0.121124 0.790741
0.360382 0.121124 0.790741
0.491089 0.121124 0.790741
0.624237 0.121124 0.790741
0.759430 0.121124 0.790741
0.896332 0.121124 0.790741
0.000000 0.247467 0.790741
0.110596 0.247467 0.790741
0.233032 0.247467 0.790741
0.360382 0.247467 0.790741
0.491089 0.247467 0.790741
0.624237 0.247467 0.790741
0.759430 0.247467 0.790741
0.896332 0.247467 0.790741
0.000000 0.375885 0.790741
0.110596 0.375885 0.790741
0.233032 0.375885 0.790741
0.360382 0.375885 0.790741
0.491089 0.375885 0.790741
0.624237 0.375885 0.790741
0.759430 0.375885 0.790741
0.896332 0.375885 0.790741
0.000000 0.505707 0.790741
0.110596 0.505707 0.790741
0.233032 0.505707 0.790741
0.360382 0.505707 0.790741
0.491089 0.505707 0.790741
0.624237 0.505707 0.790741
0.759430 0.505707 0.790741
0.896332 0.505707 0.790741
0.000000 0.636475 0.790741
0.110596 0.636475 0.790741
0.233032 0.636475 0.790741
0.360382 0.636475 0.790741
0.491089 0.636475 0.790741
0.624237 0.636475 0.790741
0.759430 0.636475 0.790741
0.896332 0.636475 0.790741
0.000000 0.768097 0.790741
0.110596 0.768097 0.790741
0.233032 0.768097 0.790741
0.360382 0.768097 0.790741
0.491089 0.768097 0.790741
0.624237 0.768097 0.790741
0.759430 0.768097 0.790741
0.896332 0.768097 0.790741
0.000000 0.900391 0.790741
0.110596 0.900391 0.790741
0.233032 0.900391 0.790741
0.360382 0.900391 0.790741
0.491089 0.900391 0.790741
0.624237 0.900391 0.790741
0.759430 0.900391 0.790741
0.896332 0.900391 0.790741
0.000000 0.000000 0.910858
0.110596 0.000000 0.910858
0.233032 0.000000 0.910858
0.360382 0.000000 0.910858
0.491089 0.000000 0.910858
0.624237 0.000000 0.910858
0.759430 0.000000 0.910858
0.896332 0.000000 0.910858
0.000000 0.121124 0.910858
0.110596 0.121124 0.910858
0.233032 0.121124 0.910858
0.360382 0.121124 0.910858
0.491089 0.121124 0.910858
0.624237 0.121124 0.910858
0.759430 0.121124 0.910858
0.896332 0.121124 0.910858
0.000000 0.247467 0.910858
0.110596 0.247467 0.910858
0.233032 0.247467 0.910858
0.360382 0.247467 0.910858
0.491089 0.247467 0.910858
0.624237 0.247467 0.910858
0.759430 0.247467 0.910858
0.896332 0.247467 0.910858
0.000000 0.375885 0.910858
0.110596 0.375885 0.910858
0.233032 0.375885 0.910858
0.360382 0.375885 0.910858
0.491089 0.375885 0.910858
0.624237 0.375885 0.910858
0.759430 0.375885 0.910858
0.896332 0.375885 0.910858
0.000000 0.505707 0.910858
0.110596 0.505707 0.910858
0.233032 0.505707 0.910858
0.360382 0.505707 0.910858
0.491089 0.505707 0.910858
0.624237 0.505707 0.910858
0.759430 0.505707 0.910858
0.896332 0.505707 0.910858
0.000000 0.636475 0.910858
0.110596 0.636475 0.910858
0.233032 0.636475 0.910858
0.360382 0.636475 0.910858
0.491089 0.636475 0.910858
0.624237 0.636475 0.910858
0.759430 0.636475 0.910858
0.896332 0.636475 0.910858
0.000000 0.768097 0.910858
0.110596 0.768097 0.910858
0.233032 0.768097 0.910858
0.360382 0.768097 0.910858
0.491089 0.768097 0.910858
0.624237 0.768097 0.910858
0.759430 0.768097 0.910858
0.896332 0.768097 0.910858
0.000000 0.900391 0.910858
0.110596 0.900391 0.910858
0.233032 0.900391 0.910858
0.360382 0.900391 0.910858
0.491089 0.900391 0.910858
0.624237 0.900391 0.910858
0.759430 0.900391 0.910858
0.896332 0.900391 0.910858
