dist/luts/GettyImages_1128201588-1.CUBE
#Created by: Adobe Photoshop Export Color Lookup Plugin
TITLE "GettyImages_1128201588-1.psd"
#LUT size
LUT_3D_SIZE 5
#data domain
#LUT data points
DOMAIN_MIN 0.000000 0.000000 0.000000
DOMAIN_MAX 0.903226 0.903226 0.903226
0.000000 0.000000 0.000000
0.201874 0.000000 0.000000
0.425385 0.000000 0.000000
0.657867 0.000000 0.000000
0.896332 0.000000 0.000000
0.000000 0.215637 0.000000
0.201874 0.215637 0.000000
0.425385 0.215637 0.000000
0.657867 0.215637 0.000000
0.896332 0.215637 0.000000
0.000000 0.440643 0.000000
0.201874 0.440643 0.000000
0.425385 0.440643 0.000000
0.657867 0.440643 0.000000
0.896332 0.440643 0.000000
0.000000 0.669312 0.000000
0.201874 0.669312 0.000000
0.425385 0.669312 0.000000
0.657867 0.669312 0.000000
0.896332 0.669312 0.000000
0.000000 0.900391 0.000000
0.201874 0.900391 0.000000
0.425385 0.900391 0.000000
0.657867 0.900391 0.000000
0.896332 0.900391 0.000000
0.000000 0.000000 0.255310
0.201874 0.000000 0.255310
0.425385 0.000000 0.255310
0.657867 0.000000 0.255310
0.896332 0.000000 0.255310
0.000000 0.215637 0.255310
0.201874 0.215637 0.255310
0.425385 0.215637 0.255310
0.657867 0.215637 0.255310
0.896332 0.215637 0.255310
0.000000 0.440643 0.255310
0.201874 0.440643 0.255310
0.425385 0.440643 0.255310
0.657867 0.440643 0.255310
0.896332 0.440643 0.255310
0.000000 0.669312 0.255310
0.201874 0.669312 0.255310
0.425385 0.669312 0.255310
0.657867 0.669312 0.255310
0.896332 0.669312 0.255310
0.000000 0.900391 0.255310
0.201874 0.900391 0.255310
0.425385 0.900391 0.255310
0.657867 0.900391 0.255310
0.896332 0.900391 0.255310
0.000000 0.000000 0.482239
0.201874 0.000000 0.482239
0.425385 0.000000 0.482239
0.657867 0.000000 0.482239
0.896332 0.000000 0.482239
0.000000 0.215637 0.482239
0.201874 0.215637 0.482239
0.425385 0.215637 0.482239
0.657867 0.215637 0.482239
0.896332 0.215637 0.482239
0.000000 0.440643 0.482239
0.201874 0.440643 0.482239
0.425385 0.440643 0.482239
0.657867 0.440643 0.482239
0.896332 0.440643 0.482239
0.000000 0.669312 0.482239
0.201874 0.669312 0.482239
0.425385 0.669312 0.482239
0.657867 0.669312 0.482239
0.896332 0.669312 0.482239
0.000000 0.900391 0.482239
0.201874 0.900391 0.482239
0.425385 0.900391 0.482239
0.657867 0.900391 0.482239
0.896332 0.900391 0.482239
0.000000 0.000000 0.699554
0.201874 0.000000 0.699554
0.425385 0.000000 0.699554
0.657867 0.000000 0.699554
0.896332 0.000000 0.699554
0.000000 0.215637 0.699554
0.201874 0.215637 0.699554
0.425385 0.215637 0.699554
0.657867 0.215637 0.699554
0.896332 0.215637 0.699554
0.000000 0.440643 0.699554
0.201874 0.440643 0.699554
0.425385 0.440643 0.699554
0.657867 0.440643 0.699554
0.896332 0.440643 0.699554
0.000000 0.669312 0.699554
0.201874 0.669312 0.699554
0.425385 0.669312 0.699554
0.657867 0.669312 0.699554
0.896332 0.669312 0.699554
0.000000 0.900391 0.699554
0.201874 0.900391 0.699554
0.425385 0.900391 0.699554
0.657867 0.900391 0.699554
0.896332 0.900391 0.699554
0.000000 0.000000 0.910858
0.201874 0.000000 0.910858
0.425385 0.000000 0.910858
0.657867 0.000000 0.910858
0.896332 0.000000 0.910858
0.000000 0.215637 0.910858
0.201874 0.215637 0.910858
0.425385 0.215637 0.910858
0.657867 0.215637 0.910858
0.896332 0.215637 0.910858
0.000000 0.440643 0.910858
0.201874 0.440643 0.910858
0.425385 0.440643 0.910858
0.657867 0.440643 0.910858
0.896332 0.440643 0.910858
0.000000 0.669312 0.910858
0.201874 0.669312 0.910858
0.425385 0.669312 0.910858
0.657867 0.669312 0.910858
0.896332 0.669312 0.910858
0.000000 0.900391 0.910858
0.201874 0.900391 0.910858
0.425385 0.900391 0.910858
0.657867 0.900391 0.910858
0.896332 0.900391 0.910858
