dist/luts/GettyImages_1128201588-1.CUBE
#Created by: Adobe Photoshop Export Color Lookup Plugin
TITLE "GettyImages_1128201588-1.psd"
#LUT size
LUT_3D_SIZE 32
#data domain
DOMAIN_MIN 0.0 0.0 0.0
DOMAIN_MAX 1.0 1.0 1.0
#LUT data points
0.000000 0.000000 0.000000
0.024902 0.000000 0.000000
0.052490 0.000000 0.000000
0.081177 0.000000 0.000000
0.110596 0.000000 0.000000
0.140594 0.000000 0.000000
0.171021 0.000000 0.000000
0.201874 0.000000 0.000000
0.233032 0.000000 0.000000
0.264496 0.000000 0.000000
0.296234 0.000000 0.000000
0.328217 0.000000 0.000000
0.360382 0.000000 0.000000
0.392792 0.000000 0.000000
0.425385 0.000000 0.000000
0.458130 0.000000 0.000000
0.491089 0.000000 0.000000
0.524139 0.000000 0.000000
0.557373 0.000000 0.000000
0.590759 0.000000 0.000000
0.624237 0.000000 0.000000
0.657867 0.000000 0.000000
0.691589 0.000000 0.000000
0.725464 0.000000 0.000000
0.759430 0.000000 0.000000
0.793488 0.000000 0.000000
0.827667 0.000000 0.000000
0.861969 0.000000 0.000000
0.896332 0.000000 0.000000
0.930817 0.000000 0.000000
0.965363 0.000000 0.000000
1.000000 0.000000 0.000000
0.000000 0.029022 0.000000
0.024902 0.029022 0.000000
0.052490 0.029022 0.000000
0.081177 0.029022 0.000000
0.110596 0.029022 0.000000
0.140594 0.029022 0.000000
0.171021 0.029022 0.000000
0.201874 0.029022 0.000000
0.233032 0.029022 0.000000
0.264496 0.029022 0.000000
0.296234 0.029022 0.000000
0.328217 0.029022 0.000000
0.360382 0.029022 0.000000
0.392792 0.029022 0.000000
0.425385 0.029022 0.000000
0.458130 0.029022 0.000000
0.491089 0.029022 0.000000
0.524139 0.029022 0.000000
0.557373 0.029022 0.000000
0.590759 0.029022 0.000000
0.624237 0.029022 0.000000
0.657867 0.029022 0.000000
0.691589 0.029022 0.000000
0.725464 0.029022 0.000000
0.759430 0.029022 0.000000
0.793488 0.029022 0.000000
0.827667 0.029022 0.000000
0.861969 0.029022 0.000000
0.896332 0.029022 0.000000
0.930817 0.029022 0.000000
0.965363 0.029022 0.000000
1.000000 0.029022 0.000000
0.000000 0.059265 0.000000
0.024902 0.059265 0.000000
0.052490 0.059265 0.000000
0.081177 0.059265 0.000000
0.110596 0.059265 0.000000
0.140594 0.059265 0.000000
0.171021 0.059265 0.000000
0.201874 0.059265 0.000000
0.233032 0.059265 0.000000
0.264496 0.059265 0.000000
0.296234 0.059265 0.000000
0.328217 0.059265 0.000000
0.360382 0.059265 0.000000
0.392792 0.059265 0.000000
0.425385 0.059265 0.000000
0.458130 0.059265 0.000000
0.491089 0.059265 0.000000
0.524139 0.059265 0.000000
0.557373 0.059265 0.000000
0.590759 0.059265 0.000000
0.624237 0.059265 0.000000
0.657867 0.059265 0.000000
0.691589 0.059265 0.000000
0.725464 0.059265 0.000000
0.759430 0.059265 0.000000
0.793488 0.059265 0.000000
0.827667 0.059265 0.000000
0.861969 0.059265 0.000000
0.896332 0.059265 0.000000
0.930817 0.059265 0.000000
0.965363 0.059265 0.000000
1.000000 0.059265 0.000000
0.000000 0.090027 0.000000
0.024902 0.090027 0.000000
0.052490 0.090027 0.000000
0.081177 0.090027 0.000000
0.110596 0.090027 0.000000
0.140594 0.090027 0.000000
0.171021 0.090027 0.000000
0.201874 0.090027 0.000000
0.233032 0.090027 0.000000
0.264496 0.090027 0.000000
0.296234 0.090027 0.000000
0.328217 0.090027 0.000000
0.360382 0.090027 0.000000
0.392792 0.090027 0.000000
0.425385 0.090027 0.000000
0.458130 0.090027 0.000000
0.491089 0.090027 0.000000
0.524139 0.090027 0.000000
0.557373 0.090027 0.000000
0.590759 0.090027 0.000000
0.624237 0.090027 0.000000
0.657867 0.090027 0.000000
0.691589 0.090027 0.000000
0.725464 0.090027 0.000000
0.759430 0.090027 0.000000
0.793488 0.090027 0.000000
0.827667 0.090027 0.000000
0.861969 0.090027 0.000000
0.896332 0.090027 0.000000
0.930817 0.090027 0.000000
0.965363 0.090027 0.000000
1.000000 0.090027 0.000000
0.000000 0.121124 0.000000
0.024902 0.121124 0.000000
0.052490 0.121124 0.000000
0.081177 0.121124 0.000000
0.110596 0.121124 0.000000
0.140594 0.121124 0.000000
0.171021 0.121124 0.000000
0.201874 0.121124 0.000000
0.233032 0.121124 0.000000
0.264496 0.121124 0.000000
0.296234 0.121124 0.000000
0.328217 0.121124 0.000000
0.360382 0.121124 0.000000
0.392792 0.121124 0.000000
0.425385 0.121124 0.000000
0.458130 0.121124 0.000000
0.491089 0.121124 0.000000
0.524139 0.121124 0.000000
0.557373 0.121124 0.000000
0.590759 0.121124 0.000000
0.624237 0.121124 0.000000
0.657867 0.121124 0.000000
0.691589 0.121124 0.000000
0.725464 0.121124 0.000000
0.759430 0.121124 0.000000
0.793488 0.121124 0.000000
0.827667 0.121124 0.000000
0.861969 0.121124 0.000000
0.896332 0.121124 0.000000
0.930817 0.121124 0.000000
0.965363 0.121124 0.000000
1.000000 0.121124 0.000000
0.000000 0.152435 0.000000
0.024902 0.152435 0.000000
0.052490 0.152435 0.000000
0.081177 0.152435 0.000000
0.110596 0.152435 0.000000
0.140594 0.152435 0.000000
0.171021 0.152435 0.000000
0.201874 0.152435 0.000000
0.233032 0.152435 0.000000
0.264496 0.152435 0.000000
0.296234 0.152435 0.000000
0.328217 0.152435 0.000000
0.360382 0.152435 0.000000
0.392792 0.152435 0.000000
0.425385 0.152435 0.000000
0.458130 0.152435 0.000000
0.491089 0.152435 0.000000
0.524139 0.152435 0.000000
0.557373 0.152435 0.000000
0.590759 0.152435 0.000000
0.624237 0.152435 0.000000
0.657867 0.152435 0.000000
0.691589 0.152435 0.000000
0.725464 0.152435 0.000000
0.759430 0.152435 0.000000
0.793488 0.152435 0.000000
0.827667 0.152435 0.000000
0.861969 0.152435 0.000000
0.896332 0.152435 0.000000
0.930817 0.152435 0.000000
0.965363 0.152435 0.000000
1.000000 0.152435 0.000000
0.000000 0.183960 0.000000
0.024902 0.183960 0.000000
0.052490 0.183960 0.000000
0.081177 0.183960 0.000000
0.110596 0.183960 0.000000
0.140594 0.183960 0.000000
0.171021 0.183960 0.000000
0.201874 0.183960 0.000000
0.233032 0.183960 0.000000
0.264496 0.183960 0.000000
0.296234 0.183960 0.000000
0.328217 0.183960 0.000000
0.360382 0.183960 0.000000
0.392792 0.183960 0.000000
0.425385 0.183960 0.000000
0.458130 0.183960 0.000000
0.491089 0.183960 0.000000
0.524139 0.183960 0.000000
0.557373 0.183960 0.000000
0.590759 0.183960 0.000000
0.624237 0.183960 0.000000
0.657867 0.183960 0.000000
0.691589 0.183960 0.000000
0.725464 0.183960 0.000000
0.759430 0.183960 0.000000
0.793488 0.183960 0.000000
0.827667 0.183960 0.000000
0.861969 0.183960 0.000000
0.896332 0.183960 0.000000
0.930817 0.183960 0.000000
0.965363 0.183960 0.000000
1.000000 0.183960 0.000000
0.000000 0.215637 0.000000
0.024902 0.215637 0.000000
0.052490 0.215637 0.000000
0.081177 0.215637 0.000000
0.110596 0.215637 0.000000
0.140594 0.215637 0.000000
0.171021 0.215637 0.000000
0.201874 0.215637 0.000000
0.233032 0.215637 0.000000
0.264496 0.215637 0.000000
0.296234 0.215637 0.000000
0.328217 0.215637 0.000000
0.360382 0.215637 0.000000
0.392792 0.215637 0.000000
0.425385 0.215637 0.000000
0.458130 0.215637 0.000000
0.491089 0.215637 0.000000
0.524139 0.215637 0.000000
0.557373 0.215637 0.000000
0.590759 0.215637 0.000000
0.624237 0.215637 0.000000
0.657867 0.215637 0.000000
0.691589 0.215637 0.000000
0.725464 0.215637 0.000000
0.759430 0.215637 0.000000
0.793488 0.215637 0.000000
0.827667 0.215637 0.000000
0.861969 0.215637 0.000000
0.896332 0.215637 0.000000
0.930817 0.215637 0.000000
0.965363 0.215637 0.000000
1.000000 0.215637 0.000000
0.000000 0.247467 0.000000
0.024902 0.247467 0.000000
0.052490 0.247467 0.000000
0.081177 0.247467 0.000000
0.110596 0.247467 0.000000
0.140594 0.247467 0.000000
0.171021 0.247467 0.000000
0.201874 0.247467 0.000000
0.233032 0.247467 0.000000
0.264496 0.247467 0.000000
0.296234 0.247467 0.000000
0.328217 0.247467 0.000000
0.360382 0.247467 0.000000
0.392792 0.247467 0.000000
0.425385 0.247467 0.000000
0.458130 0.247467 0.000000
0.491089 0.247467 0.000000
0.524139 0.247467 0.000000
0.557373 0.247467 0.000000
0.590759 0.247467 0.000000
0.624237 0.247467 0.000000
0.657867 0.247467 0.000000
0.691589 0.247467 0.000000
0.725464 0.247467 0.000000
0.759430 0.247467 0.000000
0.793488 0.247467 0.000000
0.827667 0.247467 0.000000
0.861969 0.247467 0.000000
0.896332 0.247467 0.000000
0.930817 0.247467 0.000000
0.965363 0.247467 0.000000
1.000000 0.247467 0.000000
0.000000 0.279419 0.000000
0.024902 0.279419 0.000000
0.052490 0.279419 0.000000
0.081177 0.279419 0.000000
0.110596 0.279419 0.000000
0.140594 0.279419 0.000000
0.171021 0.279419 0.000000
0.201874 0.279419 0.000000
0.233032 0.279419 0.000000
0.264496 0.279419 0.000000
0.296234 0.279419 0.000000
0.328217 0.279419 0.000000
0.360382 0.279419 0.000000
0.392792 0.279419 0.000000
0.425385 0.279419 0.000000
0.458130 0.279419 0.000000
0.491089 0.279419 0.000000
0.524139 0.279419 0.000000
0.557373 0.279419 0.000000
0.590759 0.279419 0.000000
0.624237 0.279419 0.000000
0.657867 0.279419 0.000000
0.691589 0.279419 0.000000
0.725464 0.279419 0.000000
0.759430 0.279419 0.000000
0.793488 0.279419 0.000000
0.827667 0.279419 0.000000
0.861969 0.279419 0.000000
0.896332 0.279419 0.000000
0.930817 0.279419 0.000000
0.965363 0.279419 0.000000
1.000000 0.279419 0.000000
0.000000 0.311493 0.000000
0.024902 0.311493 0.000000
0.052490 0.311493 0.000000
0.081177 0.311493 0.000000
0.110596 0.311493 0.000000
0.140594 0.311493 0.000000
0.171021 0.311493 0.000000
0.201874 0.311493 0.000000
0.233032 0.311493 0.000000
0.264496 0.311493 0.000000
0.296234 0.311493 0.000000
0.328217 0.311493 0.000000
0.360382 0.311493 0.000000
0.392792 0.311493 0.000000
0.425385 0.311493 0.000000
0.458130 0.311493 0.000000
0.491089 0.311493 0.000000
0.524139 0.311493 0.000000
0.557373 0.311493 0.000000
0.590759 0.311493 0.000000
0.624237 0.311493 0.000000
0.657867 0.311493 0.000000
0.691589 0.311493 0.000000
0.725464 0.311493 0.000000
0.759430 0.311493 0.000000
0.793488 0.311493 0.000000
0.827667 0.311493 0.000000
0.861969 0.311493 0.000000
0.896332 0.311493 0.000000
0.930817 0.311493 0.000000
0.965363 0.311493 0.000000
1.000000 0.311493 0.000000
0.000000 0.343628 0.000000
0.024902 0.343628 0.000000
0.052490 0.343628 0.000000
0.081177 0.343628 0.000000
0.110596 0.343628 0.000000
0.140594 0.343628 0.000000
0.171021 0.343628 0.000000
0.201874 0.343628 0.000000
0.233032 0.343628 0.000000
0.264496 0.343628 0.000000
0.296234 0.343628 0.000000
0.328217 0.343628 0.000000
0.360382 0.343628 0.000000
0.392792 0.343628 0.000000
0.425385 0.343628 0.000000
0.458130 0.343628 0.000000
0.491089 0.343628 0.000000
0.524139 0.343628 0.000000
0.557373 0.343628 0.000000
0.590759 0.343628 0.000000
0.624237 0.343628 0.000000
0.657867 0.343628 0.000000
0.691589 0.343628 0.000000
0.725464 0.343628 0.000000
0.759430 0.343628 0.000000
0.793488 0.343628 0.000000
0.827667 0.343628 0.000000
0.861969 0.343628 0.000000
0.896332 0.343628 0.000000
0.930817 0.343628 0.000000
0.965363 0.343628 0.000000
1.000000 0.343628 0.000000
0.000000 0.375885 0.000000
0.024902 0.375885 0.000000
0.052490 0.375885 0.000000
0.081177 0.375885 0.000000
0.110596 0.375885 0.000000
0.140594 0.375885 0.000000
0.171021 0.375885 0.000000
0.201874 0.375885 0.000000
0.233032 0.375885 0.000000
0.264496 0.375885 0.000000
0.296234 0.375885 0.000000
0.328217 0.375885 0.000000
0.360382 0.375885 0.000000
0.392792 0.375885 0.000000
0.425385 0.375885 0.000000
0.458130 0.375885 0.000000
0.491089 0.375885 0.000000
0.524139 0.375885 0.000000
0.557373 0.375885 0.000000
0.590759 0.375885 0.000000
0.624237 0.375885 0.000000
0.657867 0.375885 0.000000
0.691589 0.375885 0.000000
0.725464 0.375885 0.000000
0.759430 0.375885 0.000000
0.793488 0.375885 0.000000
0.827667 0.375885 0.000000
0.861969 0.375885 0.000000
0.896332 0.375885 0.000000
0.930817 0.375885 0.000000
0.965363 0.375885 0.000000
1.000000 0.375885 0.000000
0.000000 0.408234 0.000000
0.024902 0.408234 0.000000
0.052490 0.408234 0.000000
0.081177 0.408234 0.000000
0.110596 0.408234 0.000000
0.140594 0.408234 0.000000
0.171021 0.408234 0.000000
0.201874 0.408234 0.000000
0.233032 0.408234 0.000000
0.264496 0.408234 0.000000
0.296234 0.408234 0.000000
0.328217 0.408234 0.000000
0.360382 0.408234 0.000000
0.392792 0.408234 0.000000
0.425385 0.408234 0.000000
0.458130 0.408234 0.000000
0.491089 0.408234 0.000000
0.524139 0.408234 0.000000
0.557373 0.408234 0.000000
0.590759 0.408234 0.000000
0.624237 0.408234 0.000000
0.657867 0.408234 0.000000
0.691589 0.408234 0.000000
0.725464 0.408234 0.000000
0.759430 0.408234 0.000000
0.793488 0.408234 0.000000
0.827667 0.408234 0.000000
0.861969 0.408234 0.000000
0.896332 0.408234 0.000000
0.930817 0.408234 0.000000
0.965363 0.408234 0.000000
1.000000 0.408234 0.000000
0.000000 0.440643 0.000000
0.024902 0.440643 0.000000
0.052490 0.440643 0.000000
0.081177 0.440643 0.000000
0.110596 0.440643 0.000000
0.140594 0.440643 0.000000
0.171021 0.440643 0.000000
0.201874 0.440643 0.000000
0.233032 0.440643 0.000000
0.264496 0.440643 0.000000
0.296234 0.440643 0.000000
0.328217 0.440643 0.000000
0.360382 0.440643 0.000000
0.392792 0.440643 0.000000
0.425385 0.440643 0.000000
0.458130 0.440643 0.000000
0.491089 0.440643 0.000000
0.524139 0.440643 0.000000
0.557373 0.440643 0.000000
0.590759 0.440643 0.000000
0.624237 0.440643 0.000000
0.657867 0.440643 0.000000
0.691589 0.440643 0.000000
0.725464 0.440643 0.000000
0.759430 0.440643 0.000000
0.793488 0.440643 0.000000
0.827667 0.440643 0.000000
0.861969 0.440643 0.000000
0.896332 0.440643 0.000000
0.930817 0.440643 0.000000
0.965363 0.440643 0.000000
1.000000 0.440643 0.000000
0.000000 0.473114 0.000000
0.024902 0.473114 0.000000
0.052490 0.473114 0.000000
0.081177 0.473114 0.000000
0.110596 0.473114 0.000000
0.140594 0.473114 0.000000
0.171021 0.473114 0.000000
0.201874 0.473114 0.000000
0.233032 0.473114 0.000000
0.264496 0.473114 0.000000
0.296234 0.473114 0.000000
0.328217 0.473114 0.000000
0.360382 0.473114 0.000000
0.392792 0.473114 0.000000
0.425385 0.473114 0.000000
0.458130 0.473114 0.000000
0.491089 0.473114 0.000000
0.524139 0.473114 0.000000
0.557373 0.473114 0.000000
0.590759 0.473114 0.000000
0.624237 0.473114 0.000000
0.657867 0.473114 0.000000
0.691589 0.473114 0.000000
0.725464 0.473114 0.000000
0.759430 0.473114 0.000000
0.793488 0.473114 0.000000
0.827667 0.473114 0.000000
0.861969 0.473114 0.000000
0.896332 0.473114 0.000000
0.930817 0.473114 0.000000
0.965363 0.473114 0.000000
1.000000 0.473114 0.000000
0.000000 0.505707 0.000000
0.024902 0.505707 0.000000
0.052490 0.505707 0.000000
0.081177 0.505707 0.000000
0.110596 0.505707 0.000000
0.140594 0.505707 0.000000
0.171021 0.505707 0.000000
0.201874 0.505707 0.000000
0.233032 0.505707 0.000000
0.264496 0.505707 0.000000
0.296234 0.505707 0.000000
0.328217 0.505707 0.000000
0.360382 0.505707 0.000000
0.392792 0.505707 0.000000
0.425385 0.505707 0.000000
0.458130 0.505707 0.000000
0.491089 0.505707 0.000000
0.524139 0.505707 0.000000
0.557373 0.505707 0.000000
0.590759 0.505707 0.000000
0.624237 0.505707 0.000000
0.657867 0.505707 0.000000
0.691589 0.505707 0.000000
0.725464 0.505707 0.000000
0.759430 0.505707 0.000000
0.793488 0.505707 0.000000
0.827667 0.505707 0.000000
0.861969 0.505707 0.000000
0.896332 0.505707 0.000000
0.930817 0.505707 0.000000
0.965363 0.505707 0.000000
1.000000 0.505707 0.000000
0.000000 0.538300 0.000000
0.024902 0.538300 0.000000
0.052490 0.538300 0.000000
0.081177 0.538300 0.000000
0.110596 0.538300 0.000000
0.140594 0.538300 0.000000
0.171021 0.538300 0.000000
0.201874 0.538300 0.000000
0.233032 0.538300 0.000000
0.264496 0.538300 0.000000
0.296234 0.538300 0.000000
0.328217 0.538300 0.000000
0.360382 0.538300 0.000000
0.392792 0.538300 0.000000
0.425385 0.538300 0.000000
0.458130 0.538300 0.000000
0.491089 0.538300 0.000000
0.524139 0.538300 0.000000
0.557373 0.538300 0.000000
0.590759 0.538300 0.000000
0.624237 0.538300 0.000000
0.657867 0.538300 0.000000
0.691589 0.538300 0.000000
0.725464 0.538300 0.000000
0.759430 0.538300 0.000000
0.793488 0.538300 0.000000
0.827667 0.538300 0.000000
0.861969 0.538300 0.000000
0.896332 0.538300 0.000000
0.930817 0.538300 0.000000
0.965363 0.538300 0.000000
1.000000 0.538300 0.000000
0.000000 0.570984 0.000000
0.024902 0.570984 0.000000
0.052490 0.570984 0.000000
0.081177 0.570984 0.000000
0.110596 0.570984 0.000000
0.140594 0.570984 0.000000
0.171021 0.570984 0.000000
0.201874 0.570984 0.000000
0.233032 0.570984 0.000000
0.264496 0.570984 0.000000
0.296234 0.570984 0.000000
0.328217 0.570984 0.000000
0.360382 0.570984 0.000000
0.392792 0.570984 0.000000
0.425385 0.570984 0.000000
0.458130 0.570984 0.000000
0.491089 0.570984 0.000000
0.524139 0.570984 0.000000
0.557373 0.570984 0.000000
0.590759 0.570984 0.000000
0.624237 0.570984 0.000000
0.657867 0.570984 0.000000
0.691589 0.570984 0.000000
0.725464 0.570984 0.000000
0.759430 0.570984 0.000000
0.793488 0.570984 0.000000
0.827667 0.570984 0.000000
0.861969 0.570984 0.000000
0.896332 0.570984 0.000000
0.930817 0.570984 0.000000
0.965363 0.570984 0.000000
1.000000 0.570984 0.000000
0.000000 0.603699 0.000000
0.024902 0.603699 0.000000
0.052490 0.603699 0.000000
0.081177 0.603699 0.000000
0.110596 0.603699 0.000000
0.140594 0.603699 0.000000
0.171021 0.603699 0.000000
0.201874 0.603699 0.000000
0.233032 0.603699 0.000000
0.264496 0.603699 0.000000
0.296234 0.603699 0.000000
0.328217 0.603699 0.000000
0.360382 0.603699 0.000000
0.392792 0.603699 0.000000
0.425385 0.603699 0.000000
0.458130 0.603699 0.000000
0.491089 0.603699 0.000000
0.524139 0.603699 0.000000
0.557373 0.603699 0.000000
0.590759 0.603699 0.000000
0.624237 0.603699 0.000000
0.657867 0.603699 0.000000
0.691589 0.603699 0.000000
0.725464 0.603699 0.000000
0.759430 0.603699 0.000000
0.793488 0.603699 0.000000
0.827667 0.603699 0.000000
0.861969 0.603699 0.000000
0.896332 0.603699 0.000000
0.930817 0.603699 0.000000
0.965363 0.603699 0.000000
1.000000 0.603699 0.000000
0.000000 0.636475 0.000000
0.024902 0.636475 0.000000
0.052490 0.636475 0.000000
0.081177 0.636475 0.000000
0.110596 0.636475 0.000000
0.140594 0.636475 0.000000
0.171021 0.636475 0.000000
0.201874 0.636475 0.000000
0.233032 0.636475 0.000000
0.264496 0.636475 0.000000
0.296234 0.636475 0.000000
0.328217 0.636475 0.000000
0.360382 0.636475 0.000000
0.392792 0.636475 0.000000
0.425385 0.636475 0.000000
0.458130 0.636475 0.000000
0.491089 0.636475 0.000000
0.524139 0.636475 0.000000
0.557373 0.636475 0.000000
0.590759 0.636475 0.000000
0.624237 0.636475 0.000000
0.657867 0.636475 0.000000
0.691589 0.636475 0.000000
0.725464 0.636475 0.000000
0.759430 0.636475 0.000000
0.793488 0.636475 0.000000
0.827667 0.636475 0.000000
0.861969 0.636475 0.000000
0.896332 0.636475 0.000000
0.930817 0.636475 0.000000
0.965363 0.636475 0.000000
1.000000 0.636475 0.000000
0.000000 0.669312 0.000000
0.024902 0.669312 0.000000
0.052490 0.669312 0.000000
0.081177 0.669312 0.000000
0.110596 0.669312 0.000000
0.140594 0.669312 0.000000
0.171021 0.669312 0.000000
0.201874 0.669312 0.000000
0.233032 0.669312 0.000000
0.264496 0.669312 0.000000
0.296234 0.669312 0.000000
0.328217 0.669312 0.000000
0.360382 0.669312 0.000000
0.392792 0.669312 0.000000
0.425385 0.669312 0.000000
0.458130 0.669312 0.000000
0.491089 0.669312 0.000000
0.524139 0.669312 0.000000
0.557373 0.669312 0.000000
0.590759 0.669312 0.000000
0.624237 0.669312 0.000000
0.657867 0.669312 0.000000
0.691589 0.669312 0.000000
0.725464 0.669312 0.000000
0.759430 0.669312 0.000000
0.793488 0.669312 0.000000
0.827667 0.669312 0.000000
0.861969 0.669312 0.000000
0.896332 0.669312 0.000000
0.930817 0.669312 0.000000
0.965363 0.669312 0.000000
1.000000 0.669312 0.000000
0.000000 0.702209 0.000000
0.024902 0.702209 0.000000
0.052490 0.702209 0.000000
0.081177 0.702209 0.000000
0.110596 0.702209 0.000000
0.140594 0.702209 0.000000
0.171021 0.702209 0.000000
0.201874 0.702209 0.000000
0.233032 0.702209 0.000000
0.264496 0.702209 0.000000
0.296234 0.702209 0.000000
0.328217 0.702209 0.000000
0.360382 0.702209 0.000000
0.392792 0.702209 0.000000
0.425385 0.702209 0.000000
0.458130 0.702209 0.000000
0.491089 0.702209 0.000000
0.524139 0.702209 0.000000
0.557373 0.702209 0.000000
0.590759 0.702209 0.000000
0.624237 0.702209 0.000000
0.657867 0.702209 0.000000
0.691589 0.702209 0.000000
0.725464 0.702209 0.000000
0.759430 0.702209 0.000000
0.793488 0.702209 0.000000
0.827667 0.702209 0.000000
0.861969 0.702209 0.000000
0.896332 0.702209 0.000000
0.930817 0.702209 0.000000
0.965363 0.702209 0.000000
1.000000 0.702209 0.000000
0.000000 0.735138 0.000000
0.024902 0.735138 0.000000
0.052490 0.735138 0.000000
0.081177 0.735138 0.000000
0.110596 0.735138 0.000000
0.140594 0.735138 0.000000
0.171021 0.735138 0.000000
0.201874 0.735138 0.000000
0.233032 0.735138 0.000000
0.264496 0.735138 0.000000
0.296234 0.735138 0.000000
0.328217 0.735138 0.000000
0.360382 0.735138 0.000000
0.392792 0.735138 0.000000
0.425385 0.735138 0.000000
0.458130 0.735138 0.000000
0.491089 0.735138 0.000000
0.524139 0.735138 0.000000
0.557373 0.735138 0.000000
0.590759 0.735138 0.000000
0.624237 0.735138 0.000000
0.657867 0.735138 0.000000
0.691589 0.735138 0.000000
0.725464 0.735138 0.000000
0.759430 0.735138 0.000000
0.793488 0.735138 0.000000
0.827667 0.735138 0.000000
0.861969 0.735138 0.000000
0.896332 0.735138 0.000000
0.930817 0.735138 0.000000
0.965363 0.735138 0.000000
1.000000 0.735138 0.000000
0.000000 0.768097 0.000000
0.024902 0.768097 0.000000
0.052490 0.768097 0.000000
0.081177 0.768097 0.000000
0.110596 0.768097 0.000000
0.140594 0.768097 0.000000
0.171021 0.768097 0.000000
0.201874 0.768097 0.000000
0.233032 0.768097 0.000000
0.264496 0.768097 0.000000
0.296234 0.768097 0.000000
0.328217 0.768097 0.000000
0.360382 0.768097 0.000000
0.392792 0.768097 0.000000
0.425385 0.768097 0.000000
0.458130 0.768097 0.000000
0.491089 0.768097 0.000000
0.524139 0.768097 0.000000
0.557373 0.768097 0.000000
0.590759 0.768097 0.000000
0.624237 0.768097 0.000000
0.657867 0.768097 0.000000
0.691589 0.768097 0.000000
0.725464 0.768097 0.000000
0.759430 0.768097 0.000000
0.793488 0.768097 0.000000
0.827667 0.768097 0.000000
0.861969 0.768097 0.000000
0.896332 0.768097 0.000000
0.930817 0.768097 0.000000
0.965363 0.768097 0.000000
1.000000 0.768097 0.000000
0.000000 0.801117 0.000000
0.024902 0.801117 0.000000
0.052490 0.801117 0.000000
0.081177 0.801117 0.000000
0.110596 0.801117 0.000000
0.140594 0.801117 0.000000
0.171021 0.801117 0.000000
0.201874 0.801117 0.000000
0.233032 0.801117 0.000000
0.264496 0.801117 0.000000
0.296234 0.801117 0.000000
0.328217 0.801117 0.000000
0.360382 0.801117 0.000000
0.392792 0.801117 0.000000
0.425385 0.801117 0.000000
0.458130 0.801117 0.000000
0.491089 0.801117 0.000000
0.524139 0.801117 0.000000
0.557373 0.801117 0.000000
0.590759 0.801117 0.000000
0.624237 0.801117 0.000000
0.657867 0.801117 0.000000
0.691589 0.801117 0.000000
0.725464 0.801117 0.000000
0.759430 0.801117 0.000000
0.793488 0.801117 0.000000
0.827667 0.801117 0.000000
0.861969 0.801117 0.000000
0.896332 0.801117 0.000000
0.930817 0.801117 0.000000
0.965363 0.801117 0.000000
1.000000 0.801117 0.000000
0.000000 0.834167 0.000000
0.024902 0.834167 0.000000
0.052490 0.834167 0.000000
0.081177 0.834167 0.000000
0.110596 0.834167 0.000000
0.140594 0.834167 0.000000
0.171021 0.834167 0.000000
0.201874 0.834167 0.000000
0.233032 0.834167 0.000000
0.264496 0.834167 0.000000
0.296234 0.834167 0.000000
0.328217 0.834167 0.000000
0.360382 0.834167 0.000000
0.392792 0.834167 0.000000
0.425385 0.834167 0.000000
0.458130 0.834167 0.000000
0.491089 0.834167 0.000000
0.524139 0.834167 0.000000
0.557373 0.834167 0.000000
0.590759 0.834167 0.000000
0.624237 0.834167 0.000000
0.657867 0.834167 0.000000
0.691589 0.834167 0.000000
0.725464 0.834167 0.000000
0.759430 0.834167 0.000000
0.793488 0.834167 0.000000
0.827667 0.834167 0.000000
0.861969 0.834167 0.000000
0.896332 0.834167 0.000000
0.930817 0.834167 0.000000
0.965363 0.834167 0.000000
1.000000 0.834167 0.000000
0.000000 0.867249 0.000000
0.024902 0.867249 0.000000
0.052490 0.867249 0.000000
0.081177 0.867249 0.000000
0.110596 0.867249 0.000000
0.140594 0.867249 0.000000
0.171021 0.867249 0.000000
0.201874 0.867249 0.000000
0.233032 0.867249 0.000000
0.264496 0.867249 0.000000
0.296234 0.867249 0.000000
0.328217 0.867249 0.000000
0.360382 0.867249 0.000000
0.392792 0.867249 0.000000
0.425385 0.867249 0.000000
0.458130 0.867249 0.000000
0.491089 0.867249 0.000000
