dist/luts/Industry - Metals 3-Large.CUBE
#Created by: Adobe Photoshop Export Color Lookup Plugin
TITLE "Industry - Metals 3-Large.psd"
#LUT size
LUT_3D_SIZE 5
#data domain
#LUT data points
DOMAIN_MIN 0.000000 0.000000 0.000000
DOMAIN_MAX 0.903226 0.903226 0.903226
0.000000 0.000000 0.000000
0.191376 0.000000 0.000000
0.413422 0.000000 0.000000
0.648743 0.000000 0.000000
0.893066 0.000000 0.000000
0.000000 0.229156 0.000000
0.191376 0.229156 0.000000
0.413422 0.229156 0.000000
0.648743 0.229156 0.000000
0.893066 0.229156 0.000000
0.000000 0.455170 0.000000
0.191376 0.455170 0.000000
0.413422 0.455170 0.000000
0.648743 0.455170 0.000000
0.893066 0.455170 0.000000
0.000000 0.680054 0.000000
0.191376 0.680054 0.000000
0.413422 0.680054 0.000000
0.648743 0.680054 0.000000
0.893066 0.680054 0.000000
0.000000 0.904144 0.000000
0.191376 0.904144 0.000000
0.413422 0.904144 0.000000
0.648743 0.904144 0.000000
0.893066 0.904144 0.000000
0.000000 0.000000 0.261688
0.191376 0.000000 0.261688
0.413422 0.000000 0.261688
0.648743 0.000000 0.261688
0.893066 0.000000 0.261688
0.000000 0.229156 0.261688
0.191376 0.229156 0.261688
0.413422 0.229156 0.261688
0.648743 0.229156 0.261688
0.893066 0.229156 0.261688
0.000000 0.455170 0.261688
0.191376 0.455170 0.261688
0.413422 0.455170 0.261688
0.648743 0.455170 0.261688
0.893066 0.455170 0.261688
0.000000 0.680054 0.261688
0.191376 0.680054 0.261688
0.413422 0.680054 0.261688
0.648743 0.680054 0.261688
0.893066 0.680054 0.261688
0.000000 0.904144 0.261688
0.191376 0.904144 0.261688
0.413422 0.904144 0.261688
0.648743 0.904144 0.261688
0.893066 0.904144 0.261688
0.000000 0.000000 0.488617
0.191376 0.000000 0.488617
0.413422 0.000000 0.488617
0.648743 0.000000 0.488617
0.893066 0.000000 0.488617
0.000000 0.229156 0.488617
0.191376 0.229156 0.488617
0.413422 0.229156 0.488617
0.648743 0.229156 0.488617
0.893066 0.229156 0.488617
0.000000 0.455170 0.488617
0.191376 0.455170 0.488617
0.413422 0.455170 0.488617
0.648743 0.455170 0.488617
0.893066 0.455170 0.488617
0.000000 0.680054 0.488617
0.191376 0.680054 0.488617
0.413422 0.680054 0.488617
0.648743 0.680054 0.488617
0.893066 0.680054 0.488617
0.000000 0.904144 0.488617
0.191376 0.904144 0.488617
0.413422 0.904144 0.488617
0.648743 0.904144 0.488617
0.893066 0.904144 0.488617
0.000000 0.000000 0.704071
0.191376 0.000000 0.704071
0.413422 0.000000 0.704071
0.648743 0.000000 0.704071
0.893066 0.000000 0.704071
0.000000 0.229156 0.704071
0.191376 0.229156 0.704071
0.413422 0.229156 0.704071
0.648743 0.229156 0.704071
0.893066 0.229156 0.704071
0.000000 0.455170 0.704071
0.191376 0.455170 0.704071
0.413422 0.455170 0.704071
0.648743 0.455170 0.704071
0.893066 0.455170 0.704071
0.000000 0.680054 0.704071
0.191376 0.680054 0.704071
0.413422 0.680054 0.704071
0.648743 0.680054 0.704071
0.893066 0.680054 0.704071
0.000000 0.904144 0.704071
0.191376 0.904144 0.704071
0.413422 0.904144 0.704071
0.648743 0.904144 0.704071
0.893066 0.904144 0.704071
0.000000 0.000000 0.912384
0.191376 0.000000 0.912384
0.413422 0.000000 0.912384
0.648743 0.000000 0.912384
0.893066 0.000000 0.912384
0.000000 0.229156 0.912384
0.191376 0.229156 0.912384
0.413422 0.229156 0.912384
0.648743 0.229156 0.912384
0.893066 0.229156 0.912384
0.000000 0.455170 0.912384
0.191376 0.455170 0.912384
0.413422 0.455170 0.912384
0.648743 0.455170 0.912384
0.893066 0.455170 0.912384
0.000000 0.680054 0.912384
0.191376 0.680054 0.912384
0.413422 0.680054 0.912384
0.648743 0.680054 0.912384
0.893066 0.680054 0.912384
0.000000 0.904144 0.912384
0.191376 0.904144 0.912384
0.413422 0.904144 0.912384
0.648743 0.904144 0.912384
0.893066 0.904144 0.912384
