dist/luts/Industry - Battery solutions 1-Large.CUBE
#Created by: Adobe Photoshop Export Color Lookup Plugin
TITLE "Industry - Battery solutions 1-Large.psd"
#LUT size
LUT_3D_SIZE 5
#data domain
#LUT data points
DOMAIN_MIN 0.000000 0.000000 0.000000
DOMAIN_MAX 0.903226 0.903226 0.903226
0.000000 0.000000 0.000000
0.212219 0.000000 0.000000
0.436890 0.000000 0.000000
0.666534 0.000000 0.000000
0.899414 0.000000 0.000000
0.000000 0.222443 0.000000
0.212219 0.222443 0.000000
0.436890 0.222443 0.000000
0.666534 0.222443 0.000000
0.899414 0.222443 0.000000
0.000000 0.447998 0.000000
0.212219 0.447998 0.000000
0.436890 0.447998 0.000000
0.666534 0.447998 0.000000
0.899414 0.447998 0.000000
0.000000 0.674774 0.000000
0.212219 0.674774 0.000000
0.436890 0.674774 0.000000
0.666534 0.674774 0.000000
0.899414 0.674774 0.000000
0.000000 0.902313 0.000000
0.212219 0.902313 0.000000
0.436890 0.902313 0.000000
0.666534 0.902313 0.000000
0.899414 0.902313 0.000000
0.000000 0.000000 0.242371
0.212219 0.000000 0.242371
0.436890 0.000000 0.242371
0.666534 0.000000 0.242371
0.899414 0.000000 0.242371
0.000000 0.222443 0.242371
0.212219 0.222443 0.242371
0.436890 0.222443 0.242371
0.666534 0.222443 0.242371
0.899414 0.222443 0.242371
0.000000 0.447998 0.242371
0.212219 0.447998 0.242371
0.436890 0.447998 0.242371
0.666534 0.447998 0.242371
0.899414 0.447998 0.242371
0.000000 0.674774 0.242371
0.212219 0.674774 0.242371
0.436890 0.674774 0.242371
0.666534 0.674774 0.242371
0.899414 0.674774 0.242371
0.000000 0.902313 0.242371
0.212219 0.902313 0.242371
0.436890 0.902313 0.242371
0.666534 0.902313 0.242371
0.899414 0.902313 0.242371
0.000000 0.000000 0.469025
0.212219 0.000000 0.469025
0.436890 0.000000 0.469025
0.666534 0.000000 0.469025
0.899414 0.000000 0.469025
0.000000 0.222443 0.469025
0.212219 0.222443 0.469025
0.436890 0.222443 0.469025
0.666534 0.222443 0.469025
0.899414 0.222443 0.469025
0.000000 0.447998 0.469025
0.212219 0.447998 0.469025
0.436890 0.447998 0.469025
0.666534 0.447998 0.469025
0.899414 0.447998 0.469025
0.000000 0.674774 0.469025
0.212219 0.674774 0.469025
0.436890 0.674774 0.469025
0.666534 0.674774 0.469025
0.899414 0.674774 0.469025
0.000000 0.902313 0.469025
0.212219 0.902313 0.469025
0.436890 0.902313 0.469025
0.666534 0.902313 0.469025
0.899414 0.902313 0.469025
0.000000 0.000000 0.690094
0.212219 0.000000 0.690094
0.436890 0.000000 0.690094
0.666534 0.000000 0.690094
0.899414 0.000000 0.690094
0.000000 0.222443 0.690094
0.212219 0.222443 0.690094
0.436890 0.222443 0.690094
0.666534 0.222443 0.690094
0.899414 0.222443 0.690094
0.000000 0.447998 0.690094
0.212219 0.447998 0.690094
0.436890 0.447998 0.690094
0.666534 0.447998 0.690094
0.899414 0.447998 0.690094
0.000000 0.674774 0.690094
0.212219 0.674774 0.690094
0.436890 0.674774 0.690094
0.666534 0.674774 0.690094
0.899414 0.674774 0.690094
0.000000 0.902313 0.690094
0.212219 0.902313 0.690094
0.436890 0.902313 0.690094
0.666534 0.902313 0.690094
0.899414 0.902313 0.690094
0.000000 0.000000 0.907623
0.212219 0.000000 0.907623
0.436890 0.000000 0.907623
0.666534 0.000000 0.907623
0.899414 0.000000 0.907623
0.000000 0.222443 0.907623
0.212219 0.222443 0.907623
0.436890 0.222443 0.907623
0.666534 0.222443 0.907623
0.899414 0.222443 0.907623
0.000000 0.447998 0.907623
0.212219 0.447998 0.907623
0.436890 0.447998 0.907623
0.666534 0.447998 0.907623
0.899414 0.447998 0.907623
0.000000 0.674774 0.907623
0.212219 0.674774 0.907623
0.436890 0.674774 0.907623
0.666534 0.674774 0.907623
0.899414 0.674774 0.907623
0.000000 0.902313 0.907623
0.212219 0.902313 0.907623
0.436890 0.902313 0.907623
0.666534 0.902313 0.907623
0.899414 0.902313 0.907623
