dist/luts/Industry - Battery solutions 1-Large.CUBE
#Created by: Adobe Photoshop Export Color Lookup Plugin
TITLE "Industry - Battery solutions 1-Large.psd"
#LUT size
LUT_3D_SIZE 32
#data domain
DOMAIN_MIN 0.0 0.0 0.0
DOMAIN_MAX 1.0 1.0 1.0
#LUT data points
0.000000 0.000000 0.000000
0.027954 0.000000 0.000000
0.057556 0.000000 0.000000
0.087799 0.000000 0.000000
0.118469 0.000000 0.000000
0.149475 0.000000 0.000000
0.180725 0.000000 0.000000
0.212219 0.000000 0.000000
0.243896 0.000000 0.000000
0.275726 0.000000 0.000000
0.307709 0.000000 0.000000
0.339844 0.000000 0.000000
0.372070 0.000000 0.000000
0.404419 0.000000 0.000000
0.436890 0.000000 0.000000
0.469452 0.000000 0.000000
0.502106 0.000000 0.000000
0.534851 0.000000 0.000000
0.567657 0.000000 0.000000
0.600555 0.000000 0.000000
0.633514 0.000000 0.000000
0.666534 0.000000 0.000000
0.699615 0.000000 0.000000
0.732788 0.000000 0.000000
0.765991 0.000000 0.000000
0.799255 0.000000 0.000000
0.832581 0.000000 0.000000
0.865967 0.000000 0.000000
0.899414 0.000000 0.000000
0.932892 0.000000 0.000000
0.966431 0.000000 0.000000
1.000000 0.000000 0.000000
0.000000 0.031158 0.000000
0.027954 0.031158 0.000000
0.057556 0.031158 0.000000
0.087799 0.031158 0.000000
0.118469 0.031158 0.000000
0.149475 0.031158 0.000000
0.180725 0.031158 0.000000
0.212219 0.031158 0.000000
0.243896 0.031158 0.000000
0.275726 0.031158 0.000000
0.307709 0.031158 0.000000
0.339844 0.031158 0.000000
0.372070 0.031158 0.000000
0.404419 0.031158 0.000000
0.436890 0.031158 0.000000
0.469452 0.031158 0.000000
0.502106 0.031158 0.000000
0.534851 0.031158 0.000000
0.567657 0.031158 0.000000
0.600555 0.031158 0.000000
0.633514 0.031158 0.000000
0.666534 0.031158 0.000000
0.699615 0.031158 0.000000
0.732788 0.031158 0.000000
0.765991 0.031158 0.000000
0.799255 0.031158 0.000000
0.832581 0.031158 0.000000
0.865967 0.031158 0.000000
0.899414 0.031158 0.000000
0.932892 0.031158 0.000000
0.966431 0.031158 0.000000
1.000000 0.031158 0.000000
0.000000 0.062744 0.000000
0.027954 0.062744 0.000000
0.057556 0.062744 0.000000
0.087799 0.062744 0.000000
0.118469 0.062744 0.000000
0.149475 0.062744 0.000000
0.180725 0.062744 0.000000
0.212219 0.062744 0.000000
0.243896 0.062744 0.000000
0.275726 0.062744 0.000000
0.307709 0.062744 0.000000
0.339844 0.062744 0.000000
0.372070 0.062744 0.000000
0.404419 0.062744 0.000000
0.436890 0.062744 0.000000
0.469452 0.062744 0.000000
0.502106 0.062744 0.000000
0.534851 0.062744 0.000000
0.567657 0.062744 0.000000
0.600555 0.062744 0.000000
0.633514 0.062744 0.000000
0.666534 0.062744 0.000000
0.699615 0.062744 0.000000
0.732788 0.062744 0.000000
0.765991 0.062744 0.000000
0.799255 0.062744 0.000000
0.832581 0.062744 0.000000
0.865967 0.062744 0.000000
0.899414 0.062744 0.000000
0.932892 0.062744 0.000000
0.966431 0.062744 0.000000
1.000000 0.062744 0.000000
0.000000 0.094513 0.000000
0.027954 0.094513 0.000000
0.057556 0.094513 0.000000
0.087799 0.094513 0.000000
0.118469 0.094513 0.000000
0.149475 0.094513 0.000000
0.180725 0.094513 0.000000
0.212219 0.094513 0.000000
0.243896 0.094513 0.000000
0.275726 0.094513 0.000000
0.307709 0.094513 0.000000
0.339844 0.094513 0.000000
0.372070 0.094513 0.000000
0.404419 0.094513 0.000000
0.436890 0.094513 0.000000
0.469452 0.094513 0.000000
0.502106 0.094513 0.000000
0.534851 0.094513 0.000000
0.567657 0.094513 0.000000
0.600555 0.094513 0.000000
0.633514 0.094513 0.000000
0.666534 0.094513 0.000000
0.699615 0.094513 0.000000
0.732788 0.094513 0.000000
0.765991 0.094513 0.000000
0.799255 0.094513 0.000000
0.832581 0.094513 0.000000
0.865967 0.094513 0.000000
0.899414 0.094513 0.000000
0.932892 0.094513 0.000000
0.966431 0.094513 0.000000
1.000000 0.094513 0.000000
0.000000 0.126373 0.000000
0.027954 0.126373 0.000000
0.057556 0.126373 0.000000
0.087799 0.126373 0.000000
0.118469 0.126373 0.000000
0.149475 0.126373 0.000000
0.180725 0.126373 0.000000
0.212219 0.126373 0.000000
0.243896 0.126373 0.000000
0.275726 0.126373 0.000000
0.307709 0.126373 0.000000
0.339844 0.126373 0.000000
0.372070 0.126373 0.000000
0.404419 0.126373 0.000000
0.436890 0.126373 0.000000
0.469452 0.126373 0.000000
0.502106 0.126373 0.000000
0.534851 0.126373 0.000000
0.567657 0.126373 0.000000
0.600555 0.126373 0.000000
0.633514 0.126373 0.000000
0.666534 0.126373 0.000000
0.699615 0.126373 0.000000
0.732788 0.126373 0.000000
0.765991 0.126373 0.000000
0.799255 0.126373 0.000000
0.832581 0.126373 0.000000
0.865967 0.126373 0.000000
0.899414 0.126373 0.000000
0.932892 0.126373 0.000000
0.966431 0.126373 0.000000
1.000000 0.126373 0.000000
0.000000 0.158325 0.000000
0.027954 0.158325 0.000000
0.057556 0.158325 0.000000
0.087799 0.158325 0.000000
0.118469 0.158325 0.000000
0.149475 0.158325 0.000000
0.180725 0.158325 0.000000
0.212219 0.158325 0.000000
0.243896 0.158325 0.000000
0.275726 0.158325 0.000000
0.307709 0.158325 0.000000
0.339844 0.158325 0.000000
0.372070 0.158325 0.000000
0.404419 0.158325 0.000000
0.436890 0.158325 0.000000
0.469452 0.158325 0.000000
0.502106 0.158325 0.000000
0.534851 0.158325 0.000000
0.567657 0.158325 0.000000
0.600555 0.158325 0.000000
0.633514 0.158325 0.000000
0.666534 0.158325 0.000000
0.699615 0.158325 0.000000
0.732788 0.158325 0.000000
0.765991 0.158325 0.000000
0.799255 0.158325 0.000000
0.832581 0.158325 0.000000
0.865967 0.158325 0.000000
0.899414 0.158325 0.000000
0.932892 0.158325 0.000000
0.966431 0.158325 0.000000
1.000000 0.158325 0.000000
0.000000 0.190369 0.000000
0.027954 0.190369 0.000000
0.057556 0.190369 0.000000
0.087799 0.190369 0.000000
0.118469 0.190369 0.000000
0.149475 0.190369 0.000000
0.180725 0.190369 0.000000
0.212219 0.190369 0.000000
0.243896 0.190369 0.000000
0.275726 0.190369 0.000000
0.307709 0.190369 0.000000
0.339844 0.190369 0.000000
0.372070 0.190369 0.000000
0.404419 0.190369 0.000000
0.436890 0.190369 0.000000
0.469452 0.190369 0.000000
0.502106 0.190369 0.000000
0.534851 0.190369 0.000000
0.567657 0.190369 0.000000
0.600555 0.190369 0.000000
0.633514 0.190369 0.000000
0.666534 0.190369 0.000000
0.699615 0.190369 0.000000
0.732788 0.190369 0.000000
0.765991 0.190369 0.000000
0.799255 0.190369 0.000000
0.832581 0.190369 0.000000
0.865967 0.190369 0.000000
0.899414 0.190369 0.000000
0.932892 0.190369 0.000000
0.966431 0.190369 0.000000
1.000000 0.190369 0.000000
0.000000 0.222443 0.000000
0.027954 0.222443 0.000000
0.057556 0.222443 0.000000
0.087799 0.222443 0.000000
0.118469 0.222443 0.000000
0.149475 0.222443 0.000000
0.180725 0.222443 0.000000
0.212219 0.222443 0.000000
0.243896 0.222443 0.000000
0.275726 0.222443 0.000000
0.307709 0.222443 0.000000
0.339844 0.222443 0.000000
0.372070 0.222443 0.000000
0.404419 0.222443 0.000000
0.436890 0.222443 0.000000
0.469452 0.222443 0.000000
0.502106 0.222443 0.000000
0.534851 0.222443 0.000000
0.567657 0.222443 0.000000
0.600555 0.222443 0.000000
0.633514 0.222443 0.000000
0.666534 0.222443 0.000000
0.699615 0.222443 0.000000
0.732788 0.222443 0.000000
0.765991 0.222443 0.000000
0.799255 0.222443 0.000000
0.832581 0.222443 0.000000
0.865967 0.222443 0.000000
0.899414 0.222443 0.000000
0.932892 0.222443 0.000000
0.966431 0.222443 0.000000
1.000000 0.222443 0.000000
0.000000 0.254547 0.000000
0.027954 0.254547 0.000000
0.057556 0.254547 0.000000
0.087799 0.254547 0.000000
0.118469 0.254547 0.000000
0.149475 0.254547 0.000000
0.180725 0.254547 0.000000
0.212219 0.254547 0.000000
0.243896 0.254547 0.000000
0.275726 0.254547 0.000000
0.307709 0.254547 0.000000
0.339844 0.254547 0.000000
0.372070 0.254547 0.000000
0.404419 0.254547 0.000000
0.436890 0.254547 0.000000
0.469452 0.254547 0.000000
0.502106 0.254547 0.000000
0.534851 0.254547 0.000000
0.567657 0.254547 0.000000
0.600555 0.254547 0.000000
0.633514 0.254547 0.000000
0.666534 0.254547 0.000000
0.699615 0.254547 0.000000
0.732788 0.254547 0.000000
0.765991 0.254547 0.000000
0.799255 0.254547 0.000000
0.832581 0.254547 0.000000
0.865967 0.254547 0.000000
0.899414 0.254547 0.000000
0.932892 0.254547 0.000000
0.966431 0.254547 0.000000
1.000000 0.254547 0.000000
0.000000 0.286713 0.000000
0.027954 0.286713 0.000000
0.057556 0.286713 0.000000
0.087799 0.286713 0.000000
0.118469 0.286713 0.000000
0.149475 0.286713 0.000000
0.180725 0.286713 0.000000
0.212219 0.286713 0.000000
0.243896 0.286713 0.000000
0.275726 0.286713 0.000000
0.307709 0.286713 0.000000
0.339844 0.286713 0.000000
0.372070 0.286713 0.000000
0.404419 0.286713 0.000000
0.436890 0.286713 0.000000
0.469452 0.286713 0.000000
0.502106 0.286713 0.000000
0.534851 0.286713 0.000000
0.567657 0.286713 0.000000
0.600555 0.286713 0.000000
0.633514 0.286713 0.000000
0.666534 0.286713 0.000000
0.699615 0.286713 0.000000
0.732788 0.286713 0.000000
0.765991 0.286713 0.000000
0.799255 0.286713 0.000000
0.832581 0.286713 0.000000
0.865967 0.286713 0.000000
0.899414 0.286713 0.000000
0.932892 0.286713 0.000000
0.966431 0.286713 0.000000
1.000000 0.286713 0.000000
0.000000 0.318909 0.000000
0.027954 0.318909 0.000000
0.057556 0.318909 0.000000
0.087799 0.318909 0.000000
0.118469 0.318909 0.000000
0.149475 0.318909 0.000000
0.180725 0.318909 0.000000
0.212219 0.318909 0.000000
0.243896 0.318909 0.000000
0.275726 0.318909 0.000000
0.307709 0.318909 0.000000
0.339844 0.318909 0.000000
0.372070 0.318909 0.000000
0.404419 0.318909 0.000000
0.436890 0.318909 0.000000
0.469452 0.318909 0.000000
0.502106 0.318909 0.000000
0.534851 0.318909 0.000000
0.567657 0.318909 0.000000
0.600555 0.318909 0.000000
0.633514 0.318909 0.000000
0.666534 0.318909 0.000000
0.699615 0.318909 0.000000
0.732788 0.318909 0.000000
0.765991 0.318909 0.000000
0.799255 0.318909 0.000000
0.832581 0.318909 0.000000
0.865967 0.318909 0.000000
0.899414 0.318909 0.000000
0.932892 0.318909 0.000000
0.966431 0.318909 0.000000
1.000000 0.318909 0.000000
0.000000 0.351135 0.000000
0.027954 0.351135 0.000000
0.057556 0.351135 0.000000
0.087799 0.351135 0.000000
0.118469 0.351135 0.000000
0.149475 0.351135 0.000000
0.180725 0.351135 0.000000
0.212219 0.351135 0.000000
0.243896 0.351135 0.000000
0.275726 0.351135 0.000000
0.307709 0.351135 0.000000
0.339844 0.351135 0.000000
0.372070 0.351135 0.000000
0.404419 0.351135 0.000000
0.436890 0.351135 0.000000
0.469452 0.351135 0.000000
0.502106 0.351135 0.000000
0.534851 0.351135 0.000000
0.567657 0.351135 0.000000
0.600555 0.351135 0.000000
0.633514 0.351135 0.000000
0.666534 0.351135 0.000000
0.699615 0.351135 0.000000
0.732788 0.351135 0.000000
0.765991 0.351135 0.000000
0.799255 0.351135 0.000000
0.832581 0.351135 0.000000
0.865967 0.351135 0.000000
0.899414 0.351135 0.000000
0.932892 0.351135 0.000000
0.966431 0.351135 0.000000
1.000000 0.351135 0.000000
0.000000 0.383392 0.000000
0.027954 0.383392 0.000000
0.057556 0.383392 0.000000
0.087799 0.383392 0.000000
0.118469 0.383392 0.000000
0.149475 0.383392 0.000000
0.180725 0.383392 0.000000
0.212219 0.383392 0.000000
0.243896 0.383392 0.000000
0.275726 0.383392 0.000000
0.307709 0.383392 0.000000
0.339844 0.383392 0.000000
0.372070 0.383392 0.000000
0.404419 0.383392 0.000000
0.436890 0.383392 0.000000
0.469452 0.383392 0.000000
0.502106 0.383392 0.000000
0.534851 0.383392 0.000000
0.567657 0.383392 0.000000
0.600555 0.383392 0.000000
0.633514 0.383392 0.000000
0.666534 0.383392 0.000000
0.699615 0.383392 0.000000
0.732788 0.383392 0.000000
0.765991 0.383392 0.000000
0.799255 0.383392 0.000000
0.832581 0.383392 0.000000
0.865967 0.383392 0.000000
0.899414 0.383392 0.000000
0.932892 0.383392 0.000000
0.966431 0.383392 0.000000
1.000000 0.383392 0.000000
0.000000 0.415680 0.000000
0.027954 0.415680 0.000000
0.057556 0.415680 0.000000
0.087799 0.415680 0.000000
0.118469 0.415680 0.000000
0.149475 0.415680 0.000000
0.180725 0.415680 0.000000
0.212219 0.415680 0.000000
0.243896 0.415680 0.000000
0.275726 0.415680 0.000000
0.307709 0.415680 0.000000
0.339844 0.415680 0.000000
0.372070 0.415680 0.000000
0.404419 0.415680 0.000000
0.436890 0.415680 0.000000
0.469452 0.415680 0.000000
0.502106 0.415680 0.000000
0.534851 0.415680 0.000000
0.567657 0.415680 0.000000
0.600555 0.415680 0.000000
0.633514 0.415680 0.000000
0.666534 0.415680 0.000000
0.699615 0.415680 0.000000
0.732788 0.415680 0.000000
0.765991 0.415680 0.000000
0.799255 0.415680 0.000000
0.832581 0.415680 0.000000
0.865967 0.415680 0.000000
0.899414 0.415680 0.000000
0.932892 0.415680 0.000000
0.966431 0.415680 0.000000
1.000000 0.415680 0.000000
0.000000 0.447998 0.000000
0.027954 0.447998 0.000000
0.057556 0.447998 0.000000
0.087799 0.447998 0.000000
0.118469 0.447998 0.000000
0.149475 0.447998 0.000000
0.180725 0.447998 0.000000
0.212219 0.447998 0.000000
0.243896 0.447998 0.000000
0.275726 0.447998 0.000000
0.307709 0.447998 0.000000
0.339844 0.447998 0.000000
0.372070 0.447998 0.000000
0.404419 0.447998 0.000000
0.436890 0.447998 0.000000
0.469452 0.447998 0.000000
0.502106 0.447998 0.000000
0.534851 0.447998 0.000000
0.567657 0.447998 0.000000
0.600555 0.447998 0.000000
0.633514 0.447998 0.000000
0.666534 0.447998 0.000000
0.699615 0.447998 0.000000
0.732788 0.447998 0.000000
0.765991 0.447998 0.000000
0.799255 0.447998 0.000000
0.832581 0.447998 0.000000
0.865967 0.447998 0.000000
0.899414 0.447998 0.000000
0.932892 0.447998 0.000000
0.966431 0.447998 0.000000
1.000000 0.447998 0.000000
0.000000 0.480316 0.000000
0.027954 0.480316 0.000000
0.057556 0.480316 0.000000
0.087799 0.480316 0.000000
0.118469 0.480316 0.000000
0.149475 0.480316 0.000000
0.180725 0.480316 0.000000
0.212219 0.480316 0.000000
0.243896 0.480316 0.000000
0.275726 0.480316 0.000000
0.307709 0.480316 0.000000
0.339844 0.480316 0.000000
0.372070 0.480316 0.000000
0.404419 0.480316 0.000000
0.436890 0.480316 0.000000
0.469452 0.480316 0.000000
0.502106 0.480316 0.000000
0.534851 0.480316 0.000000
0.567657 0.480316 0.000000
0.600555 0.480316 0.000000
0.633514 0.480316 0.000000
0.666534 0.480316 0.000000
0.699615 0.480316 0.000000
0.732788 0.480316 0.000000
0.765991 0.480316 0.000000
0.799255 0.480316 0.000000
0.832581 0.480316 0.000000
0.865967 0.480316 0.000000
0.899414 0.480316 0.000000
0.932892 0.480316 0.000000
0.966431 0.480316 0.000000
1.000000 0.480316 0.000000
0.000000 0.512695 0.000000
0.027954 0.512695 0.000000
0.057556 0.512695 0.000000
0.087799 0.512695 0.000000
0.118469 0.512695 0.000000
0.149475 0.512695 0.000000
0.180725 0.512695 0.000000
0.212219 0.512695 0.000000
0.243896 0.512695 0.000000
0.275726 0.512695 0.000000
0.307709 0.512695 0.000000
0.339844 0.512695 0.000000
0.372070 0.512695 0.000000
0.404419 0.512695 0.000000
0.436890 0.512695 0.000000
0.469452 0.512695 0.000000
0.502106 0.512695 0.000000
0.534851 0.512695 0.000000
0.567657 0.512695 0.000000
0.600555 0.512695 0.000000
0.633514 0.512695 0.000000
0.666534 0.512695 0.000000
0.699615 0.512695 0.000000
0.732788 0.512695 0.000000
0.765991 0.512695 0.000000
0.799255 0.512695 0.000000
0.832581 0.512695 0.000000
0.865967 0.512695 0.000000
0.899414 0.512695 0.000000
0.932892 0.512695 0.000000
0.966431 0.512695 0.000000
1.000000 0.512695 0.000000
0.000000 0.545074 0.000000
0.027954 0.545074 0.000000
0.057556 0.545074 0.000000
0.087799 0.545074 0.000000
0.118469 0.545074 0.000000
0.149475 0.545074 0.000000
0.180725 0.545074 0.000000
0.212219 0.545074 0.000000
0.243896 0.545074 0.000000
0.275726 0.545074 0.000000
0.307709 0.545074 0.000000
0.339844 0.545074 0.000000
0.372070 0.545074 0.000000
0.404419 0.545074 0.000000
0.436890 0.545074 0.000000
0.469452 0.545074 0.000000
0.502106 0.545074 0.000000
0.534851 0.545074 0.000000
0.567657 0.545074 0.000000
0.600555 0.545074 0.000000
0.633514 0.545074 0.000000
0.666534 0.545074 0.000000
0.699615 0.545074 0.000000
0.732788 0.545074 0.000000
0.765991 0.545074 0.000000
0.799255 0.545074 0.000000
0.832581 0.545074 0.000000
0.865967 0.545074 0.000000
0.899414 0.545074 0.000000
0.932892 0.545074 0.000000
0.966431 0.545074 0.000000
1.000000 0.545074 0.000000
0.000000 0.577484 0.000000
0.027954 0.577484 0.000000
0.057556 0.577484 0.000000
0.087799 0.577484 0.000000
0.118469 0.577484 0.000000
0.149475 0.577484 0.000000
0.180725 0.577484 0.000000
0.212219 0.577484 0.000000
0.243896 0.577484 0.000000
0.275726 0.577484 0.000000
0.307709 0.577484 0.000000
0.339844 0.577484 0.000000
0.372070 0.577484 0.000000
0.404419 0.577484 0.000000
0.436890 0.577484 0.000000
0.469452 0.577484 0.000000
0.502106 0.577484 0.000000
0.534851 0.577484 0.000000
0.567657 0.577484 0.000000
0.600555 0.577484 0.000000
0.633514 0.577484 0.000000
0.666534 0.577484 0.000000
0.699615 0.577484 0.000000
0.732788 0.577484 0.000000
0.765991 0.577484 0.000000
0.799255 0.577484 0.000000
0.832581 0.577484 0.000000
0.865967 0.577484 0.000000
0.899414 0.577484 0.000000
0.932892 0.577484 0.000000
0.966431 0.577484 0.000000
1.000000 0.577484 0.000000
0.000000 0.609894 0.000000
0.027954 0.609894 0.000000
0.057556 0.609894 0.000000
0.087799 0.609894 0.000000
0.118469 0.609894 0.000000
0.149475 0.609894 0.000000
0.180725 0.609894 0.000000
0.212219 0.609894 0.000000
0.243896 0.609894 0.000000
0.275726 0.609894 0.000000
0.307709 0.609894 0.000000
0.339844 0.609894 0.000000
0.372070 0.609894 0.000000
0.404419 0.609894 0.000000
0.436890 0.609894 0.000000
0.469452 0.609894 0.000000
0.502106 0.609894 0.000000
0.534851 0.609894 0.000000
0.567657 0.609894 0.000000
0.600555 0.609894 0.000000
0.633514 0.609894 0.000000
0.666534 0.609894 0.000000
0.699615 0.609894 0.000000
0.732788 0.609894 0.000000
0.765991 0.609894 0.000000
0.799255 0.609894 0.000000
0.832581 0.609894 0.000000
0.865967 0.609894 0.000000
0.899414 0.609894 0.000000
0.932892 0.609894 0.000000
0.966431 0.609894 0.000000
1.000000 0.609894 0.000000
0.000000 0.642334 0.000000
0.027954 0.642334 0.000000
0.057556 0.642334 0.000000
0.087799 0.642334 0.000000
0.118469 0.642334 0.000000
0.149475 0.642334 0.000000
0.180725 0.642334 0.000000
0.212219 0.642334 0.000000
0.243896 0.642334 0.000000
0.275726 0.642334 0.000000
0.307709 0.642334 0.000000
0.339844 0.642334 0.000000
0.372070 0.642334 0.000000
0.404419 0.642334 0.000000
0.436890 0.642334 0.000000
0.469452 0.642334 0.000000
0.502106 0.642334 0.000000
0.534851 0.642334 0.000000
0.567657 0.642334 0.000000
0.600555 0.642334 0.000000
0.633514 0.642334 0.000000
0.666534 0.642334 0.000000
0.699615 0.642334 0.000000
0.732788 0.642334 0.000000
0.765991 0.642334 0.000000
0.799255 0.642334 0.000000
0.832581 0.642334 0.000000
0.865967 0.642334 0.000000
0.899414 0.642334 0.000000
0.932892 0.642334 0.000000
0.966431 0.642334 0.000000
1.000000 0.642334 0.000000
0.000000 0.674774 0.000000
0.027954 0.674774 0.000000
0.057556 0.674774 0.000000
0.087799 0.674774 0.000000
0.118469 0.674774 0.000000
0.149475 0.674774 0.000000
0.180725 0.674774 0.000000
0.212219 0.674774 0.000000
0.243896 0.674774 0.000000
0.275726 0.674774 0.000000
0.307709 0.674774 0.000000
0.339844 0.674774 0.000000
0.372070 0.674774 0.000000
0.404419 0.674774 0.000000
0.436890 0.674774 0.000000
0.469452 0.674774 0.000000
0.502106 0.674774 0.000000
0.534851 0.674774 0.000000
0.567657 0.674774 0.000000
0.600555 0.674774 0.000000
0.633514 0.674774 0.000000
0.666534 0.674774 0.000000
0.699615 0.674774 0.000000
0.732788 0.674774 0.000000
0.765991 0.674774 0.000000
0.799255 0.674774 0.000000
0.832581 0.674774 0.000000
0.865967 0.674774 0.000000
0.899414 0.674774 0.000000
0.932892 0.674774 0.000000
0.966431 0.674774 0.000000
1.000000 0.674774 0.000000
0.000000 0.707245 0.000000
0.027954 0.707245 0.000000
0.057556 0.707245 0.000000
0.087799 0.707245 0.000000
0.118469 0.707245 0.000000
0.149475 0.707245 0.000000
0.180725 0.707245 0.000000
0.212219 0.707245 0.000000
0.243896 0.707245 0.000000
0.275726 0.707245 0.000000
0.307709 0.707245 0.000000
0.339844 0.707245 0.000000
0.372070 0.707245 0.000000
0.404419 0.707245 0.000000
0.436890 0.707245 0.000000
0.469452 0.707245 0.000000
0.502106 0.707245 0.000000
0.534851 0.707245 0.000000
0.567657 0.707245 0.000000
0.600555 0.707245 0.000000
0.633514 0.707245 0.000000
0.666534 0.707245 0.000000
0.699615 0.707245 0.000000
0.732788 0.707245 0.000000
0.765991 0.707245 0.000000
0.799255 0.707245 0.000000
0.832581 0.707245 0.000000
0.865967 0.707245 0.000000
0.899414 0.707245 0.000000
0.932892 0.707245 0.000000
0.966431 0.707245 0.000000
1.000000 0.707245 0.000000
0.000000 0.739716 0.000000
0.027954 0.739716 0.000000
0.057556 0.739716 0.000000
0.087799 0.739716 0.000000
0.118469 0.739716 0.000000
0.149475 0.739716 0.000000
0.180725 0.739716 0.000000
0.212219 0.739716 0.000000
0.243896 0.739716 0.000000
0.275726 0.739716 0.000000
0.307709 0.739716 0.000000
0.339844 0.739716 0.000000
0.372070 0.739716 0.000000
0.404419 0.739716 0.000000
0.436890 0.739716 0.000000
0.469452 0.739716 0.000000
0.502106 0.739716 0.000000
0.534851 0.739716 0.000000
0.567657 0.739716 0.000000
0.600555 0.739716 0.000000
0.633514 0.739716 0.000000
0.666534 0.739716 0.000000
0.699615 0.739716 0.000000
0.732788 0.739716 0.000000
0.765991 0.739716 0.000000
0.799255 0.739716 0.000000
0.832581 0.739716 0.000000
0.865967 0.739716 0.000000
0.899414 0.739716 0.000000
0.932892 0.739716 0.000000
0.966431 0.739716 0.000000
1.000000 0.739716 0.000000
0.000000 0.772186 0.000000
0.027954 0.772186 0.000000
0.057556 0.772186 0.000000
0.087799 0.772186 0.000000
0.118469 0.772186 0.000000
0.149475 0.772186 0.000000
0.180725 0.772186 0.000000
0.212219 0.772186 0.000000
0.243896 0.772186 0.000000
0.275726 0.772186 0.000000
0.307709 0.772186 0.000000
0.339844 0.772186 0.000000
0.372070 0.772186 0.000000
0.404419 0.772186 0.000000
0.436890 0.772186 0.000000
0.469452 0.772186 0.000000
0.502106 0.772186 0.000000
0.534851 0.772186 0.000000
0.567657 0.772186 0.000000
0.600555 0.772186 0.000000
0.633514 0.772186 0.000000
0.666534 0.772186 0.000000
0.699615 0.772186 0.000000
0.732788 0.772186 0.000000
0.765991 0.772186 0.000000
0.799255 0.772186 0.000000
0.832581 0.772186 0.000000
0.865967 0.772186 0.000000
0.899414 0.772186 0.000000
0.932892 0.772186 0.000000
0.966431 0.772186 0.000000
1.000000 0.772186 0.000000
0.000000 0.804718 0.000000
0.027954 0.804718 0.000000
0.057556 0.804718 0.000000
0.087799 0.804718 0.000000
0.118469 0.804718 0.000000
0.149475 0.804718 0.000000
0.180725 0.804718 0.000000
0.212219 0.804718 0.000000
0.243896 0.804718 0.000000
0.275726 0.804718 0.000000
0.307709 0.804718 0.000000
0.339844 0.804718 0.000000
0.372070 0.804718 0.000000
0.404419 0.804718 0.000000
0.436890 0.804718 0.000000
0.469452 0.804718 0.000000
0.502106 0.804718 0.000000
0.534851 0.804718 0.000000
0.567657 0.804718 0.000000
0.600555 0.804718 0.000000
0.633514 0.804718 0.000000
0.666534 0.804718 0.000000
0.699615 0.804718 0.000000
0.732788 0.804718 0.000000
0.765991 0.804718 0.000000
0.799255 0.804718 0.000000
0.832581 0.804718 0.000000
0.865967 0.804718 0.000000
0.899414 0.804718 0.000000
0.932892 0.804718 0.000000
0.966431 0.804718 0.000000
1.000000 0.804718 0.000000
0.000000 0.837219 0.000000
0.027954 0.837219 0.000000
0.057556 0.837219 0.000000
0.087799 0.837219 0.000000
0.118469 0.837219 0.000000
0.149475 0.837219 0.000000
0.180725 0.837219 0.000000
0.212219 0.837219 0.000000
0.243896 0.837219 0.000000
0.275726 0.837219 0.000000
0.307709 0.837219 0.000000
0.339844 0.837219 0.000000
0.372070 0.837219 0.000000
0.404419 0.837219 0.000000
0.436890 0.837219 0.000000
0.469452 0.837219 0.000000
0.502106 0.837219 0.000000
0.534851 0.837219 0.000000
0.567657 0.837219 0.000000
0.600555 0.837219 0.000000
0.633514 0.837219 0.000000
0.666534 0.837219 0.000000
0.699615 0.837219 0.000000
0.732788 0.837219 0.000000
0.765991 0.837219 0.000000
0.799255 0.837219 0.000000
0.832581 0.837219 0.000000
0.865967 0.837219 0.000000
0.899414 0.837219 0.000000
0.932892 0.837219 0.000000
0.966431 0.837219 0.000000
1.000000 0.837219 0.000000
0.000000 0.869751 0.000000
0.027954 0.869751 0.000000
0.057556 0.869751 0.000000
0.087799 0.869751 0.000000
0.118469 0.869751 0.000000
0.149475 0.869751 0.000000
0.180725 0.869751 0.000000
0.212219 0.869751 0.000000
0.243896 0.869751 0.000000
0.275726 0.869751 0.000000
0.307709 0.869751 0.000000
0.339844 0.869751 0.000000
0.372070 0.869751 0.000000
0.404419 0.869751 0.000000
0.436890 0.869751 0.000000
0.469452 0.869751 0.000000
0.502106 0.869751 0.000000
