dist/luts/Industry - Metals 3-Large 2.CUBE
#Created by: Adobe Photoshop Export Color Lookup Plugin
TITLE "Industry - Metals 3-Large 2.psd"
#LUT size
LUT_3D_SIZE 8
#data domain
#LUT data points
DOMAIN_MIN 0.000000 0.000000 0.000000
DOMAIN_MAX 0.903226 0.903226 0.903226
0.000000 0.000000 0.000000
0.079803 0.000000 0.000000
0.187805 0.000000 0.000000
0.309814 0.000000 0.000000
0.441986 0.000000 0.000000
0.582153 0.000000 0.000000
0.729095 0.000000 0.000000
0.881927 0.000000 0.000000
0.000000 0.126373 0.000000
0.079803 0.126373 0.000000
0.187805 0.126373 0.000000
0.309814 0.126373 0.000000
0.441986 0.126373 0.000000
0.582153 0.126373 0.000000
0.729095 0.126373 0.000000
0.881927 0.126373 0.000000
0.000000 0.254547 0.000000
0.079803 0.254547 0.000000
0.187805 0.254547 0.000000
0.309814 0.254547 0.000000
0.441986 0.254547 0.000000
0.582153 0.254547 0.000000
0.729095 0.254547 0.000000
0.881927 0.254547 0.000000
0.000000 0.383392 0.000000
0.079803 0.383392 0.000000
0.187805 0.383392 0.000000
0.309814 0.383392 0.000000
0.441986 0.383392 0.000000
0.582153 0.383392 0.000000
0.729095 0.383392 0.000000
0.881927 0.383392 0.000000
0.000000 0.512695 0.000000
0.079803 0.512695 0.000000
0.187805 0.512695 0.000000
0.309814 0.512695 0.000000
0.441986 0.512695 0.000000
0.582153 0.512695 0.000000
0.729095 0.512695 0.000000
0.881927 0.512695 0.000000
0.000000 0.642334 0.000000
0.079803 0.642334 0.000000
0.187805 0.642334 0.000000
0.309814 0.642334 0.000000
0.441986 0.642334 0.000000
0.582153 0.642334 0.000000
0.729095 0.642334 0.000000
0.881927 0.642334 0.000000
0.000000 0.772186 0.000000
0.079803 0.772186 0.000000
0.187805 0.772186 0.000000
0.309814 0.772186 0.000000
0.441986 0.772186 0.000000
0.582153 0.772186 0.000000
0.729095 0.772186 0.000000
0.881927 0.772186 0.000000
0.000000 0.902313 0.000000
0.079803 0.902313 0.000000
0.187805 0.902313 0.000000
0.309814 0.902313 0.000000
0.441986 0.902313 0.000000
0.582153 0.902313 0.000000
0.729095 0.902313 0.000000
0.881927 0.902313 0.000000
0.000000 0.000000 0.191803
0.079803 0.000000 0.191803
0.187805 0.000000 0.191803
0.309814 0.000000 0.191803
0.441986 0.000000 0.191803
0.582153 0.000000 0.191803
0.729095 0.000000 0.191803
0.881927 0.000000 0.191803
0.000000 0.126373 0.191803
0.079803 0.126373 0.191803
0.187805 0.126373 0.191803
0.309814 0.126373 0.191803
0.441986 0.126373 0.191803
0.582153 0.126373 0.191803
0.729095 0.126373 0.191803
0.881927 0.126373 0.191803
0.000000 0.254547 0.191803
0.079803 0.254547 0.191803
0.187805 0.254547 0.191803
0.309814 0.254547 0.191803
0.441986 0.254547 0.191803
0.582153 0.254547 0.191803
0.729095 0.254547 0.191803
0.881927 0.254547 0.191803
0.000000 0.383392 0.191803
0.079803 0.383392 0.191803
0.187805 0.383392 0.191803
0.309814 0.383392 0.191803
0.441986 0.383392 0.191803
0.582153 0.383392 0.191803
0.729095 0.383392 0.191803
0.881927 0.383392 0.191803
0.000000 0.512695 0.191803
0.079803 0.512695 0.191803
0.187805 0.512695 0.191803
0.309814 0.512695 0.191803
0.441986 0.512695 0.191803
0.582153 0.512695 0.191803
0.729095 0.512695 0.191803
0.881927 0.512695 0.191803
0.000000 0.642334 0.191803
0.079803 0.642334 0.191803
0.187805 0.642334 0.191803
0.309814 0.642334 0.191803
0.441986 0.642334 0.191803
0.582153 0.642334 0.191803
0.729095 0.642334 0.191803
0.881927 0.642334 0.191803
0.000000 0.772186 0.191803
0.079803 0.772186 0.191803
0.187805 0.772186 0.191803
0.309814 0.772186 0.191803
0.441986 0.772186 0.191803
0.582153 0.772186 0.191803
0.729095 0.772186 0.191803
0.881927 0.772186 0.191803
0.000000 0.902313 0.191803
0.079803 0.902313 0.191803
0.187805 0.902313 0.191803
0.309814 0.902313 0.191803
0.441986 0.902313 0.191803
0.582153 0.902313 0.191803
0.729095 0.902313 0.191803
0.881927 0.902313 0.191803
0.000000 0.000000 0.335419
0.079803 0.000000 0.335419
0.187805 0.000000 0.335419
0.309814 0.000000 0.335419
0.441986 0.000000 0.335419
0.582153 0.000000 0.335419
0.729095 0.000000 0.335419
0.881927 0.000000 0.335419
0.000000 0.126373 0.335419
0.079803 0.126373 0.335419
0.187805 0.126373 0.335419
0.309814 0.126373 0.335419
0.441986 0.126373 0.335419
0.582153 0.126373 0.335419
0.729095 0.126373 0.335419
0.881927 0.126373 0.335419
0.000000 0.254547 0.335419
0.079803 0.254547 0.335419
0.187805 0.254547 0.335419
0.309814 0.254547 0.335419
0.441986 0.254547 0.335419
0.582153 0.254547 0.335419
0.729095 0.254547 0.335419
0.881927 0.254547 0.335419
0.000000 0.383392 0.335419
0.079803 0.383392 0.335419
0.187805 0.383392 0.335419
0.309814 0.383392 0.335419
0.441986 0.383392 0.335419
0.582153 0.383392 0.335419
0.729095 0.383392 0.335419
0.881927 0.383392 0.335419
0.000000 0.512695 0.335419
0.079803 0.512695 0.335419
0.187805 0.512695 0.335419
0.309814 0.512695 0.335419
0.441986 0.512695 0.335419
0.582153 0.512695 0.335419
0.729095 0.512695 0.335419
0.881927 0.512695 0.335419
0.000000 0.642334 0.335419
0.079803 0.642334 0.335419
0.187805 0.642334 0.335419
0.309814 0.642334 0.335419
0.441986 0.642334 0.335419
0.582153 0.642334 0.335419
0.729095 0.642334 0.335419
0.881927 0.642334 0.335419
0.000000 0.772186 0.335419
0.079803 0.772186 0.335419
0.187805 0.772186 0.335419
0.309814 0.772186 0.335419
0.441986 0.772186 0.335419
0.582153 0.772186 0.335419
0.729095 0.772186 0.335419
0.881927 0.772186 0.335419
0.000000 0.902313 0.335419
0.079803 0.902313 0.335419
0.187805 0.902313 0.335419
0.309814 0.902313 0.335419
0.441986 0.902313 0.335419
0.582153 0.902313 0.335419
0.729095 0.902313 0.335419
0.881927 0.902313 0.335419
0.000000 0.000000 0.465149
0.079803 0.000000 0.465149
0.187805 0.000000 0.465149
0.309814 0.000000 0.465149
0.441986 0.000000 0.465149
0.582153 0.000000 0.465149
0.729095 0.000000 0.465149
0.881927 0.000000 0.465149
0.000000 0.126373 0.465149
0.079803 0.126373 0.465149
0.187805 0.126373 0.465149
0.309814 0.126373 0.465149
0.441986 0.126373 0.465149
0.582153 0.126373 0.465149
0.729095 0.126373 0.465149
0.881927 0.126373 0.465149
0.000000 0.254547 0.465149
0.079803 0.254547 0.465149
0.187805 0.254547 0.465149
0.309814 0.254547 0.465149
0.441986 0.254547 0.465149
0.582153 0.254547 0.465149
0.729095 0.254547 0.465149
0.881927 0.254547 0.465149
0.000000 0.383392 0.465149
0.079803 0.383392 0.465149
0.187805 0.383392 0.465149
0.309814 0.383392 0.465149
0.441986 0.383392 0.465149
0.582153 0.383392 0.465149
0.729095 0.383392 0.465149
0.881927 0.383392 0.465149
0.000000 0.512695 0.465149
0.079803 0.512695 0.465149
0.187805 0.512695 0.465149
0.309814 0.512695 0.465149
0.441986 0.512695 0.465149
0.582153 0.512695 0.465149
0.729095 0.512695 0.465149
0.881927 0.512695 0.465149
0.000000 0.642334 0.465149
0.079803 0.642334 0.465149
0.187805 0.642334 0.465149
0.309814 0.642334 0.465149
0.441986 0.642334 0.465149
0.582153 0.642334 0.465149
0.729095 0.642334 0.465149
0.881927 0.642334 0.465149
0.000000 0.772186 0.465149
0.079803 0.772186 0.465149
0.187805 0.772186 0.465149
0.309814 0.772186 0.465149
0.441986 0.772186 0.465149
0.582153 0.772186 0.465149
0.729095 0.772186 0.465149
0.881927 0.772186 0.465149
0.000000 0.902313 0.465149
0.079803 0.902313 0.465149
0.187805 0.902313 0.465149
0.309814 0.902313 0.465149
0.441986 0.902313 0.465149
0.582153 0.902313 0.465149
0.729095 0.902313 0.465149
0.881927 0.902313 0.465149
0.000000 0.000000 0.586639
0.079803 0.000000 0.586639
0.187805 0.000000 0.586639
0.309814 0.000000 0.586639
0.441986 0.000000 0.586639
0.582153 0.000000 0.586639
0.729095 0.000000 0.586639
0.881927 0.000000 0.586639
0.000000 0.126373 0.586639
0.079803 0.126373 0.586639
0.187805 0.126373 0.586639
0.309814 0.126373 0.586639
0.441986 0.126373 0.586639
0.582153 0.126373 0.586639
0.729095 0.126373 0.586639
0.881927 0.126373 0.586639
0.000000 0.254547 0.586639
0.079803 0.254547 0.586639
0.187805 0.254547 0.586639
0.309814 0.254547 0.586639
0.441986 0.254547 0.586639
0.582153 0.254547 0.586639
0.729095 0.254547 0.586639
0.881927 0.254547 0.586639
0.000000 0.383392 0.586639
0.079803 0.383392 0.586639
0.187805 0.383392 0.586639
0.309814 0.383392 0.586639
0.441986 0.383392 0.586639
0.582153 0.383392 0.586639
0.729095 0.383392 0.586639
0.881927 0.383392 0.586639
0.000000 0.512695 0.586639
0.079803 0.512695 0.586639
0.187805 0.512695 0.586639
0.309814 0.512695 0.586639
0.441986 0.512695 0.586639
0.582153 0.512695 0.586639
0.729095 0.512695 0.586639
0.881927 0.512695 0.586639
0.000000 0.642334 0.586639
0.079803 0.642334 0.586639
0.187805 0.642334 0.586639
0.309814 0.642334 0.586639
0.441986 0.642334 0.586639
0.582153 0.642334 0.586639
0.729095 0.642334 0.586639
0.881927 0.642334 0.586639
0.000000 0.772186 0.586639
0.079803 0.772186 0.586639
0.187805 0.772186 0.586639
0.309814 0.772186 0.586639
0.441986 0.772186 0.586639
0.582153 0.772186 0.586639
0.729095 0.772186 0.586639
0.881927 0.772186 0.586639
0.000000 0.902313 0.586639
0.079803 0.902313 0.586639
0.187805 0.902313 0.586639
0.309814 0.902313 0.586639
0.441986 0.902313 0.586639
0.582153 0.902313 0.586639
0.729095 0.902313 0.586639
0.881927 0.902313 0.586639
0.000000 0.000000 0.702271
0.079803 0.000000 0.702271
0.187805 0.000000 0.702271
0.309814 0.000000 0.702271
0.441986 0.000000 0.702271
0.582153 0.000000 0.702271
0.729095 0.000000 0.702271
0.881927 0.000000 0.702271
0.000000 0.126373 0.702271
0.079803 0.126373 0.702271
0.187805 0.126373 0.702271
0.309814 0.126373 0.702271
0.441986 0.126373 0.702271
0.582153 0.126373 0.702271
0.729095 0.126373 0.702271
0.881927 0.126373 0.702271
0.000000 0.254547 0.702271
0.079803 0.254547 0.702271
0.187805 0.254547 0.702271
0.309814 0.254547 0.702271
0.441986 0.254547 0.702271
0.582153 0.254547 0.702271
0.729095 0.254547 0.702271
0.881927 0.254547 0.702271
0.000000 0.383392 0.702271
0.079803 0.383392 0.702271
0.187805 0.383392 0.702271
0.309814 0.383392 0.702271
0.441986 0.383392 0.702271
0.582153 0.383392 0.702271
0.729095 0.383392 0.702271
0.881927 0.383392 0.702271
0.000000 0.512695 0.702271
0.079803 0.512695 0.702271
0.187805 0.512695 0.702271
0.309814 0.512695 0.702271
0.441986 0.512695 0.702271
0.582153 0.512695 0.702271
0.729095 0.512695 0.702271
0.881927 0.512695 0.702271
0.000000 0.642334 0.702271
0.079803 0.642334 0.702271
0.187805 0.642334 0.702271
0.309814 0.642334 0.702271
0.441986 0.642334 0.702271
0.582153 0.642334 0.702271
0.729095 0.642334 0.702271
0.881927 0.642334 0.702271
0.000000 0.772186 0.702271
0.079803 0.772186 0.702271
0.187805 0.772186 0.702271
0.309814 0.772186 0.702271
0.441986 0.772186 0.702271
0.582153 0.772186 0.702271
0.729095 0.772186 0.702271
0.881927 0.772186 0.702271
0.000000 0.902313 0.702271
0.079803 0.902313 0.702271
0.187805 0.902313 0.702271
0.309814 0.902313 0.702271
0.441986 0.902313 0.702271
0.582153 0.902313 0.702271
0.729095 0.902313 0.702271
0.881927 0.902313 0.702271
0.000000 0.000000 0.813507
0.079803 0.000000 0.813507
0.187805 0.000000 0.813507
0.309814 0.000000 0.813507
0.441986 0.000000 0.813507
0.582153 0.000000 0.813507
0.729095 0.000000 0.813507
0.881927 0.000000 0.813507
0.000000 0.126373 0.813507
0.079803 0.126373 0.813507
0.187805 0.126373 0.813507
0.309814 0.126373 0.813507
0.441986 0.126373 0.813507
0.582153 0.126373 0.813507
0.729095 0.126373 0.813507
0.881927 0.126373 0.813507
0.000000 0.254547 0.813507
0.079803 0.254547 0.813507
0.187805 0.254547 0.813507
0.309814 0.254547 0.813507
0.441986 0.254547 0.813507
0.582153 0.254547 0.813507
0.729095 0.254547 0.813507
0.881927 0.254547 0.813507
0.000000 0.383392 0.813507
0.079803 0.383392 0.813507
0.187805 0.383392 0.813507
0.309814 0.383392 0.813507
0.441986 0.383392 0.813507
0.582153 0.383392 0.813507
0.729095 0.383392 0.813507
0.881927 0.383392 0.813507
0.000000 0.512695 0.813507
0.079803 0.512695 0.813507
0.187805 0.512695 0.813507
0.309814 0.512695 0.813507
0.441986 0.512695 0.813507
0.582153 0.512695 0.813507
0.729095 0.512695 0.813507
0.881927 0.512695 0.813507
0.000000 0.642334 0.813507
0.079803 0.642334 0.813507
0.187805 0.642334 0.813507
0.309814 0.642334 0.813507
0.441986 0.642334 0.813507
0.582153 0.642334 0.813507
0.729095 0.642334 0.813507
0.881927 0.642334 0.813507
0.000000 0.772186 0.813507
0.079803 0.772186 0.813507
0.187805 0.772186 0.813507
0.309814 0.772186 0.813507
0.441986 0.772186 0.813507
0.582153 0.772186 0.813507
0.729095 0.772186 0.813507
0.881927 0.772186 0.813507
0.000000 0.902313 0.813507
0.079803 0.902313 0.813507
0.187805 0.902313 0.813507
0.309814 0.902313 0.813507
0.441986 0.902313 0.813507
0.582153 0.902313 0.813507
0.729095 0.902313 0.813507
0.881927 0.902313 0.813507
0.000000 0.000000 0.921204
0.079803 0.000000 0.921204
0.187805 0.000000 0.921204
0.309814 0.000000 0.921204
0.441986 0.000000 0.921204
0.582153 0.000000 0.921204
0.729095 0.000000 0.921204
0.881927 0.000000 0.921204
0.000000 0.126373 0.921204
0.079803 0.126373 0.921204
0.187805 0.126373 0.921204
0.309814 0.126373 0.921204
0.441986 0.126373 0.921204
0.582153 0.126373 0.921204
0.729095 0.126373 0.921204
0.881927 0.126373 0.921204
0.000000 0.254547 0.921204
0.079803 0.254547 0.921204
0.187805 0.254547 0.921204
0.309814 0.254547 0.921204
0.441986 0.254547 0.921204
0.582153 0.254547 0.921204
0.729095 0.254547 0.921204
0.881927 0.254547 0.921204
0.000000 0.383392 0.921204
0.079803 0.383392 0.921204
0.187805 0.383392 0.921204
0.309814 0.383392 0.921204
0.441986 0.383392 0.921204
0.582153 0.383392 0.921204
0.729095 0.383392 0.921204
0.881927 0.383392 0.921204
0.000000 0.512695 0.921204
0.079803 0.512695 0.921204
0.187805 0.512695 0.921204
0.309814 0.512695 0.921204
0.441986 0.512695 0.921204
0.582153 0.512695 0.921204
0.729095 0.512695 0.921204
0.881927 0.512695 0.921204
0.000000 0.642334 0.921204
0.079803 0.642334 0.921204
0.187805 0.642334 0.921204
0.309814 0.642334 0.921204
0.441986 0.642334 0.921204
0.582153 0.642334 0.921204
0.729095 0.642334 0.921204
0.881927 0.642334 0.921204
0.000000 0.772186 0.921204
0.079803 0.772186 0.921204
0.187805 0.772186 0.921204
0.309814 0.772186 0.921204
0.441986 0.772186 0.921204
0.582153 0.772186 0.921204
0.729095 0.772186 0.921204
0.881927 0.772186 0.921204
0.000000 0.902313 0.921204
0.079803 0.902313 0.921204
0.187805 0.902313 0.921204
0.309814 0.902313 0.921204
0.441986 0.902313 0.921204
0.582153 0.902313 0.921204
0.729095 0.902313 0.921204
0.881927 0.902313 0.921204
