dist/luts/Industry - Battery solutions 1-Large.CUBE
#Created by: Adobe Photoshop Export Color Lookup Plugin
TITLE "Industry - Battery solutions 1-Large.psd"
#LUT size
LUT_3D_SIZE 8
#data domain
#LUT data points
DOMAIN_MIN 0.000000 0.000000 0.000000
DOMAIN_MAX 0.903226 0.903226 0.903226
0.000000 0.000000 0.000000
0.118469 0.000000 0.000000
0.243896 0.000000 0.000000
0.372070 0.000000 0.000000
0.502106 0.000000 0.000000
0.633514 0.000000 0.000000
0.765991 0.000000 0.000000
0.899414 0.000000 0.000000
0.000000 0.126373 0.000000
0.118469 0.126373 0.000000
0.243896 0.126373 0.000000
0.372070 0.126373 0.000000
0.502106 0.126373 0.000000
0.633514 0.126373 0.000000
0.765991 0.126373 0.000000
0.899414 0.126373 0.000000
0.000000 0.254547 0.000000
0.118469 0.254547 0.000000
0.243896 0.254547 0.000000
0.372070 0.254547 0.000000
0.502106 0.254547 0.000000
0.633514 0.254547 0.000000
0.765991 0.254547 0.000000
0.899414 0.254547 0.000000
0.000000 0.383392 0.000000
0.118469 0.383392 0.000000
0.243896 0.383392 0.000000
0.372070 0.383392 0.000000
0.502106 0.383392 0.000000
0.633514 0.383392 0.000000
0.765991 0.383392 0.000000
0.899414 0.383392 0.000000
0.000000 0.512695 0.000000
0.118469 0.512695 0.000000
0.243896 0.512695 0.000000
0.372070 0.512695 0.000000
0.502106 0.512695 0.000000
0.633514 0.512695 0.000000
0.765991 0.512695 0.000000
0.899414 0.512695 0.000000
0.000000 0.642334 0.000000
0.118469 0.642334 0.000000
0.243896 0.642334 0.000000
0.372070 0.642334 0.000000
0.502106 0.642334 0.000000
0.633514 0.642334 0.000000
0.765991 0.642334 0.000000
0.899414 0.642334 0.000000
0.000000 0.772186 0.000000
0.118469 0.772186 0.000000
0.243896 0.772186 0.000000
0.372070 0.772186 0.000000
0.502106 0.772186 0.000000
0.633514 0.772186 0.000000
0.765991 0.772186 0.000000
0.899414 0.772186 0.000000
0.000000 0.902313 0.000000
0.118469 0.902313 0.000000
0.243896 0.902313 0.000000
0.372070 0.902313 0.000000
0.502106 0.902313 0.000000
0.633514 0.902313 0.000000
0.765991 0.902313 0.000000
0.899414 0.902313 0.000000
0.000000 0.000000 0.142242
0.118469 0.000000 0.142242
0.243896 0.000000 0.142242
0.372070 0.000000 0.142242
0.502106 0.000000 0.142242
0.633514 0.000000 0.142242
0.765991 0.000000 0.142242
0.899414 0.000000 0.142242
0.000000 0.126373 0.142242
0.118469 0.126373 0.142242
0.243896 0.126373 0.142242
0.372070 0.126373 0.142242
0.502106 0.126373 0.142242
0.633514 0.126373 0.142242
0.765991 0.126373 0.142242
0.899414 0.126373 0.142242
0.000000 0.254547 0.142242
0.118469 0.254547 0.142242
0.243896 0.254547 0.142242
0.372070 0.254547 0.142242
0.502106 0.254547 0.142242
0.633514 0.254547 0.142242
0.765991 0.254547 0.142242
0.899414 0.254547 0.142242
0.000000 0.383392 0.142242
0.118469 0.383392 0.142242
0.243896 0.383392 0.142242
0.372070 0.383392 0.142242
0.502106 0.383392 0.142242
0.633514 0.383392 0.142242
0.765991 0.383392 0.142242
0.899414 0.383392 0.142242
0.000000 0.512695 0.142242
0.118469 0.512695 0.142242
0.243896 0.512695 0.142242
0.372070 0.512695 0.142242
0.502106 0.512695 0.142242
0.633514 0.512695 0.142242
0.765991 0.512695 0.142242
0.899414 0.512695 0.142242
0.000000 0.642334 0.142242
0.118469 0.642334 0.142242
0.243896 0.642334 0.142242
0.372070 0.642334 0.142242
0.502106 0.642334 0.142242
0.633514 0.642334 0.142242
0.765991 0.642334 0.142242
0.899414 0.642334 0.142242
0.000000 0.772186 0.142242
0.118469 0.772186 0.142242
0.243896 0.772186 0.142242
0.372070 0.772186 0.142242
0.502106 0.772186 0.142242
0.633514 0.772186 0.142242
0.765991 0.772186 0.142242
0.899414 0.772186 0.142242
0.000000 0.902313 0.142242
0.118469 0.902313 0.142242
0.243896 0.902313 0.142242
0.372070 0.902313 0.142242
0.502106 0.902313 0.142242
0.633514 0.902313 0.142242
0.765991 0.902313 0.142242
0.899414 0.902313 0.142242
0.000000 0.000000 0.275238
0.118469 0.000000 0.275238
0.243896 0.000000 0.275238
0.372070 0.000000 0.275238
0.502106 0.000000 0.275238
0.633514 0.000000 0.275238
0.765991 0.000000 0.275238
0.899414 0.000000 0.275238
0.000000 0.126373 0.275238
0.118469 0.126373 0.275238
0.243896 0.126373 0.275238
0.372070 0.126373 0.275238
0.502106 0.126373 0.275238
0.633514 0.126373 0.275238
0.765991 0.126373 0.275238
0.899414 0.126373 0.275238
0.000000 0.254547 0.275238
0.118469 0.254547 0.275238
0.243896 0.254547 0.275238
0.372070 0.254547 0.275238
0.502106 0.254547 0.275238
0.633514 0.254547 0.275238
0.765991 0.254547 0.275238
0.899414 0.254547 0.275238
0.000000 0.383392 0.275238
0.118469 0.383392 0.275238
0.243896 0.383392 0.275238
0.372070 0.383392 0.275238
0.502106 0.383392 0.275238
0.633514 0.383392 0.275238
0.765991 0.383392 0.275238
0.899414 0.383392 0.275238
0.000000 0.512695 0.275238
0.118469 0.512695 0.275238
0.243896 0.512695 0.275238
0.372070 0.512695 0.275238
0.502106 0.512695 0.275238
0.633514 0.512695 0.275238
0.765991 0.512695 0.275238
0.899414 0.512695 0.275238
0.000000 0.642334 0.275238
0.118469 0.642334 0.275238
0.243896 0.642334 0.275238
0.372070 0.642334 0.275238
0.502106 0.642334 0.275238
0.633514 0.642334 0.275238
0.765991 0.642334 0.275238
0.899414 0.642334 0.275238
0.000000 0.772186 0.275238
0.118469 0.772186 0.275238
0.243896 0.772186 0.275238
0.372070 0.772186 0.275238
0.502106 0.772186 0.275238
0.633514 0.772186 0.275238
0.765991 0.772186 0.275238
0.899414 0.772186 0.275238
0.000000 0.902313 0.275238
0.118469 0.902313 0.275238
0.243896 0.902313 0.275238
0.372070 0.902313 0.275238
0.502106 0.902313 0.275238
0.633514 0.902313 0.275238
0.765991 0.902313 0.275238
0.899414 0.902313 0.275238
0.000000 0.000000 0.404968
0.118469 0.000000 0.404968
0.243896 0.000000 0.404968
0.372070 0.000000 0.404968
0.502106 0.000000 0.404968
0.633514 0.000000 0.404968
0.765991 0.000000 0.404968
0.899414 0.000000 0.404968
0.000000 0.126373 0.404968
0.118469 0.126373 0.404968
0.243896 0.126373 0.404968
0.372070 0.126373 0.404968
0.502106 0.126373 0.404968
0.633514 0.126373 0.404968
0.765991 0.126373 0.404968
0.899414 0.126373 0.404968
0.000000 0.254547 0.404968
0.118469 0.254547 0.404968
0.243896 0.254547 0.404968
0.372070 0.254547 0.404968
0.502106 0.254547 0.404968
0.633514 0.254547 0.404968
0.765991 0.254547 0.404968
0.899414 0.254547 0.404968
0.000000 0.383392 0.404968
0.118469 0.383392 0.404968
0.243896 0.383392 0.404968
0.372070 0.383392 0.404968
0.502106 0.383392 0.404968
0.633514 0.383392 0.404968
0.765991 0.383392 0.404968
0.899414 0.383392 0.404968
0.000000 0.512695 0.404968
0.118469 0.512695 0.404968
0.243896 0.512695 0.404968
0.372070 0.512695 0.404968
0.502106 0.512695 0.404968
0.633514 0.512695 0.404968
0.765991 0.512695 0.404968
0.899414 0.512695 0.404968
0.000000 0.642334 0.404968
0.118469 0.642334 0.404968
0.243896 0.642334 0.404968
0.372070 0.642334 0.404968
0.502106 0.642334 0.404968
0.633514 0.642334 0.404968
0.765991 0.642334 0.404968
0.899414 0.642334 0.404968
0.000000 0.772186 0.404968
0.118469 0.772186 0.404968
0.243896 0.772186 0.404968
0.372070 0.772186 0.404968
0.502106 0.772186 0.404968
0.633514 0.772186 0.404968
0.765991 0.772186 0.404968
0.899414 0.772186 0.404968
0.000000 0.902313 0.404968
0.118469 0.902313 0.404968
0.243896 0.902313 0.404968
0.372070 0.902313 0.404968
0.502106 0.902313 0.404968
0.633514 0.902313 0.404968
0.765991 0.902313 0.404968
0.899414 0.902313 0.404968
0.000000 0.000000 0.532654
0.118469 0.000000 0.532654
0.243896 0.000000 0.532654
0.372070 0.000000 0.532654
0.502106 0.000000 0.532654
0.633514 0.000000 0.532654
0.765991 0.000000 0.532654
0.899414 0.000000 0.532654
0.000000 0.126373 0.532654
0.118469 0.126373 0.532654
0.243896 0.126373 0.532654
0.372070 0.126373 0.532654
0.502106 0.126373 0.532654
0.633514 0.126373 0.532654
0.765991 0.126373 0.532654
0.899414 0.126373 0.532654
0.000000 0.254547 0.532654
0.118469 0.254547 0.532654
0.243896 0.254547 0.532654
0.372070 0.254547 0.532654
0.502106 0.254547 0.532654
0.633514 0.254547 0.532654
0.765991 0.254547 0.532654
0.899414 0.254547 0.532654
0.000000 0.383392 0.532654
0.118469 0.383392 0.532654
0.243896 0.383392 0.532654
0.372070 0.383392 0.532654
0.502106 0.383392 0.532654
0.633514 0.383392 0.532654
0.765991 0.383392 0.532654
0.899414 0.383392 0.532654
0.000000 0.512695 0.532654
0.118469 0.512695 0.532654
0.243896 0.512695 0.532654
0.372070 0.512695 0.532654
0.502106 0.512695 0.532654
0.633514 0.512695 0.532654
0.765991 0.512695 0.532654
0.899414 0.512695 0.532654
0.000000 0.642334 0.532654
0.118469 0.642334 0.532654
0.243896 0.642334 0.532654
0.372070 0.642334 0.532654
0.502106 0.642334 0.532654
0.633514 0.642334 0.532654
0.765991 0.642334 0.532654
0.899414 0.642334 0.532654
0.000000 0.772186 0.532654
0.118469 0.772186 0.532654
0.243896 0.772186 0.532654
0.372070 0.772186 0.532654
0.502106 0.772186 0.532654
0.633514 0.772186 0.532654
0.765991 0.772186 0.532654
0.899414 0.772186 0.532654
0.000000 0.902313 0.532654
0.118469 0.902313 0.532654
0.243896 0.902313 0.532654
0.372070 0.902313 0.532654
0.502106 0.902313 0.532654
0.633514 0.902313 0.532654
0.765991 0.902313 0.532654
0.899414 0.902313 0.532654
0.000000 0.000000 0.658783
0.118469 0.000000 0.658783
0.243896 0.000000 0.658783
0.372070 0.000000 0.658783
0.502106 0.000000 0.658783
0.633514 0.000000 0.658783
0.765991 0.000000 0.658783
0.899414 0.000000 0.658783
0.000000 0.126373 0.658783
0.118469 0.126373 0.658783
0.243896 0.126373 0.658783
0.372070 0.126373 0.658783
0.502106 0.126373 0.658783
0.633514 0.126373 0.658783
0.765991 0.126373 0.658783
0.899414 0.126373 0.658783
0.000000 0.254547 0.658783
0.118469 0.254547 0.658783
0.243896 0.254547 0.658783
0.372070 0.254547 0.658783
0.502106 0.254547 0.658783
0.633514 0.254547 0.658783
0.765991 0.254547 0.658783
0.899414 0.254547 0.658783
0.000000 0.383392 0.658783
0.118469 0.383392 0.658783
0.243896 0.383392 0.658783
0.372070 0.383392 0.658783
0.502106 0.383392 0.658783
0.633514 0.383392 0.658783
0.765991 0.383392 0.658783
0.899414 0.383392 0.658783
0.000000 0.512695 0.658783
0.118469 0.512695 0.658783
0.243896 0.512695 0.658783
0.372070 0.512695 0.658783
0.502106 0.512695 0.658783
0.633514 0.512695 0.658783
0.765991 0.512695 0.658783
0.899414 0.512695 0.658783
0.000000 0.642334 0.658783
0.118469 0.642334 0.658783
0.243896 0.642334 0.658783
0.372070 0.642334 0.658783
0.502106 0.642334 0.658783
0.633514 0.642334 0.658783
0.765991 0.642334 0.658783
0.899414 0.642334 0.658783
0.000000 0.772186 0.658783
0.118469 0.772186 0.658783
0.243896 0.772186 0.658783
0.372070 0.772186 0.658783
0.502106 0.772186 0.658783
0.633514 0.772186 0.658783
0.765991 0.772186 0.658783
0.899414 0.772186 0.658783
0.000000 0.902313 0.658783
0.118469 0.902313 0.658783
0.243896 0.902313 0.658783
0.372070 0.902313 0.658783
0.502106 0.902313 0.658783
0.633514 0.902313 0.658783
0.765991 0.902313 0.658783
0.899414 0.902313 0.658783
0.000000 0.000000 0.783691
0.118469 0.000000 0.783691
0.243896 0.000000 0.783691
0.372070 0.000000 0.783691
0.502106 0.000000 0.783691
0.633514 0.000000 0.783691
0.765991 0.000000 0.783691
0.899414 0.000000 0.783691
0.000000 0.126373 0.783691
0.118469 0.126373 0.783691
0.243896 0.126373 0.783691
0.372070 0.126373 0.783691
0.502106 0.126373 0.783691
0.633514 0.126373 0.783691
0.765991 0.126373 0.783691
0.899414 0.126373 0.783691
0.000000 0.254547 0.783691
0.118469 0.254547 0.783691
0.243896 0.254547 0.783691
0.372070 0.254547 0.783691
0.502106 0.254547 0.783691
0.633514 0.254547 0.783691
0.765991 0.254547 0.783691
0.899414 0.254547 0.783691
0.000000 0.383392 0.783691
0.118469 0.383392 0.783691
0.243896 0.383392 0.783691
0.372070 0.383392 0.783691
0.502106 0.383392 0.783691
0.633514 0.383392 0.783691
0.765991 0.383392 0.783691
0.899414 0.383392 0.783691
0.000000 0.512695 0.783691
0.118469 0.512695 0.783691
0.243896 0.512695 0.783691
0.372070 0.512695 0.783691
0.502106 0.512695 0.783691
0.633514 0.512695 0.783691
0.765991 0.512695 0.783691
0.899414 0.512695 0.783691
0.000000 0.642334 0.783691
0.118469 0.642334 0.783691
0.243896 0.642334 0.783691
0.372070 0.642334 0.783691
0.502106 0.642334 0.783691
0.633514 0.642334 0.783691
0.765991 0.642334 0.783691
0.899414 0.642334 0.783691
0.000000 0.772186 0.783691
0.118469 0.772186 0.783691
0.243896 0.772186 0.783691
0.372070 0.772186 0.783691
0.502106 0.772186 0.783691
0.633514 0.772186 0.783691
0.765991 0.772186 0.783691
0.899414 0.772186 0.783691
0.000000 0.902313 0.783691
0.118469 0.902313 0.783691
0.243896 0.902313 0.783691
0.372070 0.902313 0.783691
0.502106 0.902313 0.783691
0.633514 0.902313 0.783691
0.765991 0.902313 0.783691
0.899414 0.902313 0.783691
0.000000 0.000000 0.907623
0.118469 0.000000 0.907623
0.243896 0.000000 0.907623
0.372070 0.000000 0.907623
0.502106 0.000000 0.907623
0.633514 0.000000 0.907623
0.765991 0.000000 0.907623
0.899414 0.000000 0.907623
0.000000 0.126373 0.907623
0.118469 0.126373 0.907623
0.243896 0.126373 0.907623
0.372070 0.126373 0.907623
0.502106 0.126373 0.907623
0.633514 0.126373 0.907623
0.765991 0.126373 0.907623
0.899414 0.126373 0.907623
0.000000 0.254547 0.907623
0.118469 0.254547 0.907623
0.243896 0.254547 0.907623
0.372070 0.254547 0.907623
0.502106 0.254547 0.907623
0.633514 0.254547 0.907623
0.765991 0.254547 0.907623
0.899414 0.254547 0.907623
0.000000 0.383392 0.907623
0.118469 0.383392 0.907623
0.243896 0.383392 0.907623
0.372070 0.383392 0.907623
0.502106 0.383392 0.907623
0.633514 0.383392 0.907623
0.765991 0.383392 0.907623
0.899414 0.383392 0.907623
0.000000 0.512695 0.907623
0.118469 0.512695 0.907623
0.243896 0.512695 0.907623
0.372070 0.512695 0.907623
0.502106 0.512695 0.907623
0.633514 0.512695 0.907623
0.765991 0.512695 0.907623
0.899414 0.512695 0.907623
0.000000 0.642334 0.907623
0.118469 0.642334 0.907623
0.243896 0.642334 0.907623
0.372070 0.642334 0.907623
0.502106 0.642334 0.907623
0.633514 0.642334 0.907623
0.765991 0.642334 0.907623
0.899414 0.642334 0.907623
0.000000 0.772186 0.907623
0.118469 0.772186 0.907623
0.243896 0.772186 0.907623
0.372070 0.772186 0.907623
0.502106 0.772186 0.907623
0.633514 0.772186 0.907623
0.765991 0.772186 0.907623
0.899414 0.772186 0.907623
0.000000 0.902313 0.907623
0.118469 0.902313 0.907623
0.243896 0.902313 0.907623
0.372070 0.902313 0.907623
0.502106 0.902313 0.907623
0.633514 0.902313 0.907623
0.765991 0.902313 0.907623
0.899414 0.902313 0.907623
