dist/luts/Industry - Metals 3-Large 2.CUBE
#Created by: Adobe Photoshop Export Color Lookup Plugin
TITLE "Industry - Metals 3-Large 2.psd"
#LUT size
LUT_3D_SIZE 5
#data domain
#LUT data points
DOMAIN_MIN 0.000000 0.000000 0.000000
DOMAIN_MAX 0.903226 0.903226 0.903226
0.000000 0.000000 0.000000
0.159271 0.000000 0.000000
0.374786 0.000000 0.000000
0.618286 0.000000 0.000000
0.881927 0.000000 0.000000
0.000000 0.222443 0.000000
0.159271 0.222443 0.000000
0.374786 0.222443 0.000000
0.618286 0.222443 0.000000
0.881927 0.222443 0.000000
0.000000 0.447998 0.000000
0.159271 0.447998 0.000000
0.374786 0.447998 0.000000
0.618286 0.447998 0.000000
0.881927 0.447998 0.000000
0.000000 0.674774 0.000000
0.159271 0.674774 0.000000
0.374786 0.674774 0.000000
0.618286 0.674774 0.000000
0.881927 0.674774 0.000000
0.000000 0.902313 0.000000
0.159271 0.902313 0.000000
0.374786 0.902313 0.000000
0.618286 0.902313 0.000000
0.881927 0.902313 0.000000
0.000000 0.000000 0.301178
0.159271 0.000000 0.301178
0.374786 0.000000 0.301178
0.618286 0.000000 0.301178
0.881927 0.000000 0.301178
0.000000 0.222443 0.301178
0.159271 0.222443 0.301178
0.374786 0.222443 0.301178
0.618286 0.222443 0.301178
0.881927 0.222443 0.301178
0.000000 0.447998 0.301178
0.159271 0.447998 0.301178
0.374786 0.447998 0.301178
0.618286 0.447998 0.301178
0.881927 0.447998 0.301178
0.000000 0.674774 0.301178
0.159271 0.674774 0.301178
0.374786 0.674774 0.301178
0.618286 0.674774 0.301178
0.881927 0.674774 0.301178
0.000000 0.902313 0.301178
0.159271 0.902313 0.301178
0.374786 0.902313 0.301178
0.618286 0.902313 0.301178
0.881927 0.902313 0.301178
0.000000 0.000000 0.526703
0.159271 0.000000 0.526703
0.374786 0.000000 0.526703
0.618286 0.000000 0.526703
0.881927 0.000000 0.526703
0.000000 0.222443 0.526703
0.159271 0.222443 0.526703
0.374786 0.222443 0.526703
0.618286 0.222443 0.526703
0.881927 0.222443 0.526703
0.000000 0.447998 0.526703
0.159271 0.447998 0.526703
0.374786 0.447998 0.526703
0.618286 0.447998 0.526703
0.881927 0.447998 0.526703
0.000000 0.674774 0.526703
0.159271 0.674774 0.526703
0.374786 0.674774 0.526703
0.618286 0.674774 0.526703
0.881927 0.674774 0.526703
0.000000 0.902313 0.526703
0.159271 0.902313 0.526703
0.374786 0.902313 0.526703
0.618286 0.902313 0.526703
0.881927 0.902313 0.526703
0.000000 0.000000 0.730469
0.159271 0.000000 0.730469
0.374786 0.000000 0.730469
0.618286 0.000000 0.730469
0.881927 0.000000 0.730469
0.000000 0.222443 0.730469
0.159271 0.222443 0.730469
0.374786 0.222443 0.730469
0.618286 0.222443 0.730469
0.881927 0.222443 0.730469
0.000000 0.447998 0.730469
0.159271 0.447998 0.730469
0.374786 0.447998 0.730469
0.618286 0.447998 0.730469
0.881927 0.447998 0.730469
0.000000 0.674774 0.730469
0.159271 0.674774 0.730469
0.374786 0.674774 0.730469
0.618286 0.674774 0.730469
0.881927 0.674774 0.730469
0.000000 0.902313 0.730469
0.159271 0.902313 0.730469
0.374786 0.902313 0.730469
0.618286 0.902313 0.730469
0.881927 0.902313 0.730469
0.000000 0.000000 0.921204
0.159271 0.000000 0.921204
0.374786 0.000000 0.921204
0.618286 0.000000 0.921204
0.881927 0.000000 0.921204
0.000000 0.222443 0.921204
0.159271 0.222443 0.921204
0.374786 0.222443 0.921204
0.618286 0.222443 0.921204
0.881927 0.222443 0.921204
0.000000 0.447998 0.921204
0.159271 0.447998 0.921204
0.374786 0.447998 0.921204
0.618286 0.447998 0.921204
0.881927 0.447998 0.921204
0.000000 0.674774 0.921204
0.159271 0.674774 0.921204
0.374786 0.674774 0.921204
0.618286 0.674774 0.921204
0.881927 0.674774 0.921204
0.000000 0.902313 0.921204
0.159271 0.902313 0.921204
0.374786 0.902313 0.921204
0.618286 0.902313 0.921204
0.881927 0.902313 0.921204
