dist/luts/Industry - Metals 3-Large 2.CUBE
#Created by: Adobe Photoshop Export Color Lookup Plugin
TITLE "Industry - Metals 3-Large 2.psd"
#LUT size
LUT_3D_SIZE 32
#data domain
DOMAIN_MIN 0.0 0.0 0.0
DOMAIN_MAX 1.0 1.0 1.0
#LUT data points
0.000000 0.000000 0.000000
0.014435 0.000000 0.000000
0.033905 0.000000 0.000000
0.055939 0.000000 0.000000
0.079803 0.000000 0.000000
0.105133 0.000000 0.000000
0.131653 0.000000 0.000000
0.159271 0.000000 0.000000
0.187805 0.000000 0.000000
0.217224 0.000000 0.000000
0.247375 0.000000 0.000000
0.278259 0.000000 0.000000
0.309814 0.000000 0.000000
0.342010 0.000000 0.000000
0.374786 0.000000 0.000000
0.408081 0.000000 0.000000
0.441986 0.000000 0.000000
0.476318 0.000000 0.000000
0.511139 0.000000 0.000000
0.546448 0.000000 0.000000
0.582153 0.000000 0.000000
0.618286 0.000000 0.000000
0.654846 0.000000 0.000000
0.691772 0.000000 0.000000
0.729095 0.000000 0.000000
0.766785 0.000000 0.000000
0.804810 0.000000 0.000000
0.843201 0.000000 0.000000
0.881927 0.000000 0.000000
0.920990 0.000000 0.000000
0.960327 0.000000 0.000000
1.000000 0.000000 0.000000
0.000000 0.031158 0.000000
0.014435 0.031158 0.000000
0.033905 0.031158 0.000000
0.055939 0.031158 0.000000
0.079803 0.031158 0.000000
0.105133 0.031158 0.000000
0.131653 0.031158 0.000000
0.159271 0.031158 0.000000
0.187805 0.031158 0.000000
0.217224 0.031158 0.000000
0.247375 0.031158 0.000000
0.278259 0.031158 0.000000
0.309814 0.031158 0.000000
0.342010 0.031158 0.000000
0.374786 0.031158 0.000000
0.408081 0.031158 0.000000
0.441986 0.031158 0.000000
0.476318 0.031158 0.000000
0.511139 0.031158 0.000000
0.546448 0.031158 0.000000
0.582153 0.031158 0.000000
0.618286 0.031158 0.000000
0.654846 0.031158 0.000000
0.691772 0.031158 0.000000
0.729095 0.031158 0.000000
0.766785 0.031158 0.000000
0.804810 0.031158 0.000000
0.843201 0.031158 0.000000
0.881927 0.031158 0.000000
0.920990 0.031158 0.000000
0.960327 0.031158 0.000000
1.000000 0.031158 0.000000
0.000000 0.062744 0.000000
0.014435 0.062744 0.000000
0.033905 0.062744 0.000000
0.055939 0.062744 0.000000
0.079803 0.062744 0.000000
0.105133 0.062744 0.000000
0.131653 0.062744 0.000000
0.159271 0.062744 0.000000
0.187805 0.062744 0.000000
0.217224 0.062744 0.000000
0.247375 0.062744 0.000000
0.278259 0.062744 0.000000
0.309814 0.062744 0.000000
0.342010 0.062744 0.000000
0.374786 0.062744 0.000000
0.408081 0.062744 0.000000
0.441986 0.062744 0.000000
0.476318 0.062744 0.000000
0.511139 0.062744 0.000000
0.546448 0.062744 0.000000
0.582153 0.062744 0.000000
0.618286 0.062744 0.000000
0.654846 0.062744 0.000000
0.691772 0.062744 0.000000
0.729095 0.062744 0.000000
0.766785 0.062744 0.000000
0.804810 0.062744 0.000000
0.843201 0.062744 0.000000
0.881927 0.062744 0.000000
0.920990 0.062744 0.000000
0.960327 0.062744 0.000000
1.000000 0.062744 0.000000
0.000000 0.094513 0.000000
0.014435 0.094513 0.000000
0.033905 0.094513 0.000000
0.055939 0.094513 0.000000
0.079803 0.094513 0.000000
0.105133 0.094513 0.000000
0.131653 0.094513 0.000000
0.159271 0.094513 0.000000
0.187805 0.094513 0.000000
0.217224 0.094513 0.000000
0.247375 0.094513 0.000000
0.278259 0.094513 0.000000
0.309814 0.094513 0.000000
0.342010 0.094513 0.000000
0.374786 0.094513 0.000000
0.408081 0.094513 0.000000
0.441986 0.094513 0.000000
0.476318 0.094513 0.000000
0.511139 0.094513 0.000000
0.546448 0.094513 0.000000
0.582153 0.094513 0.000000
0.618286 0.094513 0.000000
0.654846 0.094513 0.000000
0.691772 0.094513 0.000000
0.729095 0.094513 0.000000
0.766785 0.094513 0.000000
0.804810 0.094513 0.000000
0.843201 0.094513 0.000000
0.881927 0.094513 0.000000
0.920990 0.094513 0.000000
0.960327 0.094513 0.000000
1.000000 0.094513 0.000000
0.000000 0.126373 0.000000
0.014435 0.126373 0.000000
0.033905 0.126373 0.000000
0.055939 0.126373 0.000000
0.079803 0.126373 0.000000
0.105133 0.126373 0.000000
0.131653 0.126373 0.000000
0.159271 0.126373 0.000000
0.187805 0.126373 0.000000
0.217224 0.126373 0.000000
0.247375 0.126373 0.000000
0.278259 0.126373 0.000000
0.309814 0.126373 0.000000
0.342010 0.126373 0.000000
0.374786 0.126373 0.000000
0.408081 0.126373 0.000000
0.441986 0.126373 0.000000
0.476318 0.126373 0.000000
0.511139 0.126373 0.000000
0.546448 0.126373 0.000000
0.582153 0.126373 0.000000
0.618286 0.126373 0.000000
0.654846 0.126373 0.000000
0.691772 0.126373 0.000000
0.729095 0.126373 0.000000
0.766785 0.126373 0.000000
0.804810 0.126373 0.000000
0.843201 0.126373 0.000000
0.881927 0.126373 0.000000
0.920990 0.126373 0.000000
0.960327 0.126373 0.000000
1.000000 0.126373 0.000000
0.000000 0.158325 0.000000
0.014435 0.158325 0.000000
0.033905 0.158325 0.000000
0.055939 0.158325 0.000000
0.079803 0.158325 0.000000
0.105133 0.158325 0.000000
0.131653 0.158325 0.000000
0.159271 0.158325 0.000000
0.187805 0.158325 0.000000
0.217224 0.158325 0.000000
0.247375 0.158325 0.000000
0.278259 0.158325 0.000000
0.309814 0.158325 0.000000
0.342010 0.158325 0.000000
0.374786 0.158325 0.000000
0.408081 0.158325 0.000000
0.441986 0.158325 0.000000
0.476318 0.158325 0.000000
0.511139 0.158325 0.000000
0.546448 0.158325 0.000000
0.582153 0.158325 0.000000
0.618286 0.158325 0.000000
0.654846 0.158325 0.000000
0.691772 0.158325 0.000000
0.729095 0.158325 0.000000
0.766785 0.158325 0.000000
0.804810 0.158325 0.000000
0.843201 0.158325 0.000000
0.881927 0.158325 0.000000
0.920990 0.158325 0.000000
0.960327 0.158325 0.000000
1.000000 0.158325 0.000000
0.000000 0.190369 0.000000
0.014435 0.190369 0.000000
0.033905 0.190369 0.000000
0.055939 0.190369 0.000000
0.079803 0.190369 0.000000
0.105133 0.190369 0.000000
0.131653 0.190369 0.000000
0.159271 0.190369 0.000000
0.187805 0.190369 0.000000
0.217224 0.190369 0.000000
0.247375 0.190369 0.000000
0.278259 0.190369 0.000000
0.309814 0.190369 0.000000
0.342010 0.190369 0.000000
0.374786 0.190369 0.000000
0.408081 0.190369 0.000000
0.441986 0.190369 0.000000
0.476318 0.190369 0.000000
0.511139 0.190369 0.000000
0.546448 0.190369 0.000000
0.582153 0.190369 0.000000
0.618286 0.190369 0.000000
0.654846 0.190369 0.000000
0.691772 0.190369 0.000000
0.729095 0.190369 0.000000
0.766785 0.190369 0.000000
0.804810 0.190369 0.000000
0.843201 0.190369 0.000000
0.881927 0.190369 0.000000
0.920990 0.190369 0.000000
0.960327 0.190369 0.000000
1.000000 0.190369 0.000000
0.000000 0.222443 0.000000
0.014435 0.222443 0.000000
0.033905 0.222443 0.000000
0.055939 0.222443 0.000000
0.079803 0.222443 0.000000
0.105133 0.222443 0.000000
0.131653 0.222443 0.000000
0.159271 0.222443 0.000000
0.187805 0.222443 0.000000
0.217224 0.222443 0.000000
0.247375 0.222443 0.000000
0.278259 0.222443 0.000000
0.309814 0.222443 0.000000
0.342010 0.222443 0.000000
0.374786 0.222443 0.000000
0.408081 0.222443 0.000000
0.441986 0.222443 0.000000
0.476318 0.222443 0.000000
0.511139 0.222443 0.000000
0.546448 0.222443 0.000000
0.582153 0.222443 0.000000
0.618286 0.222443 0.000000
0.654846 0.222443 0.000000
0.691772 0.222443 0.000000
0.729095 0.222443 0.000000
0.766785 0.222443 0.000000
0.804810 0.222443 0.000000
0.843201 0.222443 0.000000
0.881927 0.222443 0.000000
0.920990 0.222443 0.000000
0.960327 0.222443 0.000000
1.000000 0.222443 0.000000
0.000000 0.254547 0.000000
0.014435 0.254547 0.000000
0.033905 0.254547 0.000000
0.055939 0.254547 0.000000
0.079803 0.254547 0.000000
0.105133 0.254547 0.000000
0.131653 0.254547 0.000000
0.159271 0.254547 0.000000
0.187805 0.254547 0.000000
0.217224 0.254547 0.000000
0.247375 0.254547 0.000000
0.278259 0.254547 0.000000
0.309814 0.254547 0.000000
0.342010 0.254547 0.000000
0.374786 0.254547 0.000000
0.408081 0.254547 0.000000
0.441986 0.254547 0.000000
0.476318 0.254547 0.000000
0.511139 0.254547 0.000000
0.546448 0.254547 0.000000
0.582153 0.254547 0.000000
0.618286 0.254547 0.000000
0.654846 0.254547 0.000000
0.691772 0.254547 0.000000
0.729095 0.254547 0.000000
0.766785 0.254547 0.000000
0.804810 0.254547 0.000000
0.843201 0.254547 0.000000
0.881927 0.254547 0.000000
0.920990 0.254547 0.000000
0.960327 0.254547 0.000000
1.000000 0.254547 0.000000
0.000000 0.286713 0.000000
0.014435 0.286713 0.000000
0.033905 0.286713 0.000000
0.055939 0.286713 0.000000
0.079803 0.286713 0.000000
0.105133 0.286713 0.000000
0.131653 0.286713 0.000000
0.159271 0.286713 0.000000
0.187805 0.286713 0.000000
0.217224 0.286713 0.000000
0.247375 0.286713 0.000000
0.278259 0.286713 0.000000
0.309814 0.286713 0.000000
0.342010 0.286713 0.000000
0.374786 0.286713 0.000000
0.408081 0.286713 0.000000
0.441986 0.286713 0.000000
0.476318 0.286713 0.000000
0.511139 0.286713 0.000000
0.546448 0.286713 0.000000
0.582153 0.286713 0.000000
0.618286 0.286713 0.000000
0.654846 0.286713 0.000000
0.691772 0.286713 0.000000
0.729095 0.286713 0.000000
0.766785 0.286713 0.000000
0.804810 0.286713 0.000000
0.843201 0.286713 0.000000
0.881927 0.286713 0.000000
0.920990 0.286713 0.000000
0.960327 0.286713 0.000000
1.000000 0.286713 0.000000
0.000000 0.318909 0.000000
0.014435 0.318909 0.000000
0.033905 0.318909 0.000000
0.055939 0.318909 0.000000
0.079803 0.318909 0.000000
0.105133 0.318909 0.000000
0.131653 0.318909 0.000000
0.159271 0.318909 0.000000
0.187805 0.318909 0.000000
0.217224 0.318909 0.000000
0.247375 0.318909 0.000000
0.278259 0.318909 0.000000
0.309814 0.318909 0.000000
0.342010 0.318909 0.000000
0.374786 0.318909 0.000000
0.408081 0.318909 0.000000
0.441986 0.318909 0.000000
0.476318 0.318909 0.000000
0.511139 0.318909 0.000000
0.546448 0.318909 0.000000
0.582153 0.318909 0.000000
0.618286 0.318909 0.000000
0.654846 0.318909 0.000000
0.691772 0.318909 0.000000
0.729095 0.318909 0.000000
0.766785 0.318909 0.000000
0.804810 0.318909 0.000000
0.843201 0.318909 0.000000
0.881927 0.318909 0.000000
0.920990 0.318909 0.000000
0.960327 0.318909 0.000000
1.000000 0.318909 0.000000
0.000000 0.351135 0.000000
0.014435 0.351135 0.000000
0.033905 0.351135 0.000000
0.055939 0.351135 0.000000
0.079803 0.351135 0.000000
0.105133 0.351135 0.000000
0.131653 0.351135 0.000000
0.159271 0.351135 0.000000
0.187805 0.351135 0.000000
0.217224 0.351135 0.000000
0.247375 0.351135 0.000000
0.278259 0.351135 0.000000
0.309814 0.351135 0.000000
0.342010 0.351135 0.000000
0.374786 0.351135 0.000000
0.408081 0.351135 0.000000
0.441986 0.351135 0.000000
0.476318 0.351135 0.000000
0.511139 0.351135 0.000000
0.546448 0.351135 0.000000
0.582153 0.351135 0.000000
0.618286 0.351135 0.000000
0.654846 0.351135 0.000000
0.691772 0.351135 0.000000
0.729095 0.351135 0.000000
0.766785 0.351135 0.000000
0.804810 0.351135 0.000000
0.843201 0.351135 0.000000
0.881927 0.351135 0.000000
0.920990 0.351135 0.000000
0.960327 0.351135 0.000000
1.000000 0.351135 0.000000
0.000000 0.383392 0.000000
0.014435 0.383392 0.000000
0.033905 0.383392 0.000000
0.055939 0.383392 0.000000
0.079803 0.383392 0.000000
0.105133 0.383392 0.000000
0.131653 0.383392 0.000000
0.159271 0.383392 0.000000
0.187805 0.383392 0.000000
0.217224 0.383392 0.000000
0.247375 0.383392 0.000000
0.278259 0.383392 0.000000
0.309814 0.383392 0.000000
0.342010 0.383392 0.000000
0.374786 0.383392 0.000000
0.408081 0.383392 0.000000
0.441986 0.383392 0.000000
0.476318 0.383392 0.000000
0.511139 0.383392 0.000000
0.546448 0.383392 0.000000
0.582153 0.383392 0.000000
0.618286 0.383392 0.000000
0.654846 0.383392 0.000000
0.691772 0.383392 0.000000
0.729095 0.383392 0.000000
0.766785 0.383392 0.000000
0.804810 0.383392 0.000000
0.843201 0.383392 0.000000
0.881927 0.383392 0.000000
0.920990 0.383392 0.000000
0.960327 0.383392 0.000000
1.000000 0.383392 0.000000
0.000000 0.415680 0.000000
0.014435 0.415680 0.000000
0.033905 0.415680 0.000000
0.055939 0.415680 0.000000
0.079803 0.415680 0.000000
0.105133 0.415680 0.000000
0.131653 0.415680 0.000000
0.159271 0.415680 0.000000
0.187805 0.415680 0.000000
0.217224 0.415680 0.000000
0.247375 0.415680 0.000000
0.278259 0.415680 0.000000
0.309814 0.415680 0.000000
0.342010 0.415680 0.000000
0.374786 0.415680 0.000000
0.408081 0.415680 0.000000
0.441986 0.415680 0.000000
0.476318 0.415680 0.000000
0.511139 0.415680 0.000000
0.546448 0.415680 0.000000
0.582153 0.415680 0.000000
0.618286 0.415680 0.000000
0.654846 0.415680 0.000000
0.691772 0.415680 0.000000
0.729095 0.415680 0.000000
0.766785 0.415680 0.000000
0.804810 0.415680 0.000000
0.843201 0.415680 0.000000
0.881927 0.415680 0.000000
0.920990 0.415680 0.000000
0.960327 0.415680 0.000000
1.000000 0.415680 0.000000
0.000000 0.447998 0.000000
0.014435 0.447998 0.000000
0.033905 0.447998 0.000000
0.055939 0.447998 0.000000
0.079803 0.447998 0.000000
0.105133 0.447998 0.000000
0.131653 0.447998 0.000000
0.159271 0.447998 0.000000
0.187805 0.447998 0.000000
0.217224 0.447998 0.000000
0.247375 0.447998 0.000000
0.278259 0.447998 0.000000
0.309814 0.447998 0.000000
0.342010 0.447998 0.000000
0.374786 0.447998 0.000000
0.408081 0.447998 0.000000
0.441986 0.447998 0.000000
0.476318 0.447998 0.000000
0.511139 0.447998 0.000000
0.546448 0.447998 0.000000
0.582153 0.447998 0.000000
0.618286 0.447998 0.000000
0.654846 0.447998 0.000000
0.691772 0.447998 0.000000
0.729095 0.447998 0.000000
0.766785 0.447998 0.000000
0.804810 0.447998 0.000000
0.843201 0.447998 0.000000
0.881927 0.447998 0.000000
0.920990 0.447998 0.000000
0.960327 0.447998 0.000000
1.000000 0.447998 0.000000
0.000000 0.480316 0.000000
0.014435 0.480316 0.000000
0.033905 0.480316 0.000000
0.055939 0.480316 0.000000
0.079803 0.480316 0.000000
0.105133 0.480316 0.000000
0.131653 0.480316 0.000000
0.159271 0.480316 0.000000
0.187805 0.480316 0.000000
0.217224 0.480316 0.000000
0.247375 0.480316 0.000000
0.278259 0.480316 0.000000
0.309814 0.480316 0.000000
0.342010 0.480316 0.000000
0.374786 0.480316 0.000000
0.408081 0.480316 0.000000
0.441986 0.480316 0.000000
0.476318 0.480316 0.000000
0.511139 0.480316 0.000000
0.546448 0.480316 0.000000
0.582153 0.480316 0.000000
0.618286 0.480316 0.000000
0.654846 0.480316 0.000000
0.691772 0.480316 0.000000
0.729095 0.480316 0.000000
0.766785 0.480316 0.000000
0.804810 0.480316 0.000000
0.843201 0.480316 0.000000
0.881927 0.480316 0.000000
0.920990 0.480316 0.000000
0.960327 0.480316 0.000000
1.000000 0.480316 0.000000
0.000000 0.512695 0.000000
0.014435 0.512695 0.000000
0.033905 0.512695 0.000000
0.055939 0.512695 0.000000
0.079803 0.512695 0.000000
0.105133 0.512695 0.000000
0.131653 0.512695 0.000000
0.159271 0.512695 0.000000
0.187805 0.512695 0.000000
0.217224 0.512695 0.000000
0.247375 0.512695 0.000000
0.278259 0.512695 0.000000
0.309814 0.512695 0.000000
0.342010 0.512695 0.000000
0.374786 0.512695 0.000000
0.408081 0.512695 0.000000
0.441986 0.512695 0.000000
0.476318 0.512695 0.000000
0.511139 0.512695 0.000000
0.546448 0.512695 0.000000
0.582153 0.512695 0.000000
0.618286 0.512695 0.000000
0.654846 0.512695 0.000000
0.691772 0.512695 0.000000
0.729095 0.512695 0.000000
0.766785 0.512695 0.000000
0.804810 0.512695 0.000000
0.843201 0.512695 0.000000
0.881927 0.512695 0.000000
0.920990 0.512695 0.000000
0.960327 0.512695 0.000000
1.000000 0.512695 0.000000
0.000000 0.545074 0.000000
0.014435 0.545074 0.000000
0.033905 0.545074 0.000000
0.055939 0.545074 0.000000
0.079803 0.545074 0.000000
0.105133 0.545074 0.000000
0.131653 0.545074 0.000000
0.159271 0.545074 0.000000
0.187805 0.545074 0.000000
0.217224 0.545074 0.000000
0.247375 0.545074 0.000000
0.278259 0.545074 0.000000
0.309814 0.545074 0.000000
0.342010 0.545074 0.000000
0.374786 0.545074 0.000000
0.408081 0.545074 0.000000
0.441986 0.545074 0.000000
0.476318 0.545074 0.000000
0.511139 0.545074 0.000000
0.546448 0.545074 0.000000
0.582153 0.545074 0.000000
0.618286 0.545074 0.000000
0.654846 0.545074 0.000000
0.691772 0.545074 0.000000
0.729095 0.545074 0.000000
0.766785 0.545074 0.000000
0.804810 0.545074 0.000000
0.843201 0.545074 0.000000
0.881927 0.545074 0.000000
0.920990 0.545074 0.000000
0.960327 0.545074 0.000000
1.000000 0.545074 0.000000
0.000000 0.577484 0.000000
0.014435 0.577484 0.000000
0.033905 0.577484 0.000000
0.055939 0.577484 0.000000
0.079803 0.577484 0.000000
0.105133 0.577484 0.000000
0.131653 0.577484 0.000000
0.159271 0.577484 0.000000
0.187805 0.577484 0.000000
0.217224 0.577484 0.000000
0.247375 0.577484 0.000000
0.278259 0.577484 0.000000
0.309814 0.577484 0.000000
0.342010 0.577484 0.000000
0.374786 0.577484 0.000000
0.408081 0.577484 0.000000
0.441986 0.577484 0.000000
0.476318 0.577484 0.000000
0.511139 0.577484 0.000000
0.546448 0.577484 0.000000
0.582153 0.577484 0.000000
0.618286 0.577484 0.000000
0.654846 0.577484 0.000000
0.691772 0.577484 0.000000
0.729095 0.577484 0.000000
0.766785 0.577484 0.000000
0.804810 0.577484 0.000000
0.843201 0.577484 0.000000
0.881927 0.577484 0.000000
0.920990 0.577484 0.000000
0.960327 0.577484 0.000000
1.000000 0.577484 0.000000
0.000000 0.609894 0.000000
0.014435 0.609894 0.000000
0.033905 0.609894 0.000000
0.055939 0.609894 0.000000
0.079803 0.609894 0.000000
0.105133 0.609894 0.000000
0.131653 0.609894 0.000000
0.159271 0.609894 0.000000
0.187805 0.609894 0.000000
0.217224 0.609894 0.000000
0.247375 0.609894 0.000000
0.278259 0.609894 0.000000
0.309814 0.609894 0.000000
0.342010 0.609894 0.000000
0.374786 0.609894 0.000000
0.408081 0.609894 0.000000
0.441986 0.609894 0.000000
0.476318 0.609894 0.000000
0.511139 0.609894 0.000000
0.546448 0.609894 0.000000
0.582153 0.609894 0.000000
0.618286 0.609894 0.000000
0.654846 0.609894 0.000000
0.691772 0.609894 0.000000
0.729095 0.609894 0.000000
0.766785 0.609894 0.000000
0.804810 0.609894 0.000000
0.843201 0.609894 0.000000
0.881927 0.609894 0.000000
0.920990 0.609894 0.000000
0.960327 0.609894 0.000000
1.000000 0.609894 0.000000
0.000000 0.642334 0.000000
0.014435 0.642334 0.000000
0.033905 0.642334 0.000000
0.055939 0.642334 0.000000
0.079803 0.642334 0.000000
0.105133 0.642334 0.000000
0.131653 0.642334 0.000000
0.159271 0.642334 0.000000
0.187805 0.642334 0.000000
0.217224 0.642334 0.000000
0.247375 0.642334 0.000000
0.278259 0.642334 0.000000
0.309814 0.642334 0.000000
0.342010 0.642334 0.000000
0.374786 0.642334 0.000000
0.408081 0.642334 0.000000
0.441986 0.642334 0.000000
0.476318 0.642334 0.000000
0.511139 0.642334 0.000000
0.546448 0.642334 0.000000
0.582153 0.642334 0.000000
0.618286 0.642334 0.000000
0.654846 0.642334 0.000000
0.691772 0.642334 0.000000
0.729095 0.642334 0.000000
0.766785 0.642334 0.000000
0.804810 0.642334 0.000000
0.843201 0.642334 0.000000
0.881927 0.642334 0.000000
0.920990 0.642334 0.000000
0.960327 0.642334 0.000000
1.000000 0.642334 0.000000
0.000000 0.674774 0.000000
0.014435 0.674774 0.000000
0.033905 0.674774 0.000000
0.055939 0.674774 0.000000
0.079803 0.674774 0.000000
0.105133 0.674774 0.000000
0.131653 0.674774 0.000000
0.159271 0.674774 0.000000
0.187805 0.674774 0.000000
0.217224 0.674774 0.000000
0.247375 0.674774 0.000000
0.278259 0.674774 0.000000
0.309814 0.674774 0.000000
0.342010 0.674774 0.000000
0.374786 0.674774 0.000000
0.408081 0.674774 0.000000
0.441986 0.674774 0.000000
0.476318 0.674774 0.000000
0.511139 0.674774 0.000000
0.546448 0.674774 0.000000
0.582153 0.674774 0.000000
0.618286 0.674774 0.000000
0.654846 0.674774 0.000000
0.691772 0.674774 0.000000
0.729095 0.674774 0.000000
0.766785 0.674774 0.000000
0.804810 0.674774 0.000000
0.843201 0.674774 0.000000
0.881927 0.674774 0.000000
0.920990 0.674774 0.000000
0.960327 0.674774 0.000000
1.000000 0.674774 0.000000
0.000000 0.707245 0.000000
0.014435 0.707245 0.000000
0.033905 0.707245 0.000000
0.055939 0.707245 0.000000
0.079803 0.707245 0.000000
0.105133 0.707245 0.000000
0.131653 0.707245 0.000000
0.159271 0.707245 0.000000
0.187805 0.707245 0.000000
0.217224 0.707245 0.000000
0.247375 0.707245 0.000000
0.278259 0.707245 0.000000
0.309814 0.707245 0.000000
0.342010 0.707245 0.000000
0.374786 0.707245 0.000000
0.408081 0.707245 0.000000
0.441986 0.707245 0.000000
0.476318 0.707245 0.000000
0.511139 0.707245 0.000000
0.546448 0.707245 0.000000
0.582153 0.707245 0.000000
0.618286 0.707245 0.000000
0.654846 0.707245 0.000000
0.691772 0.707245 0.000000
0.729095 0.707245 0.000000
0.766785 0.707245 0.000000
0.804810 0.707245 0.000000
0.843201 0.707245 0.000000
0.881927 0.707245 0.000000
0.920990 0.707245 0.000000
0.960327 0.707245 0.000000
1.000000 0.707245 0.000000
0.000000 0.739716 0.000000
0.014435 0.739716 0.000000
0.033905 0.739716 0.000000
0.055939 0.739716 0.000000
0.079803 0.739716 0.000000
0.105133 0.739716 0.000000
0.131653 0.739716 0.000000
0.159271 0.739716 0.000000
0.187805 0.739716 0.000000
0.217224 0.739716 0.000000
0.247375 0.739716 0.000000
0.278259 0.739716 0.000000
0.309814 0.739716 0.000000
0.342010 0.739716 0.000000
0.374786 0.739716 0.000000
0.408081 0.739716 0.000000
0.441986 0.739716 0.000000
0.476318 0.739716 0.000000
0.511139 0.739716 0.000000
0.546448 0.739716 0.000000
0.582153 0.739716 0.000000
0.618286 0.739716 0.000000
0.654846 0.739716 0.000000
0.691772 0.739716 0.000000
0.729095 0.739716 0.000000
0.766785 0.739716 0.000000
0.804810 0.739716 0.000000
0.843201 0.739716 0.000000
0.881927 0.739716 0.000000
0.920990 0.739716 0.000000
0.960327 0.739716 0.000000
1.000000 0.739716 0.000000
0.000000 0.772186 0.000000
0.014435 0.772186 0.000000
0.033905 0.772186 0.000000
0.055939 0.772186 0.000000
0.079803 0.772186 0.000000
0.105133 0.772186 0.000000
0.131653 0.772186 0.000000
0.159271 0.772186 0.000000
0.187805 0.772186 0.000000
0.217224 0.772186 0.000000
0.247375 0.772186 0.000000
0.278259 0.772186 0.000000
0.309814 0.772186 0.000000
0.342010 0.772186 0.000000
0.374786 0.772186 0.000000
0.408081 0.772186 0.000000
0.441986 0.772186 0.000000
0.476318 0.772186 0.000000
0.511139 0.772186 0.000000
0.546448 0.772186 0.000000
0.582153 0.772186 0.000000
0.618286 0.772186 0.000000
0.654846 0.772186 0.000000
0.691772 0.772186 0.000000
0.729095 0.772186 0.000000
0.766785 0.772186 0.000000
0.804810 0.772186 0.000000
0.843201 0.772186 0.000000
0.881927 0.772186 0.000000
0.920990 0.772186 0.000000
0.960327 0.772186 0.000000
1.000000 0.772186 0.000000
0.000000 0.804718 0.000000
0.014435 0.804718 0.000000
0.033905 0.804718 0.000000
0.055939 0.804718 0.000000
0.079803 0.804718 0.000000
0.105133 0.804718 0.000000
0.131653 0.804718 0.000000
0.159271 0.804718 0.000000
0.187805 0.804718 0.000000
0.217224 0.804718 0.000000
0.247375 0.804718 0.000000
0.278259 0.804718 0.000000
0.309814 0.804718 0.000000
0.342010 0.804718 0.000000
0.374786 0.804718 0.000000
0.408081 0.804718 0.000000
0.441986 0.804718 0.000000
0.476318 0.804718 0.000000
0.511139 0.804718 0.000000
0.546448 0.804718 0.000000
0.582153 0.804718 0.000000
0.618286 0.804718 0.000000
0.654846 0.804718 0.000000
0.691772 0.804718 0.000000
0.729095 0.804718 0.000000
0.766785 0.804718 0.000000
0.804810 0.804718 0.000000
0.843201 0.804718 0.000000
0.881927 0.804718 0.000000
0.920990 0.804718 0.000000
0.960327 0.804718 0.000000
1.000000 0.804718 0.000000
0.000000 0.837219 0.000000
0.014435 0.837219 0.000000
0.033905 0.837219 0.000000
0.055939 0.837219 0.000000
0.079803 0.837219 0.000000
0.105133 0.837219 0.000000
0.131653 0.837219 0.000000
0.159271 0.837219 0.000000
0.187805 0.837219 0.000000
0.217224 0.837219 0.000000
0.247375 0.837219 0.000000
0.278259 0.837219 0.000000
0.309814 0.837219 0.000000
0.342010 0.837219 0.000000
0.374786 0.837219 0.000000
0.408081 0.837219 0.000000
0.441986 0.837219 0.000000
0.476318 0.837219 0.000000
0.511139 0.837219 0.000000
0.546448 0.837219 0.000000
0.582153 0.837219 0.000000
0.618286 0.837219 0.000000
0.654846 0.837219 0.000000
0.691772 0.837219 0.000000
0.729095 0.837219 0.000000
0.766785 0.837219 0.000000
0.804810 0.837219 0.000000
0.843201 0.837219 0.000000
0.881927 0.837219 0.000000
0.920990 0.837219 0.000000
0.960327 0.837219 0.000000
1.000000 0.837219 0.000000
0.000000 0.869751 0.000000
0.014435 0.869751 0.000000
0.033905 0.869751 0.000000
0.055939 0.869751 0.000000
0.079803 0.869751 0.000000
0.105133 0.869751 0.000000
0.131653 0.869751 0.000000
0.159271 0.869751 0.000000
0.187805 0.869751 0.000000
0.217224 0.869751 0.000000
0.247375 0.869751 0.000000
0.278259 0.869751 0.000000
0.309814 0.869751 0.000000
0.342010 0.869751 0.000000
0.374786 0.869751 0.000000
0.408081 0.869751 0.000000
0.441986 0.869751 0.000000
