dist/luts/Industry - Metals 3-Large.CUBE
#Created by: Adobe Photoshop Export Color Lookup Plugin
TITLE "Industry - Metals 3-Large.psd"
#LUT size
LUT_3D_SIZE 32
#data domain
DOMAIN_MIN 0.0 0.0 0.0
DOMAIN_MAX 1.0 1.0 1.0
#LUT data points
0.000000 0.000000 0.000000
0.022034 0.000000 0.000000
0.047577 0.000000 0.000000
0.074677 0.000000 0.000000
0.102783 0.000000 0.000000
0.131683 0.000000 0.000000
0.161255 0.000000 0.000000
0.191376 0.000000 0.000000
0.221985 0.000000 0.000000
0.253052 0.000000 0.000000
0.284454 0.000000 0.000000
0.316254 0.000000 0.000000
0.348358 0.000000 0.000000
0.380737 0.000000 0.000000
0.413422 0.000000 0.000000
0.446350 0.000000 0.000000
0.479584 0.000000 0.000000
0.513000 0.000000 0.000000
0.546631 0.000000 0.000000
0.580475 0.000000 0.000000
0.614502 0.000000 0.000000
0.648743 0.000000 0.000000
0.683167 0.000000 0.000000
0.717743 0.000000 0.000000
0.752502 0.000000 0.000000
0.787415 0.000000 0.000000
0.822479 0.000000 0.000000
0.857727 0.000000 0.000000
0.893066 0.000000 0.000000
0.928589 0.000000 0.000000
0.964233 0.000000 0.000000
1.000000 0.000000 0.000000
0.000000 0.033386 0.000000
0.022034 0.033386 0.000000
0.047577 0.033386 0.000000
0.074677 0.033386 0.000000
0.102783 0.033386 0.000000
0.131683 0.033386 0.000000
0.161255 0.033386 0.000000
0.191376 0.033386 0.000000
0.221985 0.033386 0.000000
0.253052 0.033386 0.000000
0.284454 0.033386 0.000000
0.316254 0.033386 0.000000
0.348358 0.033386 0.000000
0.380737 0.033386 0.000000
0.413422 0.033386 0.000000
0.446350 0.033386 0.000000
0.479584 0.033386 0.000000
0.513000 0.033386 0.000000
0.546631 0.033386 0.000000
0.580475 0.033386 0.000000
0.614502 0.033386 0.000000
0.648743 0.033386 0.000000
0.683167 0.033386 0.000000
0.717743 0.033386 0.000000
0.752502 0.033386 0.000000
0.787415 0.033386 0.000000
0.822479 0.033386 0.000000
0.857727 0.033386 0.000000
0.893066 0.033386 0.000000
0.928589 0.033386 0.000000
0.964233 0.033386 0.000000
1.000000 0.033386 0.000000
0.000000 0.066284 0.000000
0.022034 0.066284 0.000000
0.047577 0.066284 0.000000
0.074677 0.066284 0.000000
0.102783 0.066284 0.000000
0.131683 0.066284 0.000000
0.161255 0.066284 0.000000
0.191376 0.066284 0.000000
0.221985 0.066284 0.000000
0.253052 0.066284 0.000000
0.284454 0.066284 0.000000
0.316254 0.066284 0.000000
0.348358 0.066284 0.000000
0.380737 0.066284 0.000000
0.413422 0.066284 0.000000
0.446350 0.066284 0.000000
0.479584 0.066284 0.000000
0.513000 0.066284 0.000000
0.546631 0.066284 0.000000
0.580475 0.066284 0.000000
0.614502 0.066284 0.000000
0.648743 0.066284 0.000000
0.683167 0.066284 0.000000
0.717743 0.066284 0.000000
0.752502 0.066284 0.000000
0.787415 0.066284 0.000000
0.822479 0.066284 0.000000
0.857727 0.066284 0.000000
0.893066 0.066284 0.000000
0.928589 0.066284 0.000000
0.964233 0.066284 0.000000
1.000000 0.066284 0.000000
0.000000 0.099030 0.000000
0.022034 0.099030 0.000000
0.047577 0.099030 0.000000
0.074677 0.099030 0.000000
0.102783 0.099030 0.000000
0.131683 0.099030 0.000000
0.161255 0.099030 0.000000
0.191376 0.099030 0.000000
0.221985 0.099030 0.000000
0.253052 0.099030 0.000000
0.284454 0.099030 0.000000
0.316254 0.099030 0.000000
0.348358 0.099030 0.000000
0.380737 0.099030 0.000000
0.413422 0.099030 0.000000
0.446350 0.099030 0.000000
0.479584 0.099030 0.000000
0.513000 0.099030 0.000000
0.546631 0.099030 0.000000
0.580475 0.099030 0.000000
0.614502 0.099030 0.000000
0.648743 0.099030 0.000000
0.683167 0.099030 0.000000
0.717743 0.099030 0.000000
0.752502 0.099030 0.000000
0.787415 0.099030 0.000000
0.822479 0.099030 0.000000
0.857727 0.099030 0.000000
0.893066 0.099030 0.000000
0.928589 0.099030 0.000000
0.964233 0.099030 0.000000
1.000000 0.099030 0.000000
0.000000 0.131683 0.000000
0.022034 0.131683 0.000000
0.047577 0.131683 0.000000
0.074677 0.131683 0.000000
0.102783 0.131683 0.000000
0.131683 0.131683 0.000000
0.161255 0.131683 0.000000
0.191376 0.131683 0.000000
0.221985 0.131683 0.000000
0.253052 0.131683 0.000000
0.284454 0.131683 0.000000
0.316254 0.131683 0.000000
0.348358 0.131683 0.000000
0.380737 0.131683 0.000000
0.413422 0.131683 0.000000
0.446350 0.131683 0.000000
0.479584 0.131683 0.000000
0.513000 0.131683 0.000000
0.546631 0.131683 0.000000
0.580475 0.131683 0.000000
0.614502 0.131683 0.000000
0.648743 0.131683 0.000000
0.683167 0.131683 0.000000
0.717743 0.131683 0.000000
0.752502 0.131683 0.000000
0.787415 0.131683 0.000000
0.822479 0.131683 0.000000
0.857727 0.131683 0.000000
0.893066 0.131683 0.000000
0.928589 0.131683 0.000000
0.964233 0.131683 0.000000
1.000000 0.131683 0.000000
0.000000 0.164215 0.000000
0.022034 0.164215 0.000000
0.047577 0.164215 0.000000
0.074677 0.164215 0.000000
0.102783 0.164215 0.000000
0.131683 0.164215 0.000000
0.161255 0.164215 0.000000
0.191376 0.164215 0.000000
0.221985 0.164215 0.000000
0.253052 0.164215 0.000000
0.284454 0.164215 0.000000
0.316254 0.164215 0.000000
0.348358 0.164215 0.000000
0.380737 0.164215 0.000000
0.413422 0.164215 0.000000
0.446350 0.164215 0.000000
0.479584 0.164215 0.000000
0.513000 0.164215 0.000000
0.546631 0.164215 0.000000
0.580475 0.164215 0.000000
0.614502 0.164215 0.000000
0.648743 0.164215 0.000000
0.683167 0.164215 0.000000
0.717743 0.164215 0.000000
0.752502 0.164215 0.000000
0.787415 0.164215 0.000000
0.822479 0.164215 0.000000
0.857727 0.164215 0.000000
0.893066 0.164215 0.000000
0.928589 0.164215 0.000000
0.964233 0.164215 0.000000
1.000000 0.164215 0.000000
0.000000 0.196716 0.000000
0.022034 0.196716 0.000000
0.047577 0.196716 0.000000
0.074677 0.196716 0.000000
0.102783 0.196716 0.000000
0.131683 0.196716 0.000000
0.161255 0.196716 0.000000
0.191376 0.196716 0.000000
0.221985 0.196716 0.000000
0.253052 0.196716 0.000000
0.284454 0.196716 0.000000
0.316254 0.196716 0.000000
0.348358 0.196716 0.000000
0.380737 0.196716 0.000000
0.413422 0.196716 0.000000
0.446350 0.196716 0.000000
0.479584 0.196716 0.000000
0.513000 0.196716 0.000000
0.546631 0.196716 0.000000
0.580475 0.196716 0.000000
0.614502 0.196716 0.000000
0.648743 0.196716 0.000000
0.683167 0.196716 0.000000
0.717743 0.196716 0.000000
0.752502 0.196716 0.000000
0.787415 0.196716 0.000000
0.822479 0.196716 0.000000
0.857727 0.196716 0.000000
0.893066 0.196716 0.000000
0.928589 0.196716 0.000000
0.964233 0.196716 0.000000
1.000000 0.196716 0.000000
0.000000 0.229156 0.000000
0.022034 0.229156 0.000000
0.047577 0.229156 0.000000
0.074677 0.229156 0.000000
0.102783 0.229156 0.000000
0.131683 0.229156 0.000000
0.161255 0.229156 0.000000
0.191376 0.229156 0.000000
0.221985 0.229156 0.000000
0.253052 0.229156 0.000000
0.284454 0.229156 0.000000
0.316254 0.229156 0.000000
0.348358 0.229156 0.000000
0.380737 0.229156 0.000000
0.413422 0.229156 0.000000
0.446350 0.229156 0.000000
0.479584 0.229156 0.000000
0.513000 0.229156 0.000000
0.546631 0.229156 0.000000
0.580475 0.229156 0.000000
0.614502 0.229156 0.000000
0.648743 0.229156 0.000000
0.683167 0.229156 0.000000
0.717743 0.229156 0.000000
0.752502 0.229156 0.000000
0.787415 0.229156 0.000000
0.822479 0.229156 0.000000
0.857727 0.229156 0.000000
0.893066 0.229156 0.000000
0.928589 0.229156 0.000000
0.964233 0.229156 0.000000
1.000000 0.229156 0.000000
0.000000 0.261536 0.000000
0.022034 0.261536 0.000000
0.047577 0.261536 0.000000
0.074677 0.261536 0.000000
0.102783 0.261536 0.000000
0.131683 0.261536 0.000000
0.161255 0.261536 0.000000
0.191376 0.261536 0.000000
0.221985 0.261536 0.000000
0.253052 0.261536 0.000000
0.284454 0.261536 0.000000
0.316254 0.261536 0.000000
0.348358 0.261536 0.000000
0.380737 0.261536 0.000000
0.413422 0.261536 0.000000
0.446350 0.261536 0.000000
0.479584 0.261536 0.000000
0.513000 0.261536 0.000000
0.546631 0.261536 0.000000
0.580475 0.261536 0.000000
0.614502 0.261536 0.000000
0.648743 0.261536 0.000000
0.683167 0.261536 0.000000
0.717743 0.261536 0.000000
0.752502 0.261536 0.000000
0.787415 0.261536 0.000000
0.822479 0.261536 0.000000
0.857727 0.261536 0.000000
0.893066 0.261536 0.000000
0.928589 0.261536 0.000000
0.964233 0.261536 0.000000
1.000000 0.261536 0.000000
0.000000 0.293884 0.000000
0.022034 0.293884 0.000000
0.047577 0.293884 0.000000
0.074677 0.293884 0.000000
0.102783 0.293884 0.000000
0.131683 0.293884 0.000000
0.161255 0.293884 0.000000
0.191376 0.293884 0.000000
0.221985 0.293884 0.000000
0.253052 0.293884 0.000000
0.284454 0.293884 0.000000
0.316254 0.293884 0.000000
0.348358 0.293884 0.000000
0.380737 0.293884 0.000000
0.413422 0.293884 0.000000
0.446350 0.293884 0.000000
0.479584 0.293884 0.000000
0.513000 0.293884 0.000000
0.546631 0.293884 0.000000
0.580475 0.293884 0.000000
0.614502 0.293884 0.000000
0.648743 0.293884 0.000000
0.683167 0.293884 0.000000
0.717743 0.293884 0.000000
0.752502 0.293884 0.000000
0.787415 0.293884 0.000000
0.822479 0.293884 0.000000
0.857727 0.293884 0.000000
0.893066 0.293884 0.000000
0.928589 0.293884 0.000000
0.964233 0.293884 0.000000
1.000000 0.293884 0.000000
0.000000 0.326202 0.000000
0.022034 0.326202 0.000000
0.047577 0.326202 0.000000
0.074677 0.326202 0.000000
0.102783 0.326202 0.000000
0.131683 0.326202 0.000000
0.161255 0.326202 0.000000
0.191376 0.326202 0.000000
0.221985 0.326202 0.000000
0.253052 0.326202 0.000000
0.284454 0.326202 0.000000
0.316254 0.326202 0.000000
0.348358 0.326202 0.000000
0.380737 0.326202 0.000000
0.413422 0.326202 0.000000
0.446350 0.326202 0.000000
0.479584 0.326202 0.000000
0.513000 0.326202 0.000000
0.546631 0.326202 0.000000
0.580475 0.326202 0.000000
0.614502 0.326202 0.000000
0.648743 0.326202 0.000000
0.683167 0.326202 0.000000
0.717743 0.326202 0.000000
0.752502 0.326202 0.000000
0.787415 0.326202 0.000000
0.822479 0.326202 0.000000
0.857727 0.326202 0.000000
0.893066 0.326202 0.000000
0.928589 0.326202 0.000000
0.964233 0.326202 0.000000
1.000000 0.326202 0.000000
0.000000 0.358490 0.000000
0.022034 0.358490 0.000000
0.047577 0.358490 0.000000
0.074677 0.358490 0.000000
0.102783 0.358490 0.000000
0.131683 0.358490 0.000000
0.161255 0.358490 0.000000
0.191376 0.358490 0.000000
0.221985 0.358490 0.000000
0.253052 0.358490 0.000000
0.284454 0.358490 0.000000
0.316254 0.358490 0.000000
0.348358 0.358490 0.000000
0.380737 0.358490 0.000000
0.413422 0.358490 0.000000
0.446350 0.358490 0.000000
0.479584 0.358490 0.000000
0.513000 0.358490 0.000000
0.546631 0.358490 0.000000
0.580475 0.358490 0.000000
0.614502 0.358490 0.000000
0.648743 0.358490 0.000000
0.683167 0.358490 0.000000
0.717743 0.358490 0.000000
0.752502 0.358490 0.000000
0.787415 0.358490 0.000000
0.822479 0.358490 0.000000
0.857727 0.358490 0.000000
0.893066 0.358490 0.000000
0.928589 0.358490 0.000000
0.964233 0.358490 0.000000
1.000000 0.358490 0.000000
0.000000 0.390747 0.000000
0.022034 0.390747 0.000000
0.047577 0.390747 0.000000
0.074677 0.390747 0.000000
0.102783 0.390747 0.000000
0.131683 0.390747 0.000000
0.161255 0.390747 0.000000
0.191376 0.390747 0.000000
0.221985 0.390747 0.000000
0.253052 0.390747 0.000000
0.284454 0.390747 0.000000
0.316254 0.390747 0.000000
0.348358 0.390747 0.000000
0.380737 0.390747 0.000000
0.413422 0.390747 0.000000
0.446350 0.390747 0.000000
0.479584 0.390747 0.000000
0.513000 0.390747 0.000000
0.546631 0.390747 0.000000
0.580475 0.390747 0.000000
0.614502 0.390747 0.000000
0.648743 0.390747 0.000000
0.683167 0.390747 0.000000
0.717743 0.390747 0.000000
0.752502 0.390747 0.000000
0.787415 0.390747 0.000000
0.822479 0.390747 0.000000
0.857727 0.390747 0.000000
0.893066 0.390747 0.000000
0.928589 0.390747 0.000000
0.964233 0.390747 0.000000
1.000000 0.390747 0.000000
0.000000 0.422974 0.000000
0.022034 0.422974 0.000000
0.047577 0.422974 0.000000
0.074677 0.422974 0.000000
0.102783 0.422974 0.000000
0.131683 0.422974 0.000000
0.161255 0.422974 0.000000
0.191376 0.422974 0.000000
0.221985 0.422974 0.000000
0.253052 0.422974 0.000000
0.284454 0.422974 0.000000
0.316254 0.422974 0.000000
0.348358 0.422974 0.000000
0.380737 0.422974 0.000000
0.413422 0.422974 0.000000
0.446350 0.422974 0.000000
0.479584 0.422974 0.000000
0.513000 0.422974 0.000000
0.546631 0.422974 0.000000
0.580475 0.422974 0.000000
0.614502 0.422974 0.000000
0.648743 0.422974 0.000000
0.683167 0.422974 0.000000
0.717743 0.422974 0.000000
0.752502 0.422974 0.000000
0.787415 0.422974 0.000000
0.822479 0.422974 0.000000
0.857727 0.422974 0.000000
0.893066 0.422974 0.000000
0.928589 0.422974 0.000000
0.964233 0.422974 0.000000
1.000000 0.422974 0.000000
0.000000 0.455170 0.000000
0.022034 0.455170 0.000000
0.047577 0.455170 0.000000
0.074677 0.455170 0.000000
0.102783 0.455170 0.000000
0.131683 0.455170 0.000000
0.161255 0.455170 0.000000
0.191376 0.455170 0.000000
0.221985 0.455170 0.000000
0.253052 0.455170 0.000000
0.284454 0.455170 0.000000
0.316254 0.455170 0.000000
0.348358 0.455170 0.000000
0.380737 0.455170 0.000000
0.413422 0.455170 0.000000
0.446350 0.455170 0.000000
0.479584 0.455170 0.000000
0.513000 0.455170 0.000000
0.546631 0.455170 0.000000
0.580475 0.455170 0.000000
0.614502 0.455170 0.000000
0.648743 0.455170 0.000000
0.683167 0.455170 0.000000
0.717743 0.455170 0.000000
0.752502 0.455170 0.000000
0.787415 0.455170 0.000000
0.822479 0.455170 0.000000
0.857727 0.455170 0.000000
0.893066 0.455170 0.000000
0.928589 0.455170 0.000000
0.964233 0.455170 0.000000
1.000000 0.455170 0.000000
0.000000 0.487335 0.000000
0.022034 0.487335 0.000000
0.047577 0.487335 0.000000
0.074677 0.487335 0.000000
0.102783 0.487335 0.000000
0.131683 0.487335 0.000000
0.161255 0.487335 0.000000
0.191376 0.487335 0.000000
0.221985 0.487335 0.000000
0.253052 0.487335 0.000000
0.284454 0.487335 0.000000
0.316254 0.487335 0.000000
0.348358 0.487335 0.000000
0.380737 0.487335 0.000000
0.413422 0.487335 0.000000
0.446350 0.487335 0.000000
0.479584 0.487335 0.000000
0.513000 0.487335 0.000000
0.546631 0.487335 0.000000
0.580475 0.487335 0.000000
0.614502 0.487335 0.000000
0.648743 0.487335 0.000000
0.683167 0.487335 0.000000
0.717743 0.487335 0.000000
0.752502 0.487335 0.000000
0.787415 0.487335 0.000000
0.822479 0.487335 0.000000
0.857727 0.487335 0.000000
0.893066 0.487335 0.000000
0.928589 0.487335 0.000000
0.964233 0.487335 0.000000
1.000000 0.487335 0.000000
0.000000 0.519531 0.000000
0.022034 0.519531 0.000000
0.047577 0.519531 0.000000
0.074677 0.519531 0.000000
0.102783 0.519531 0.000000
0.131683 0.519531 0.000000
0.161255 0.519531 0.000000
0.191376 0.519531 0.000000
0.221985 0.519531 0.000000
0.253052 0.519531 0.000000
0.284454 0.519531 0.000000
0.316254 0.519531 0.000000
0.348358 0.519531 0.000000
0.380737 0.519531 0.000000
0.413422 0.519531 0.000000
0.446350 0.519531 0.000000
0.479584 0.519531 0.000000
0.513000 0.519531 0.000000
0.546631 0.519531 0.000000
0.580475 0.519531 0.000000
0.614502 0.519531 0.000000
0.648743 0.519531 0.000000
0.683167 0.519531 0.000000
0.717743 0.519531 0.000000
0.752502 0.519531 0.000000
0.787415 0.519531 0.000000
0.822479 0.519531 0.000000
0.857727 0.519531 0.000000
0.893066 0.519531 0.000000
0.928589 0.519531 0.000000
0.964233 0.519531 0.000000
1.000000 0.519531 0.000000
0.000000 0.551666 0.000000
0.022034 0.551666 0.000000
0.047577 0.551666 0.000000
0.074677 0.551666 0.000000
0.102783 0.551666 0.000000
0.131683 0.551666 0.000000
0.161255 0.551666 0.000000
0.191376 0.551666 0.000000
0.221985 0.551666 0.000000
0.253052 0.551666 0.000000
0.284454 0.551666 0.000000
0.316254 0.551666 0.000000
0.348358 0.551666 0.000000
0.380737 0.551666 0.000000
0.413422 0.551666 0.000000
0.446350 0.551666 0.000000
0.479584 0.551666 0.000000
0.513000 0.551666 0.000000
0.546631 0.551666 0.000000
0.580475 0.551666 0.000000
0.614502 0.551666 0.000000
0.648743 0.551666 0.000000
0.683167 0.551666 0.000000
0.717743 0.551666 0.000000
0.752502 0.551666 0.000000
0.787415 0.551666 0.000000
0.822479 0.551666 0.000000
0.857727 0.551666 0.000000
0.893066 0.551666 0.000000
0.928589 0.551666 0.000000
0.964233 0.551666 0.000000
1.000000 0.551666 0.000000
0.000000 0.583801 0.000000
0.022034 0.583801 0.000000
0.047577 0.583801 0.000000
0.074677 0.583801 0.000000
0.102783 0.583801 0.000000
0.131683 0.583801 0.000000
0.161255 0.583801 0.000000
0.191376 0.583801 0.000000
0.221985 0.583801 0.000000
0.253052 0.583801 0.000000
0.284454 0.583801 0.000000
0.316254 0.583801 0.000000
0.348358 0.583801 0.000000
0.380737 0.583801 0.000000
0.413422 0.583801 0.000000
0.446350 0.583801 0.000000
0.479584 0.583801 0.000000
0.513000 0.583801 0.000000
0.546631 0.583801 0.000000
0.580475 0.583801 0.000000
0.614502 0.583801 0.000000
0.648743 0.583801 0.000000
0.683167 0.583801 0.000000
0.717743 0.583801 0.000000
0.752502 0.583801 0.000000
0.787415 0.583801 0.000000
0.822479 0.583801 0.000000
0.857727 0.583801 0.000000
0.893066 0.583801 0.000000
0.928589 0.583801 0.000000
0.964233 0.583801 0.000000
1.000000 0.583801 0.000000
0.000000 0.615906 0.000000
0.022034 0.615906 0.000000
0.047577 0.615906 0.000000
0.074677 0.615906 0.000000
0.102783 0.615906 0.000000
0.131683 0.615906 0.000000
0.161255 0.615906 0.000000
0.191376 0.615906 0.000000
0.221985 0.615906 0.000000
0.253052 0.615906 0.000000
0.284454 0.615906 0.000000
0.316254 0.615906 0.000000
0.348358 0.615906 0.000000
0.380737 0.615906 0.000000
0.413422 0.615906 0.000000
0.446350 0.615906 0.000000
0.479584 0.615906 0.000000
0.513000 0.615906 0.000000
0.546631 0.615906 0.000000
0.580475 0.615906 0.000000
0.614502 0.615906 0.000000
0.648743 0.615906 0.000000
0.683167 0.615906 0.000000
0.717743 0.615906 0.000000
0.752502 0.615906 0.000000
0.787415 0.615906 0.000000
0.822479 0.615906 0.000000
0.857727 0.615906 0.000000
0.893066 0.615906 0.000000
0.928589 0.615906 0.000000
0.964233 0.615906 0.000000
1.000000 0.615906 0.000000
0.000000 0.647980 0.000000
0.022034 0.647980 0.000000
0.047577 0.647980 0.000000
0.074677 0.647980 0.000000
0.102783 0.647980 0.000000
0.131683 0.647980 0.000000
0.161255 0.647980 0.000000
0.191376 0.647980 0.000000
0.221985 0.647980 0.000000
0.253052 0.647980 0.000000
0.284454 0.647980 0.000000
0.316254 0.647980 0.000000
0.348358 0.647980 0.000000
0.380737 0.647980 0.000000
0.413422 0.647980 0.000000
0.446350 0.647980 0.000000
0.479584 0.647980 0.000000
0.513000 0.647980 0.000000
0.546631 0.647980 0.000000
0.580475 0.647980 0.000000
0.614502 0.647980 0.000000
0.648743 0.647980 0.000000
0.683167 0.647980 0.000000
0.717743 0.647980 0.000000
0.752502 0.647980 0.000000
0.787415 0.647980 0.000000
0.822479 0.647980 0.000000
0.857727 0.647980 0.000000
0.893066 0.647980 0.000000
0.928589 0.647980 0.000000
0.964233 0.647980 0.000000
1.000000 0.647980 0.000000
0.000000 0.680054 0.000000
0.022034 0.680054 0.000000
0.047577 0.680054 0.000000
0.074677 0.680054 0.000000
0.102783 0.680054 0.000000
0.131683 0.680054 0.000000
0.161255 0.680054 0.000000
0.191376 0.680054 0.000000
0.221985 0.680054 0.000000
0.253052 0.680054 0.000000
0.284454 0.680054 0.000000
0.316254 0.680054 0.000000
0.348358 0.680054 0.000000
0.380737 0.680054 0.000000
0.413422 0.680054 0.000000
0.446350 0.680054 0.000000
0.479584 0.680054 0.000000
0.513000 0.680054 0.000000
0.546631 0.680054 0.000000
0.580475 0.680054 0.000000
0.614502 0.680054 0.000000
0.648743 0.680054 0.000000
0.683167 0.680054 0.000000
0.717743 0.680054 0.000000
0.752502 0.680054 0.000000
0.787415 0.680054 0.000000
0.822479 0.680054 0.000000
0.857727 0.680054 0.000000
0.893066 0.680054 0.000000
0.928589 0.680054 0.000000
0.964233 0.680054 0.000000
1.000000 0.680054 0.000000
0.000000 0.712097 0.000000
0.022034 0.712097 0.000000
0.047577 0.712097 0.000000
0.074677 0.712097 0.000000
0.102783 0.712097 0.000000
0.131683 0.712097 0.000000
0.161255 0.712097 0.000000
0.191376 0.712097 0.000000
0.221985 0.712097 0.000000
0.253052 0.712097 0.000000
0.284454 0.712097 0.000000
0.316254 0.712097 0.000000
0.348358 0.712097 0.000000
0.380737 0.712097 0.000000
0.413422 0.712097 0.000000
0.446350 0.712097 0.000000
0.479584 0.712097 0.000000
0.513000 0.712097 0.000000
0.546631 0.712097 0.000000
0.580475 0.712097 0.000000
0.614502 0.712097 0.000000
0.648743 0.712097 0.000000
0.683167 0.712097 0.000000
0.717743 0.712097 0.000000
0.752502 0.712097 0.000000
0.787415 0.712097 0.000000
0.822479 0.712097 0.000000
0.857727 0.712097 0.000000
0.893066 0.712097 0.000000
0.928589 0.712097 0.000000
0.964233 0.712097 0.000000
1.000000 0.712097 0.000000
0.000000 0.744141 0.000000
0.022034 0.744141 0.000000
0.047577 0.744141 0.000000
0.074677 0.744141 0.000000
0.102783 0.744141 0.000000
0.131683 0.744141 0.000000
0.161255 0.744141 0.000000
0.191376 0.744141 0.000000
0.221985 0.744141 0.000000
0.253052 0.744141 0.000000
0.284454 0.744141 0.000000
0.316254 0.744141 0.000000
0.348358 0.744141 0.000000
0.380737 0.744141 0.000000
0.413422 0.744141 0.000000
0.446350 0.744141 0.000000
0.479584 0.744141 0.000000
0.513000 0.744141 0.000000
0.546631 0.744141 0.000000
0.580475 0.744141 0.000000
0.614502 0.744141 0.000000
0.648743 0.744141 0.000000
0.683167 0.744141 0.000000
0.717743 0.744141 0.000000
0.752502 0.744141 0.000000
0.787415 0.744141 0.000000
0.822479 0.744141 0.000000
0.857727 0.744141 0.000000
0.893066 0.744141 0.000000
0.928589 0.744141 0.000000
0.964233 0.744141 0.000000
1.000000 0.744141 0.000000
0.000000 0.776154 0.000000
0.022034 0.776154 0.000000
0.047577 0.776154 0.000000
0.074677 0.776154 0.000000
0.102783 0.776154 0.000000
0.131683 0.776154 0.000000
0.161255 0.776154 0.000000
0.191376 0.776154 0.000000
0.221985 0.776154 0.000000
0.253052 0.776154 0.000000
0.284454 0.776154 0.000000
0.316254 0.776154 0.000000
0.348358 0.776154 0.000000
0.380737 0.776154 0.000000
0.413422 0.776154 0.000000
0.446350 0.776154 0.000000
0.479584 0.776154 0.000000
0.513000 0.776154 0.000000
0.546631 0.776154 0.000000
0.580475 0.776154 0.000000
0.614502 0.776154 0.000000
0.648743 0.776154 0.000000
0.683167 0.776154 0.000000
0.717743 0.776154 0.000000
0.752502 0.776154 0.000000
0.787415 0.776154 0.000000
0.822479 0.776154 0.000000
0.857727 0.776154 0.000000
0.893066 0.776154 0.000000
0.928589 0.776154 0.000000
0.964233 0.776154 0.000000
1.000000 0.776154 0.000000
0.000000 0.808167 0.000000
0.022034 0.808167 0.000000
0.047577 0.808167 0.000000
0.074677 0.808167 0.000000
0.102783 0.808167 0.000000
0.131683 0.808167 0.000000
0.161255 0.808167 0.000000
0.191376 0.808167 0.000000
0.221985 0.808167 0.000000
0.253052 0.808167 0.000000
0.284454 0.808167 0.000000
0.316254 0.808167 0.000000
0.348358 0.808167 0.000000
0.380737 0.808167 0.000000
0.413422 0.808167 0.000000
0.446350 0.808167 0.000000
0.479584 0.808167 0.000000
0.513000 0.808167 0.000000
0.546631 0.808167 0.000000
0.580475 0.808167 0.000000
0.614502 0.808167 0.000000
0.648743 0.808167 0.000000
0.683167 0.808167 0.000000
0.717743 0.808167 0.000000
0.752502 0.808167 0.000000
0.787415 0.808167 0.000000
0.822479 0.808167 0.000000
0.857727 0.808167 0.000000
0.893066 0.808167 0.000000
0.928589 0.808167 0.000000
0.964233 0.808167 0.000000
1.000000 0.808167 0.000000
0.000000 0.840179 0.000000
0.022034 0.840179 0.000000
0.047577 0.840179 0.000000
0.074677 0.840179 0.000000
0.102783 0.840179 0.000000
0.131683 0.840179 0.000000
0.161255 0.840179 0.000000
0.191376 0.840179 0.000000
0.221985 0.840179 0.000000
0.253052 0.840179 0.000000
0.284454 0.840179 0.000000
0.316254 0.840179 0.000000
0.348358 0.840179 0.000000
0.380737 0.840179 0.000000
0.413422 0.840179 0.000000
0.446350 0.840179 0.000000
0.479584 0.840179 0.000000
0.513000 0.840179 0.000000
0.546631 0.840179 0.000000
0.580475 0.840179 0.000000
0.614502 0.840179 0.000000
0.648743 0.840179 0.000000
0.683167 0.840179 0.000000
0.717743 0.840179 0.000000
0.752502 0.840179 0.000000
0.787415 0.840179 0.000000
0.822479 0.840179 0.000000
0.857727 0.840179 0.000000
0.893066 0.840179 0.000000
0.928589 0.840179 0.000000
0.964233 0.840179 0.000000
1.000000 0.840179 0.000000
0.000000 0.872162 0.000000
0.022034 0.872162 0.000000
0.047577 0.872162 0.000000
0.074677 0.872162 0.000000
0.102783 0.872162 0.000000
0.131683 0.872162 0.000000
0.161255 0.872162 0.000000
0.191376 0.872162 0.000000
0.221985 0.872162 0.000000
0.253052 0.872162 0.000000
0.284454 0.872162 0.000000
0.316254 0.872162 0.000000
0.348358 0.872162 0.000000
0.380737 0.872162 0.000000
0.413422 0.872162 0.000000
0.446350 0.872162 0.000000
0.479584 0.872162 0.000000
