dist/luts/Industry - Metals 3-Large.CUBE
#Created by: Adobe Photoshop Export Color Lookup Plugin
TITLE "Industry - Metals 3-Large.psd"
#LUT size
LUT_3D_SIZE 8
#data domain
#LUT data points
DOMAIN_MIN 0.000000 0.000000 0.000000
DOMAIN_MAX 0.903226 0.903226 0.903226
0.000000 0.000000 0.000000
0.102783 0.000000 0.000000
0.221985 0.000000 0.000000
0.348358 0.000000 0.000000
0.479584 0.000000 0.000000
0.614502 0.000000 0.000000
0.752502 0.000000 0.000000
0.893066 0.000000 0.000000
0.000000 0.131683 0.000000
0.102783 0.131683 0.000000
0.221985 0.131683 0.000000
0.348358 0.131683 0.000000
0.479584 0.131683 0.000000
0.614502 0.131683 0.000000
0.752502 0.131683 0.000000
0.893066 0.131683 0.000000
0.000000 0.261536 0.000000
0.102783 0.261536 0.000000
0.221985 0.261536 0.000000
0.348358 0.261536 0.000000
0.479584 0.261536 0.000000
0.614502 0.261536 0.000000
0.752502 0.261536 0.000000
0.893066 0.261536 0.000000
0.000000 0.390747 0.000000
0.102783 0.390747 0.000000
0.221985 0.390747 0.000000
0.348358 0.390747 0.000000
0.479584 0.390747 0.000000
0.614502 0.390747 0.000000
0.752502 0.390747 0.000000
0.893066 0.390747 0.000000
0.000000 0.519531 0.000000
0.102783 0.519531 0.000000
0.221985 0.519531 0.000000
0.348358 0.519531 0.000000
0.479584 0.519531 0.000000
0.614502 0.519531 0.000000
0.752502 0.519531 0.000000
0.893066 0.519531 0.000000
0.000000 0.647980 0.000000
0.102783 0.647980 0.000000
0.221985 0.647980 0.000000
0.348358 0.647980 0.000000
0.479584 0.647980 0.000000
0.614502 0.647980 0.000000
0.752502 0.647980 0.000000
0.893066 0.647980 0.000000
0.000000 0.776154 0.000000
0.102783 0.776154 0.000000
0.221985 0.776154 0.000000
0.348358 0.776154 0.000000
0.479584 0.776154 0.000000
0.614502 0.776154 0.000000
0.752502 0.776154 0.000000
0.893066 0.776154 0.000000
0.000000 0.904144 0.000000
0.102783 0.904144 0.000000
0.221985 0.904144 0.000000
0.348358 0.904144 0.000000
0.479584 0.904144 0.000000
0.614502 0.904144 0.000000
0.752502 0.904144 0.000000
0.893066 0.904144 0.000000
0.000000 0.000000 0.158081
0.102783 0.000000 0.158081
0.221985 0.000000 0.158081
0.348358 0.000000 0.158081
0.479584 0.000000 0.158081
0.614502 0.000000 0.158081
0.752502 0.000000 0.158081
0.893066 0.000000 0.158081
0.000000 0.131683 0.158081
0.102783 0.131683 0.158081
0.221985 0.131683 0.158081
0.348358 0.131683 0.158081
0.479584 0.131683 0.158081
0.614502 0.131683 0.158081
0.752502 0.131683 0.158081
0.893066 0.131683 0.158081
0.000000 0.261536 0.158081
0.102783 0.261536 0.158081
0.221985 0.261536 0.158081
0.348358 0.261536 0.158081
0.479584 0.261536 0.158081
0.614502 0.261536 0.158081
0.752502 0.261536 0.158081
0.893066 0.261536 0.158081
0.000000 0.390747 0.158081
0.102783 0.390747 0.158081
0.221985 0.390747 0.158081
0.348358 0.390747 0.158081
0.479584 0.390747 0.158081
0.614502 0.390747 0.158081
0.752502 0.390747 0.158081
0.893066 0.390747 0.158081
0.000000 0.519531 0.158081
0.102783 0.519531 0.158081
0.221985 0.519531 0.158081
0.348358 0.519531 0.158081
0.479584 0.519531 0.158081
0.614502 0.519531 0.158081
0.752502 0.519531 0.158081
0.893066 0.519531 0.158081
0.000000 0.647980 0.158081
0.102783 0.647980 0.158081
0.221985 0.647980 0.158081
0.348358 0.647980 0.158081
0.479584 0.647980 0.158081
0.614502 0.647980 0.158081
0.752502 0.647980 0.158081
0.893066 0.647980 0.158081
0.000000 0.776154 0.158081
0.102783 0.776154 0.158081
0.221985 0.776154 0.158081
0.348358 0.776154 0.158081
0.479584 0.776154 0.158081
0.614502 0.776154 0.158081
0.752502 0.776154 0.158081
0.893066 0.776154 0.158081
0.000000 0.904144 0.158081
0.102783 0.904144 0.158081
0.221985 0.904144 0.158081
0.348358 0.904144 0.158081
0.479584 0.904144 0.158081
0.614502 0.904144 0.158081
0.752502 0.904144 0.158081
0.893066 0.904144 0.158081
0.000000 0.000000 0.295135
0.102783 0.000000 0.295135
0.221985 0.000000 0.295135
0.348358 0.000000 0.295135
0.479584 0.000000 0.295135
0.614502 0.000000 0.295135
0.752502 0.000000 0.295135
0.893066 0.000000 0.295135
0.000000 0.131683 0.295135
0.102783 0.131683 0.295135
0.221985 0.131683 0.295135
0.348358 0.131683 0.295135
0.479584 0.131683 0.295135
0.614502 0.131683 0.295135
0.752502 0.131683 0.295135
0.893066 0.131683 0.295135
0.000000 0.261536 0.295135
0.102783 0.261536 0.295135
0.221985 0.261536 0.295135
0.348358 0.261536 0.295135
0.479584 0.261536 0.295135
0.614502 0.261536 0.295135
0.752502 0.261536 0.295135
0.893066 0.261536 0.295135
0.000000 0.390747 0.295135
0.102783 0.390747 0.295135
0.221985 0.390747 0.295135
0.348358 0.390747 0.295135
0.479584 0.390747 0.295135
0.614502 0.390747 0.295135
0.752502 0.390747 0.295135
0.893066 0.390747 0.295135
0.000000 0.519531 0.295135
0.102783 0.519531 0.295135
0.221985 0.519531 0.295135
0.348358 0.519531 0.295135
0.479584 0.519531 0.295135
0.614502 0.519531 0.295135
0.752502 0.519531 0.295135
0.893066 0.519531 0.295135
0.000000 0.647980 0.295135
0.102783 0.647980 0.295135
0.221985 0.647980 0.295135
0.348358 0.647980 0.295135
0.479584 0.647980 0.295135
0.614502 0.647980 0.295135
0.752502 0.647980 0.295135
0.893066 0.647980 0.295135
0.000000 0.776154 0.295135
0.102783 0.776154 0.295135
0.221985 0.776154 0.295135
0.348358 0.776154 0.295135
0.479584 0.776154 0.295135
0.614502 0.776154 0.295135
0.752502 0.776154 0.295135
0.893066 0.776154 0.295135
0.000000 0.904144 0.295135
0.102783 0.904144 0.295135
0.221985 0.904144 0.295135
0.348358 0.904144 0.295135
0.479584 0.904144 0.295135
0.614502 0.904144 0.295135
0.752502 0.904144 0.295135
0.893066 0.904144 0.295135
0.000000 0.000000 0.425262
0.102783 0.000000 0.425262
0.221985 0.000000 0.425262
0.348358 0.000000 0.425262
0.479584 0.000000 0.425262
0.614502 0.000000 0.425262
0.752502 0.000000 0.425262
0.893066 0.000000 0.425262
0.000000 0.131683 0.425262
0.102783 0.131683 0.425262
0.221985 0.131683 0.425262
0.348358 0.131683 0.425262
0.479584 0.131683 0.425262
0.614502 0.131683 0.425262
0.752502 0.131683 0.425262
0.893066 0.131683 0.425262
0.000000 0.261536 0.425262
0.102783 0.261536 0.425262
0.221985 0.261536 0.425262
0.348358 0.261536 0.425262
0.479584 0.261536 0.425262
0.614502 0.261536 0.425262
0.752502 0.261536 0.425262
0.893066 0.261536 0.425262
0.000000 0.390747 0.425262
0.102783 0.390747 0.425262
0.221985 0.390747 0.425262
0.348358 0.390747 0.425262
0.479584 0.390747 0.425262
0.614502 0.390747 0.425262
0.752502 0.390747 0.425262
0.893066 0.390747 0.425262
0.000000 0.519531 0.425262
0.102783 0.519531 0.425262
0.221985 0.519531 0.425262
0.348358 0.519531 0.425262
0.479584 0.519531 0.425262
0.614502 0.519531 0.425262
0.752502 0.519531 0.425262
0.893066 0.519531 0.425262
0.000000 0.647980 0.425262
0.102783 0.647980 0.425262
0.221985 0.647980 0.425262
0.348358 0.647980 0.425262
0.479584 0.647980 0.425262
0.614502 0.647980 0.425262
0.752502 0.647980 0.425262
0.893066 0.647980 0.425262
0.000000 0.776154 0.425262
0.102783 0.776154 0.425262
0.221985 0.776154 0.425262
0.348358 0.776154 0.425262
0.479584 0.776154 0.425262
0.614502 0.776154 0.425262
0.752502 0.776154 0.425262
0.893066 0.776154 0.425262
0.000000 0.904144 0.425262
0.102783 0.904144 0.425262
0.221985 0.904144 0.425262
0.348358 0.904144 0.425262
0.479584 0.904144 0.425262
0.614502 0.904144 0.425262
0.752502 0.904144 0.425262
0.893066 0.904144 0.425262
0.000000 0.000000 0.551117
0.102783 0.000000 0.551117
0.221985 0.000000 0.551117
0.348358 0.000000 0.551117
0.479584 0.000000 0.551117
0.614502 0.000000 0.551117
0.752502 0.000000 0.551117
0.893066 0.000000 0.551117
0.000000 0.131683 0.551117
0.102783 0.131683 0.551117
0.221985 0.131683 0.551117
0.348358 0.131683 0.551117
0.479584 0.131683 0.551117
0.614502 0.131683 0.551117
0.752502 0.131683 0.551117
0.893066 0.131683 0.551117
0.000000 0.261536 0.551117
0.102783 0.261536 0.551117
0.221985 0.261536 0.551117
0.348358 0.261536 0.551117
0.479584 0.261536 0.551117
0.614502 0.261536 0.551117
0.752502 0.261536 0.551117
0.893066 0.261536 0.551117
0.000000 0.390747 0.551117
0.102783 0.390747 0.551117
0.221985 0.390747 0.551117
0.348358 0.390747 0.551117
0.479584 0.390747 0.551117
0.614502 0.390747 0.551117
0.752502 0.390747 0.551117
0.893066 0.390747 0.551117
0.000000 0.519531 0.551117
0.102783 0.519531 0.551117
0.221985 0.519531 0.551117
0.348358 0.519531 0.551117
0.479584 0.519531 0.551117
0.614502 0.519531 0.551117
0.752502 0.519531 0.551117
0.893066 0.519531 0.551117
0.000000 0.647980 0.551117
0.102783 0.647980 0.551117
0.221985 0.647980 0.551117
0.348358 0.647980 0.551117
0.479584 0.647980 0.551117
0.614502 0.647980 0.551117
0.752502 0.647980 0.551117
0.893066 0.647980 0.551117
0.000000 0.776154 0.551117
0.102783 0.776154 0.551117
0.221985 0.776154 0.551117
0.348358 0.776154 0.551117
0.479584 0.776154 0.551117
0.614502 0.776154 0.551117
0.752502 0.776154 0.551117
0.893066 0.776154 0.551117
0.000000 0.904144 0.551117
0.102783 0.904144 0.551117
0.221985 0.904144 0.551117
0.348358 0.904144 0.551117
0.479584 0.904144 0.551117
0.614502 0.904144 0.551117
0.752502 0.904144 0.551117
0.893066 0.904144 0.551117
0.000000 0.000000 0.673798
0.102783 0.000000 0.673798
0.221985 0.000000 0.673798
0.348358 0.000000 0.673798
0.479584 0.000000 0.673798
0.614502 0.000000 0.673798
0.752502 0.000000 0.673798
0.893066 0.000000 0.673798
0.000000 0.131683 0.673798
0.102783 0.131683 0.673798
0.221985 0.131683 0.673798
0.348358 0.131683 0.673798
0.479584 0.131683 0.673798
0.614502 0.131683 0.673798
0.752502 0.131683 0.673798
0.893066 0.131683 0.673798
0.000000 0.261536 0.673798
0.102783 0.261536 0.673798
0.221985 0.261536 0.673798
0.348358 0.261536 0.673798
0.479584 0.261536 0.673798
0.614502 0.261536 0.673798
0.752502 0.261536 0.673798
0.893066 0.261536 0.673798
0.000000 0.390747 0.673798
0.102783 0.390747 0.673798
0.221985 0.390747 0.673798
0.348358 0.390747 0.673798
0.479584 0.390747 0.673798
0.614502 0.390747 0.673798
0.752502 0.390747 0.673798
0.893066 0.390747 0.673798
0.000000 0.519531 0.673798
0.102783 0.519531 0.673798
0.221985 0.519531 0.673798
0.348358 0.519531 0.673798
0.479584 0.519531 0.673798
0.614502 0.519531 0.673798
0.752502 0.519531 0.673798
0.893066 0.519531 0.673798
0.000000 0.647980 0.673798
0.102783 0.647980 0.673798
0.221985 0.647980 0.673798
0.348358 0.647980 0.673798
0.479584 0.647980 0.673798
0.614502 0.647980 0.673798
0.752502 0.647980 0.673798
0.893066 0.647980 0.673798
0.000000 0.776154 0.673798
0.102783 0.776154 0.673798
0.221985 0.776154 0.673798
0.348358 0.776154 0.673798
0.479584 0.776154 0.673798
0.614502 0.776154 0.673798
0.752502 0.776154 0.673798
0.893066 0.776154 0.673798
0.000000 0.904144 0.673798
0.102783 0.904144 0.673798
0.221985 0.904144 0.673798
0.348358 0.904144 0.673798
0.479584 0.904144 0.673798
0.614502 0.904144 0.673798
0.752502 0.904144 0.673798
0.893066 0.904144 0.673798
0.000000 0.000000 0.794098
0.102783 0.000000 0.794098
0.221985 0.000000 0.794098
0.348358 0.000000 0.794098
0.479584 0.000000 0.794098
0.614502 0.000000 0.794098
0.752502 0.000000 0.794098
0.893066 0.000000 0.794098
0.000000 0.131683 0.794098
0.102783 0.131683 0.794098
0.221985 0.131683 0.794098
0.348358 0.131683 0.794098
0.479584 0.131683 0.794098
0.614502 0.131683 0.794098
0.752502 0.131683 0.794098
0.893066 0.131683 0.794098
0.000000 0.261536 0.794098
0.102783 0.261536 0.794098
0.221985 0.261536 0.794098
0.348358 0.261536 0.794098
0.479584 0.261536 0.794098
0.614502 0.261536 0.794098
0.752502 0.261536 0.794098
0.893066 0.261536 0.794098
0.000000 0.390747 0.794098
0.102783 0.390747 0.794098
0.221985 0.390747 0.794098
0.348358 0.390747 0.794098
0.479584 0.390747 0.794098
0.614502 0.390747 0.794098
0.752502 0.390747 0.794098
0.893066 0.390747 0.794098
0.000000 0.519531 0.794098
0.102783 0.519531 0.794098
0.221985 0.519531 0.794098
0.348358 0.519531 0.794098
0.479584 0.519531 0.794098
0.614502 0.519531 0.794098
0.752502 0.519531 0.794098
0.893066 0.519531 0.794098
0.000000 0.647980 0.794098
0.102783 0.647980 0.794098
0.221985 0.647980 0.794098
0.348358 0.647980 0.794098
0.479584 0.647980 0.794098
0.614502 0.647980 0.794098
0.752502 0.647980 0.794098
0.893066 0.647980 0.794098
0.000000 0.776154 0.794098
0.102783 0.776154 0.794098
0.221985 0.776154 0.794098
0.348358 0.776154 0.794098
0.479584 0.776154 0.794098
0.614502 0.776154 0.794098
0.752502 0.776154 0.794098
0.893066 0.776154 0.794098
0.000000 0.904144 0.794098
0.102783 0.904144 0.794098
0.221985 0.904144 0.794098
0.348358 0.904144 0.794098
0.479584 0.904144 0.794098
0.614502 0.904144 0.794098
0.752502 0.904144 0.794098
0.893066 0.904144 0.794098
0.000000 0.000000 0.912384
0.102783 0.000000 0.912384
0.221985 0.000000 0.912384
0.348358 0.000000 0.912384
0.479584 0.000000 0.912384
0.614502 0.000000 0.912384
0.752502 0.000000 0.912384
0.893066 0.000000 0.912384
0.000000 0.131683 0.912384
0.102783 0.131683 0.912384
0.221985 0.131683 0.912384
0.348358 0.131683 0.912384
0.479584 0.131683 0.912384
0.614502 0.131683 0.912384
0.752502 0.131683 0.912384
0.893066 0.131683 0.912384
0.000000 0.261536 0.912384
0.102783 0.261536 0.912384
0.221985 0.261536 0.912384
0.348358 0.261536 0.912384
0.479584 0.261536 0.912384
0.614502 0.261536 0.912384
0.752502 0.261536 0.912384
0.893066 0.261536 0.912384
0.000000 0.390747 0.912384
0.102783 0.390747 0.912384
0.221985 0.390747 0.912384
0.348358 0.390747 0.912384
0.479584 0.390747 0.912384
0.614502 0.390747 0.912384
0.752502 0.390747 0.912384
0.893066 0.390747 0.912384
0.000000 0.519531 0.912384
0.102783 0.519531 0.912384
0.221985 0.519531 0.912384
0.348358 0.519531 0.912384
0.479584 0.519531 0.912384
0.614502 0.519531 0.912384
0.752502 0.519531 0.912384
0.893066 0.519531 0.912384
0.000000 0.647980 0.912384
0.102783 0.647980 0.912384
0.221985 0.647980 0.912384
0.348358 0.647980 0.912384
0.479584 0.647980 0.912384
0.614502 0.647980 0.912384
0.752502 0.647980 0.912384
0.893066 0.647980 0.912384
0.000000 0.776154 0.912384
0.102783 0.776154 0.912384
0.221985 0.776154 0.912384
0.348358 0.776154 0.912384
0.479584 0.776154 0.912384
0.614502 0.776154 0.912384
0.752502 0.776154 0.912384
0.893066 0.776154 0.912384
0.000000 0.904144 0.912384
0.102783 0.904144 0.912384
0.221985 0.904144 0.912384
0.348358 0.904144 0.912384
0.479584 0.904144 0.912384
0.614502 0.904144 0.912384
0.752502 0.904144 0.912384
0.893066 0.904144 0.912384
