dist/luts/IT programmer working on desktop computer-Large.CUBE
#Created by: Adobe Photoshop Export Color Lookup Plugin
TITLE "IT programmer working on desktop computer-Large.psd"
#LUT size
LUT_3D_SIZE 5
#data domain
#LUT data points
DOMAIN_MIN 0.000000 0.000000 0.000000
DOMAIN_MAX 0.903226 0.903226 0.903226
0.000000 0.000000 0.000000
0.208801 0.000000 0.000000
0.433105 0.000000 0.000000
0.663696 0.000000 0.000000
0.898407 0.000000 0.000000
0.000000 0.219055 0.000000
0.208801 0.219055 0.000000
0.433105 0.219055 0.000000
0.663696 0.219055 0.000000
0.898407 0.219055 0.000000
0.000000 0.444336 0.000000
0.208801 0.444336 0.000000
0.433105 0.444336 0.000000
0.663696 0.444336 0.000000
0.898407 0.444336 0.000000
0.000000 0.672058 0.000000
0.208801 0.672058 0.000000
0.433105 0.672058 0.000000
0.663696 0.672058 0.000000
0.898407 0.672058 0.000000
0.000000 0.901367 0.000000
0.208801 0.901367 0.000000
0.433105 0.901367 0.000000
0.663696 0.901367 0.000000
0.898407 0.901367 0.000000
0.000000 0.000000 0.245636
0.208801 0.000000 0.245636
0.433105 0.000000 0.245636
0.663696 0.000000 0.245636
0.898407 0.000000 0.245636
0.000000 0.219055 0.245636
0.208801 0.219055 0.245636
0.433105 0.219055 0.245636
0.663696 0.219055 0.245636
0.898407 0.219055 0.245636
0.000000 0.444336 0.245636
0.208801 0.444336 0.245636
0.433105 0.444336 0.245636
0.663696 0.444336 0.245636
0.898407 0.444336 0.245636
0.000000 0.672058 0.245636
0.208801 0.672058 0.245636
0.433105 0.672058 0.245636
0.663696 0.672058 0.245636
0.898407 0.672058 0.245636
0.000000 0.901367 0.245636
0.208801 0.901367 0.245636
0.433105 0.901367 0.245636
0.663696 0.901367 0.245636
0.898407 0.901367 0.245636
0.000000 0.000000 0.472382
0.208801 0.000000 0.472382
0.433105 0.000000 0.472382
0.663696 0.000000 0.472382
0.898407 0.000000 0.472382
0.000000 0.219055 0.472382
0.208801 0.219055 0.472382
0.433105 0.219055 0.472382
0.663696 0.219055 0.472382
0.898407 0.219055 0.472382
0.000000 0.444336 0.472382
0.208801 0.444336 0.472382
0.433105 0.444336 0.472382
0.663696 0.444336 0.472382
0.898407 0.444336 0.472382
0.000000 0.672058 0.472382
0.208801 0.672058 0.472382
0.433105 0.672058 0.472382
0.663696 0.672058 0.472382
0.898407 0.672058 0.472382
0.000000 0.901367 0.472382
0.208801 0.901367 0.472382
0.433105 0.901367 0.472382
0.663696 0.901367 0.472382
0.898407 0.901367 0.472382
0.000000 0.000000 0.692535
0.208801 0.000000 0.692535
0.433105 0.000000 0.692535
0.663696 0.000000 0.692535
0.898407 0.000000 0.692535
0.000000 0.219055 0.692535
0.208801 0.219055 0.692535
0.433105 0.219055 0.692535
0.663696 0.219055 0.692535
0.898407 0.219055 0.692535
0.000000 0.444336 0.692535
0.208801 0.444336 0.692535
0.433105 0.444336 0.692535
0.663696 0.444336 0.692535
0.898407 0.444336 0.692535
0.000000 0.672058 0.692535
0.208801 0.672058 0.692535
0.433105 0.672058 0.692535
0.663696 0.672058 0.692535
0.898407 0.672058 0.692535
0.000000 0.901367 0.692535
0.208801 0.901367 0.692535
0.433105 0.901367 0.692535
0.663696 0.901367 0.692535
0.898407 0.901367 0.692535
0.000000 0.000000 0.908447
0.208801 0.000000 0.908447
0.433105 0.000000 0.908447
0.663696 0.000000 0.908447
0.898407 0.000000 0.908447
0.000000 0.219055 0.908447
0.208801 0.219055 0.908447
0.433105 0.219055 0.908447
0.663696 0.219055 0.908447
0.898407 0.219055 0.908447
0.000000 0.444336 0.908447
0.208801 0.444336 0.908447
0.433105 0.444336 0.908447
0.663696 0.444336 0.908447
0.898407 0.444336 0.908447
0.000000 0.672058 0.908447
0.208801 0.672058 0.908447
0.433105 0.672058 0.908447
0.663696 0.672058 0.908447
0.898407 0.672058 0.908447
0.000000 0.901367 0.908447
0.208801 0.901367 0.908447
0.433105 0.901367 0.908447
0.663696 0.901367 0.908447
0.898407 0.901367 0.908447
