dist/luts/IT programmer working on desktop computer-Large.CUBE
#Created by: Adobe Photoshop Export Color Lookup Plugin
TITLE "IT programmer working on desktop computer-Large.psd"
#LUT size
LUT_3D_SIZE 8
#data domain
#LUT data points
DOMAIN_MIN 0.000000 0.000000 0.000000
DOMAIN_MAX 0.903226 0.903226 0.903226
0.000000 0.000000 0.000000
0.115845 0.000000 0.000000
0.240295 0.000000 0.000000
0.368225 0.000000 0.000000
0.498474 0.000000 0.000000
0.630463 0.000000 0.000000
0.763855 0.000000 0.000000
0.898407 0.000000 0.000000
0.000000 0.123749 0.000000
0.115845 0.123749 0.000000
0.240295 0.123749 0.000000
0.368225 0.123749 0.000000
0.498474 0.123749 0.000000
0.630463 0.123749 0.000000
0.763855 0.123749 0.000000
0.898407 0.123749 0.000000
0.000000 0.251007 0.000000
0.115845 0.251007 0.000000
0.240295 0.251007 0.000000
0.368225 0.251007 0.000000
0.498474 0.251007 0.000000
0.630463 0.251007 0.000000
0.763855 0.251007 0.000000
0.898407 0.251007 0.000000
0.000000 0.379669 0.000000
0.115845 0.379669 0.000000
0.240295 0.379669 0.000000
0.368225 0.379669 0.000000
0.498474 0.379669 0.000000
0.630463 0.379669 0.000000
0.763855 0.379669 0.000000
0.898407 0.379669 0.000000
0.000000 0.509216 0.000000
0.115845 0.509216 0.000000
0.240295 0.509216 0.000000
0.368225 0.509216 0.000000
0.498474 0.509216 0.000000
0.630463 0.509216 0.000000
0.763855 0.509216 0.000000
0.898407 0.509216 0.000000
0.000000 0.639435 0.000000
0.115845 0.639435 0.000000
0.240295 0.639435 0.000000
0.368225 0.639435 0.000000
0.498474 0.639435 0.000000
0.630463 0.639435 0.000000
0.763855 0.639435 0.000000
0.898407 0.639435 0.000000
0.000000 0.770172 0.000000
0.115845 0.770172 0.000000
0.240295 0.770172 0.000000
0.368225 0.770172 0.000000
0.498474 0.770172 0.000000
0.630463 0.770172 0.000000
0.763855 0.770172 0.000000
0.898407 0.770172 0.000000
0.000000 0.901367 0.000000
0.115845 0.901367 0.000000
0.240295 0.901367 0.000000
0.368225 0.901367 0.000000
0.498474 0.901367 0.000000
0.630463 0.901367 0.000000
0.763855 0.901367 0.000000
0.898407 0.901367 0.000000
0.000000 0.000000 0.144897
0.115845 0.000000 0.144897
0.240295 0.000000 0.144897
0.368225 0.000000 0.144897
0.498474 0.000000 0.144897
0.630463 0.000000 0.144897
0.763855 0.000000 0.144897
0.898407 0.000000 0.144897
0.000000 0.123749 0.144897
0.115845 0.123749 0.144897
0.240295 0.123749 0.144897
0.368225 0.123749 0.144897
0.498474 0.123749 0.144897
0.630463 0.123749 0.144897
0.763855 0.123749 0.144897
0.898407 0.123749 0.144897
0.000000 0.251007 0.144897
0.115845 0.251007 0.144897
0.240295 0.251007 0.144897
0.368225 0.251007 0.144897
0.498474 0.251007 0.144897
0.630463 0.251007 0.144897
0.763855 0.251007 0.144897
0.898407 0.251007 0.144897
0.000000 0.379669 0.144897
0.115845 0.379669 0.144897
0.240295 0.379669 0.144897
0.368225 0.379669 0.144897
0.498474 0.379669 0.144897
0.630463 0.379669 0.144897
0.763855 0.379669 0.144897
0.898407 0.379669 0.144897
0.000000 0.509216 0.144897
0.115845 0.509216 0.144897
0.240295 0.509216 0.144897
0.368225 0.509216 0.144897
0.498474 0.509216 0.144897
0.630463 0.509216 0.144897
0.763855 0.509216 0.144897
0.898407 0.509216 0.144897
0.000000 0.639435 0.144897
0.115845 0.639435 0.144897
0.240295 0.639435 0.144897
0.368225 0.639435 0.144897
0.498474 0.639435 0.144897
0.630463 0.639435 0.144897
0.763855 0.639435 0.144897
0.898407 0.639435 0.144897
0.000000 0.770172 0.144897
0.115845 0.770172 0.144897
0.240295 0.770172 0.144897
0.368225 0.770172 0.144897
0.498474 0.770172 0.144897
0.630463 0.770172 0.144897
0.763855 0.770172 0.144897
0.898407 0.770172 0.144897
0.000000 0.901367 0.144897
0.115845 0.901367 0.144897
0.240295 0.901367 0.144897
0.368225 0.901367 0.144897
0.498474 0.901367 0.144897
0.630463 0.901367 0.144897
0.763855 0.901367 0.144897
0.898407 0.901367 0.144897
0.000000 0.000000 0.278625
0.115845 0.000000 0.278625
0.240295 0.000000 0.278625
0.368225 0.000000 0.278625
0.498474 0.000000 0.278625
0.630463 0.000000 0.278625
0.763855 0.000000 0.278625
0.898407 0.000000 0.278625
0.000000 0.123749 0.278625
0.115845 0.123749 0.278625
0.240295 0.123749 0.278625
0.368225 0.123749 0.278625
0.498474 0.123749 0.278625
0.630463 0.123749 0.278625
0.763855 0.123749 0.278625
0.898407 0.123749 0.278625
0.000000 0.251007 0.278625
0.115845 0.251007 0.278625
0.240295 0.251007 0.278625
0.368225 0.251007 0.278625
0.498474 0.251007 0.278625
0.630463 0.251007 0.278625
0.763855 0.251007 0.278625
0.898407 0.251007 0.278625
0.000000 0.379669 0.278625
0.115845 0.379669 0.278625
0.240295 0.379669 0.278625
0.368225 0.379669 0.278625
0.498474 0.379669 0.278625
0.630463 0.379669 0.278625
0.763855 0.379669 0.278625
0.898407 0.379669 0.278625
0.000000 0.509216 0.278625
0.115845 0.509216 0.278625
0.240295 0.509216 0.278625
0.368225 0.509216 0.278625
0.498474 0.509216 0.278625
0.630463 0.509216 0.278625
0.763855 0.509216 0.278625
0.898407 0.509216 0.278625
0.000000 0.639435 0.278625
0.115845 0.639435 0.278625
0.240295 0.639435 0.278625
0.368225 0.639435 0.278625
0.498474 0.639435 0.278625
0.630463 0.639435 0.278625
0.763855 0.639435 0.278625
0.898407 0.639435 0.278625
0.000000 0.770172 0.278625
0.115845 0.770172 0.278625
0.240295 0.770172 0.278625
0.368225 0.770172 0.278625
0.498474 0.770172 0.278625
0.630463 0.770172 0.278625
0.763855 0.770172 0.278625
0.898407 0.770172 0.278625
0.000000 0.901367 0.278625
0.115845 0.901367 0.278625
0.240295 0.901367 0.278625
0.368225 0.901367 0.278625
0.498474 0.901367 0.278625
0.630463 0.901367 0.278625
0.763855 0.901367 0.278625
0.898407 0.901367 0.278625
0.000000 0.000000 0.408447
0.115845 0.000000 0.408447
0.240295 0.000000 0.408447
0.368225 0.000000 0.408447
0.498474 0.000000 0.408447
0.630463 0.000000 0.408447
0.763855 0.000000 0.408447
0.898407 0.000000 0.408447
0.000000 0.123749 0.408447
0.115845 0.123749 0.408447
0.240295 0.123749 0.408447
0.368225 0.123749 0.408447
0.498474 0.123749 0.408447
0.630463 0.123749 0.408447
0.763855 0.123749 0.408447
0.898407 0.123749 0.408447
0.000000 0.251007 0.408447
0.115845 0.251007 0.408447
0.240295 0.251007 0.408447
0.368225 0.251007 0.408447
0.498474 0.251007 0.408447
0.630463 0.251007 0.408447
0.763855 0.251007 0.408447
0.898407 0.251007 0.408447
0.000000 0.379669 0.408447
0.115845 0.379669 0.408447
0.240295 0.379669 0.408447
0.368225 0.379669 0.408447
0.498474 0.379669 0.408447
0.630463 0.379669 0.408447
0.763855 0.379669 0.408447
0.898407 0.379669 0.408447
0.000000 0.509216 0.408447
0.115845 0.509216 0.408447
0.240295 0.509216 0.408447
0.368225 0.509216 0.408447
0.498474 0.509216 0.408447
0.630463 0.509216 0.408447
0.763855 0.509216 0.408447
0.898407 0.509216 0.408447
0.000000 0.639435 0.408447
0.115845 0.639435 0.408447
0.240295 0.639435 0.408447
0.368225 0.639435 0.408447
0.498474 0.639435 0.408447
0.630463 0.639435 0.408447
0.763855 0.639435 0.408447
0.898407 0.639435 0.408447
0.000000 0.770172 0.408447
0.115845 0.770172 0.408447
0.240295 0.770172 0.408447
0.368225 0.770172 0.408447
0.498474 0.770172 0.408447
0.630463 0.770172 0.408447
0.763855 0.770172 0.408447
0.898407 0.770172 0.408447
0.000000 0.901367 0.408447
0.115845 0.901367 0.408447
0.240295 0.901367 0.408447
0.368225 0.901367 0.408447
0.498474 0.901367 0.408447
0.630463 0.901367 0.408447
0.763855 0.901367 0.408447
0.898407 0.901367 0.408447
0.000000 0.000000 0.535828
0.115845 0.000000 0.535828
0.240295 0.000000 0.535828
0.368225 0.000000 0.535828
0.498474 0.000000 0.535828
0.630463 0.000000 0.535828
0.763855 0.000000 0.535828
0.898407 0.000000 0.535828
0.000000 0.123749 0.535828
0.115845 0.123749 0.535828
0.240295 0.123749 0.535828
0.368225 0.123749 0.535828
0.498474 0.123749 0.535828
0.630463 0.123749 0.535828
0.763855 0.123749 0.535828
0.898407 0.123749 0.535828
0.000000 0.251007 0.535828
0.115845 0.251007 0.535828
0.240295 0.251007 0.535828
0.368225 0.251007 0.535828
0.498474 0.251007 0.535828
0.630463 0.251007 0.535828
0.763855 0.251007 0.535828
0.898407 0.251007 0.535828
0.000000 0.379669 0.535828
0.115845 0.379669 0.535828
0.240295 0.379669 0.535828
0.368225 0.379669 0.535828
0.498474 0.379669 0.535828
0.630463 0.379669 0.535828
0.763855 0.379669 0.535828
0.898407 0.379669 0.535828
0.000000 0.509216 0.535828
0.115845 0.509216 0.535828
0.240295 0.509216 0.535828
0.368225 0.509216 0.535828
0.498474 0.509216 0.535828
0.630463 0.509216 0.535828
0.763855 0.509216 0.535828
0.898407 0.509216 0.535828
0.000000 0.639435 0.535828
0.115845 0.639435 0.535828
0.240295 0.639435 0.535828
0.368225 0.639435 0.535828
0.498474 0.639435 0.535828
0.630463 0.639435 0.535828
0.763855 0.639435 0.535828
0.898407 0.639435 0.535828
0.000000 0.770172 0.535828
0.115845 0.770172 0.535828
0.240295 0.770172 0.535828
0.368225 0.770172 0.535828
0.498474 0.770172 0.535828
0.630463 0.770172 0.535828
0.763855 0.770172 0.535828
0.898407 0.770172 0.535828
0.000000 0.901367 0.535828
0.115845 0.901367 0.535828
0.240295 0.901367 0.535828
0.368225 0.901367 0.535828
0.498474 0.901367 0.535828
0.630463 0.901367 0.535828
0.763855 0.901367 0.535828
0.898407 0.901367 0.535828
0.000000 0.000000 0.661377
0.115845 0.000000 0.661377
0.240295 0.000000 0.661377
0.368225 0.000000 0.661377
0.498474 0.000000 0.661377
0.630463 0.000000 0.661377
0.763855 0.000000 0.661377
0.898407 0.000000 0.661377
0.000000 0.123749 0.661377
0.115845 0.123749 0.661377
0.240295 0.123749 0.661377
0.368225 0.123749 0.661377
0.498474 0.123749 0.661377
0.630463 0.123749 0.661377
0.763855 0.123749 0.661377
0.898407 0.123749 0.661377
0.000000 0.251007 0.661377
0.115845 0.251007 0.661377
0.240295 0.251007 0.661377
0.368225 0.251007 0.661377
0.498474 0.251007 0.661377
0.630463 0.251007 0.661377
0.763855 0.251007 0.661377
0.898407 0.251007 0.661377
0.000000 0.379669 0.661377
0.115845 0.379669 0.661377
0.240295 0.379669 0.661377
0.368225 0.379669 0.661377
0.498474 0.379669 0.661377
0.630463 0.379669 0.661377
0.763855 0.379669 0.661377
0.898407 0.379669 0.661377
0.000000 0.509216 0.661377
0.115845 0.509216 0.661377
0.240295 0.509216 0.661377
0.368225 0.509216 0.661377
0.498474 0.509216 0.661377
0.630463 0.509216 0.661377
0.763855 0.509216 0.661377
0.898407 0.509216 0.661377
0.000000 0.639435 0.661377
0.115845 0.639435 0.661377
0.240295 0.639435 0.661377
0.368225 0.639435 0.661377
0.498474 0.639435 0.661377
0.630463 0.639435 0.661377
0.763855 0.639435 0.661377
0.898407 0.639435 0.661377
0.000000 0.770172 0.661377
0.115845 0.770172 0.661377
0.240295 0.770172 0.661377
0.368225 0.770172 0.661377
0.498474 0.770172 0.661377
0.630463 0.770172 0.661377
0.763855 0.770172 0.661377
0.898407 0.770172 0.661377
0.000000 0.901367 0.661377
0.115845 0.901367 0.661377
0.240295 0.901367 0.661377
0.368225 0.901367 0.661377
0.498474 0.901367 0.661377
0.630463 0.901367 0.661377
0.763855 0.901367 0.661377
0.898407 0.901367 0.661377
0.000000 0.000000 0.785492
0.115845 0.000000 0.785492
0.240295 0.000000 0.785492
0.368225 0.000000 0.785492
0.498474 0.000000 0.785492
0.630463 0.000000 0.785492
0.763855 0.000000 0.785492
0.898407 0.000000 0.785492
0.000000 0.123749 0.785492
0.115845 0.123749 0.785492
0.240295 0.123749 0.785492
0.368225 0.123749 0.785492
0.498474 0.123749 0.785492
0.630463 0.123749 0.785492
0.763855 0.123749 0.785492
0.898407 0.123749 0.785492
0.000000 0.251007 0.785492
0.115845 0.251007 0.785492
0.240295 0.251007 0.785492
0.368225 0.251007 0.785492
0.498474 0.251007 0.785492
0.630463 0.251007 0.785492
0.763855 0.251007 0.785492
0.898407 0.251007 0.785492
0.000000 0.379669 0.785492
0.115845 0.379669 0.785492
0.240295 0.379669 0.785492
0.368225 0.379669 0.785492
0.498474 0.379669 0.785492
0.630463 0.379669 0.785492
0.763855 0.379669 0.785492
0.898407 0.379669 0.785492
0.000000 0.509216 0.785492
0.115845 0.509216 0.785492
0.240295 0.509216 0.785492
0.368225 0.509216 0.785492
0.498474 0.509216 0.785492
0.630463 0.509216 0.785492
0.763855 0.509216 0.785492
0.898407 0.509216 0.785492
0.000000 0.639435 0.785492
0.115845 0.639435 0.785492
0.240295 0.639435 0.785492
0.368225 0.639435 0.785492
0.498474 0.639435 0.785492
0.630463 0.639435 0.785492
0.763855 0.639435 0.785492
0.898407 0.639435 0.785492
0.000000 0.770172 0.785492
0.115845 0.770172 0.785492
0.240295 0.770172 0.785492
0.368225 0.770172 0.785492
0.498474 0.770172 0.785492
0.630463 0.770172 0.785492
0.763855 0.770172 0.785492
0.898407 0.770172 0.785492
0.000000 0.901367 0.785492
0.115845 0.901367 0.785492
0.240295 0.901367 0.785492
0.368225 0.901367 0.785492
0.498474 0.901367 0.785492
0.630463 0.901367 0.785492
0.763855 0.901367 0.785492
0.898407 0.901367 0.785492
0.000000 0.000000 0.908447
0.115845 0.000000 0.908447
0.240295 0.000000 0.908447
0.368225 0.000000 0.908447
0.498474 0.000000 0.908447
0.630463 0.000000 0.908447
0.763855 0.000000 0.908447
0.898407 0.000000 0.908447
0.000000 0.123749 0.908447
0.115845 0.123749 0.908447
0.240295 0.123749 0.908447
0.368225 0.123749 0.908447
0.498474 0.123749 0.908447
0.630463 0.123749 0.908447
0.763855 0.123749 0.908447
0.898407 0.123749 0.908447
0.000000 0.251007 0.908447
0.115845 0.251007 0.908447
0.240295 0.251007 0.908447
0.368225 0.251007 0.908447
0.498474 0.251007 0.908447
0.630463 0.251007 0.908447
0.763855 0.251007 0.908447
0.898407 0.251007 0.908447
0.000000 0.379669 0.908447
0.115845 0.379669 0.908447
0.240295 0.379669 0.908447
0.368225 0.379669 0.908447
0.498474 0.379669 0.908447
0.630463 0.379669 0.908447
0.763855 0.379669 0.908447
0.898407 0.379669 0.908447
0.000000 0.509216 0.908447
0.115845 0.509216 0.908447
0.240295 0.509216 0.908447
0.368225 0.509216 0.908447
0.498474 0.509216 0.908447
0.630463 0.509216 0.908447
0.763855 0.509216 0.908447
0.898407 0.509216 0.908447
0.000000 0.639435 0.908447
0.115845 0.639435 0.908447
0.240295 0.639435 0.908447
0.368225 0.639435 0.908447
0.498474 0.639435 0.908447
0.630463 0.639435 0.908447
0.763855 0.639435 0.908447
0.898407 0.639435 0.908447
0.000000 0.770172 0.908447
0.115845 0.770172 0.908447
0.240295 0.770172 0.908447
0.368225 0.770172 0.908447
0.498474 0.770172 0.908447
0.630463 0.770172 0.908447
0.763855 0.770172 0.908447
0.898407 0.770172 0.908447
0.000000 0.901367 0.908447
0.115845 0.901367 0.908447
0.240295 0.901367 0.908447
0.368225 0.901367 0.908447
0.498474 0.901367 0.908447
0.630463 0.901367 0.908447
0.763855 0.901367 0.908447
0.898407 0.901367 0.908447
