dist/luts/IT programmer working on desktop computer-Large.CUBE
#Created by: Adobe Photoshop Export Color Lookup Plugin
TITLE "IT programmer working on desktop computer-Large.psd"
#LUT size
LUT_3D_SIZE 32
#data domain
DOMAIN_MIN 0.0 0.0 0.0
DOMAIN_MAX 1.0 1.0 1.0
#LUT data points
0.000000 0.000000 0.000000
0.026917 0.000000 0.000000
0.055847 0.000000 0.000000
0.085571 0.000000 0.000000
0.115845 0.000000 0.000000
0.146515 0.000000 0.000000
0.177521 0.000000 0.000000
0.208801 0.000000 0.000000
0.240295 0.000000 0.000000
0.272003 0.000000 0.000000
0.303925 0.000000 0.000000
0.335999 0.000000 0.000000
0.368225 0.000000 0.000000
0.400604 0.000000 0.000000
0.433105 0.000000 0.000000
0.465729 0.000000 0.000000
0.498474 0.000000 0.000000
0.531342 0.000000 0.000000
0.564270 0.000000 0.000000
0.597321 0.000000 0.000000
0.630463 0.000000 0.000000
0.663696 0.000000 0.000000
0.696991 0.000000 0.000000
0.730377 0.000000 0.000000
0.763855 0.000000 0.000000
0.797363 0.000000 0.000000
0.830994 0.000000 0.000000
0.864655 0.000000 0.000000
0.898407 0.000000 0.000000
0.932220 0.000000 0.000000
0.966064 0.000000 0.000000
1.000000 0.000000 0.000000
0.000000 0.030090 0.000000
0.026917 0.030090 0.000000
0.055847 0.030090 0.000000
0.085571 0.030090 0.000000
0.115845 0.030090 0.000000
0.146515 0.030090 0.000000
0.177521 0.030090 0.000000
0.208801 0.030090 0.000000
0.240295 0.030090 0.000000
0.272003 0.030090 0.000000
0.303925 0.030090 0.000000
0.335999 0.030090 0.000000
0.368225 0.030090 0.000000
0.400604 0.030090 0.000000
0.433105 0.030090 0.000000
0.465729 0.030090 0.000000
0.498474 0.030090 0.000000
0.531342 0.030090 0.000000
0.564270 0.030090 0.000000
0.597321 0.030090 0.000000
0.630463 0.030090 0.000000
0.663696 0.030090 0.000000
0.696991 0.030090 0.000000
0.730377 0.030090 0.000000
0.763855 0.030090 0.000000
0.797363 0.030090 0.000000
0.830994 0.030090 0.000000
0.864655 0.030090 0.000000
0.898407 0.030090 0.000000
0.932220 0.030090 0.000000
0.966064 0.030090 0.000000
1.000000 0.030090 0.000000
0.000000 0.061005 0.000000
0.026917 0.061005 0.000000
0.055847 0.061005 0.000000
0.085571 0.061005 0.000000
0.115845 0.061005 0.000000
0.146515 0.061005 0.000000
0.177521 0.061005 0.000000
0.208801 0.061005 0.000000
0.240295 0.061005 0.000000
0.272003 0.061005 0.000000
0.303925 0.061005 0.000000
0.335999 0.061005 0.000000
0.368225 0.061005 0.000000
0.400604 0.061005 0.000000
0.433105 0.061005 0.000000
0.465729 0.061005 0.000000
0.498474 0.061005 0.000000
0.531342 0.061005 0.000000
0.564270 0.061005 0.000000
0.597321 0.061005 0.000000
0.630463 0.061005 0.000000
0.663696 0.061005 0.000000
0.696991 0.061005 0.000000
0.730377 0.061005 0.000000
0.763855 0.061005 0.000000
0.797363 0.061005 0.000000
0.830994 0.061005 0.000000
0.864655 0.061005 0.000000
0.898407 0.061005 0.000000
0.932220 0.061005 0.000000
0.966064 0.061005 0.000000
1.000000 0.061005 0.000000
0.000000 0.092255 0.000000
0.026917 0.092255 0.000000
0.055847 0.092255 0.000000
0.085571 0.092255 0.000000
0.115845 0.092255 0.000000
0.146515 0.092255 0.000000
0.177521 0.092255 0.000000
0.208801 0.092255 0.000000
0.240295 0.092255 0.000000
0.272003 0.092255 0.000000
0.303925 0.092255 0.000000
0.335999 0.092255 0.000000
0.368225 0.092255 0.000000
0.400604 0.092255 0.000000
0.433105 0.092255 0.000000
0.465729 0.092255 0.000000
0.498474 0.092255 0.000000
0.531342 0.092255 0.000000
0.564270 0.092255 0.000000
0.597321 0.092255 0.000000
0.630463 0.092255 0.000000
0.663696 0.092255 0.000000
0.696991 0.092255 0.000000
0.730377 0.092255 0.000000
0.763855 0.092255 0.000000
0.797363 0.092255 0.000000
0.830994 0.092255 0.000000
0.864655 0.092255 0.000000
0.898407 0.092255 0.000000
0.932220 0.092255 0.000000
0.966064 0.092255 0.000000
1.000000 0.092255 0.000000
0.000000 0.123749 0.000000
0.026917 0.123749 0.000000
0.055847 0.123749 0.000000
0.085571 0.123749 0.000000
0.115845 0.123749 0.000000
0.146515 0.123749 0.000000
0.177521 0.123749 0.000000
0.208801 0.123749 0.000000
0.240295 0.123749 0.000000
0.272003 0.123749 0.000000
0.303925 0.123749 0.000000
0.335999 0.123749 0.000000
0.368225 0.123749 0.000000
0.400604 0.123749 0.000000
0.433105 0.123749 0.000000
0.465729 0.123749 0.000000
0.498474 0.123749 0.000000
0.531342 0.123749 0.000000
0.564270 0.123749 0.000000
0.597321 0.123749 0.000000
0.630463 0.123749 0.000000
0.663696 0.123749 0.000000
0.696991 0.123749 0.000000
0.730377 0.123749 0.000000
0.763855 0.123749 0.000000
0.797363 0.123749 0.000000
0.830994 0.123749 0.000000
0.864655 0.123749 0.000000
0.898407 0.123749 0.000000
0.932220 0.123749 0.000000
0.966064 0.123749 0.000000
1.000000 0.123749 0.000000
0.000000 0.155396 0.000000
0.026917 0.155396 0.000000
0.055847 0.155396 0.000000
0.085571 0.155396 0.000000
0.115845 0.155396 0.000000
0.146515 0.155396 0.000000
0.177521 0.155396 0.000000
0.208801 0.155396 0.000000
0.240295 0.155396 0.000000
0.272003 0.155396 0.000000
0.303925 0.155396 0.000000
0.335999 0.155396 0.000000
0.368225 0.155396 0.000000
0.400604 0.155396 0.000000
0.433105 0.155396 0.000000
0.465729 0.155396 0.000000
0.498474 0.155396 0.000000
0.531342 0.155396 0.000000
0.564270 0.155396 0.000000
0.597321 0.155396 0.000000
0.630463 0.155396 0.000000
0.663696 0.155396 0.000000
0.696991 0.155396 0.000000
0.730377 0.155396 0.000000
0.763855 0.155396 0.000000
0.797363 0.155396 0.000000
0.830994 0.155396 0.000000
0.864655 0.155396 0.000000
0.898407 0.155396 0.000000
0.932220 0.155396 0.000000
0.966064 0.155396 0.000000
1.000000 0.155396 0.000000
0.000000 0.187164 0.000000
0.026917 0.187164 0.000000
0.055847 0.187164 0.000000
0.085571 0.187164 0.000000
0.115845 0.187164 0.000000
0.146515 0.187164 0.000000
0.177521 0.187164 0.000000
0.208801 0.187164 0.000000
0.240295 0.187164 0.000000
0.272003 0.187164 0.000000
0.303925 0.187164 0.000000
0.335999 0.187164 0.000000
0.368225 0.187164 0.000000
0.400604 0.187164 0.000000
0.433105 0.187164 0.000000
0.465729 0.187164 0.000000
0.498474 0.187164 0.000000
0.531342 0.187164 0.000000
0.564270 0.187164 0.000000
0.597321 0.187164 0.000000
0.630463 0.187164 0.000000
0.663696 0.187164 0.000000
0.696991 0.187164 0.000000
0.730377 0.187164 0.000000
0.763855 0.187164 0.000000
0.797363 0.187164 0.000000
0.830994 0.187164 0.000000
0.864655 0.187164 0.000000
0.898407 0.187164 0.000000
0.932220 0.187164 0.000000
0.966064 0.187164 0.000000
1.000000 0.187164 0.000000
0.000000 0.219055 0.000000
0.026917 0.219055 0.000000
0.055847 0.219055 0.000000
0.085571 0.219055 0.000000
0.115845 0.219055 0.000000
0.146515 0.219055 0.000000
0.177521 0.219055 0.000000
0.208801 0.219055 0.000000
0.240295 0.219055 0.000000
0.272003 0.219055 0.000000
0.303925 0.219055 0.000000
0.335999 0.219055 0.000000
0.368225 0.219055 0.000000
0.400604 0.219055 0.000000
0.433105 0.219055 0.000000
0.465729 0.219055 0.000000
0.498474 0.219055 0.000000
0.531342 0.219055 0.000000
0.564270 0.219055 0.000000
0.597321 0.219055 0.000000
0.630463 0.219055 0.000000
0.663696 0.219055 0.000000
0.696991 0.219055 0.000000
0.730377 0.219055 0.000000
0.763855 0.219055 0.000000
0.797363 0.219055 0.000000
0.830994 0.219055 0.000000
0.864655 0.219055 0.000000
0.898407 0.219055 0.000000
0.932220 0.219055 0.000000
0.966064 0.219055 0.000000
1.000000 0.219055 0.000000
0.000000 0.251007 0.000000
0.026917 0.251007 0.000000
0.055847 0.251007 0.000000
0.085571 0.251007 0.000000
0.115845 0.251007 0.000000
0.146515 0.251007 0.000000
0.177521 0.251007 0.000000
0.208801 0.251007 0.000000
0.240295 0.251007 0.000000
0.272003 0.251007 0.000000
0.303925 0.251007 0.000000
0.335999 0.251007 0.000000
0.368225 0.251007 0.000000
0.400604 0.251007 0.000000
0.433105 0.251007 0.000000
0.465729 0.251007 0.000000
0.498474 0.251007 0.000000
0.531342 0.251007 0.000000
0.564270 0.251007 0.000000
0.597321 0.251007 0.000000
0.630463 0.251007 0.000000
0.663696 0.251007 0.000000
0.696991 0.251007 0.000000
0.730377 0.251007 0.000000
0.763855 0.251007 0.000000
0.797363 0.251007 0.000000
0.830994 0.251007 0.000000
0.864655 0.251007 0.000000
0.898407 0.251007 0.000000
0.932220 0.251007 0.000000
0.966064 0.251007 0.000000
1.000000 0.251007 0.000000
0.000000 0.283081 0.000000
0.026917 0.283081 0.000000
0.055847 0.283081 0.000000
0.085571 0.283081 0.000000
0.115845 0.283081 0.000000
0.146515 0.283081 0.000000
0.177521 0.283081 0.000000
0.208801 0.283081 0.000000
0.240295 0.283081 0.000000
0.272003 0.283081 0.000000
0.303925 0.283081 0.000000
0.335999 0.283081 0.000000
0.368225 0.283081 0.000000
0.400604 0.283081 0.000000
0.433105 0.283081 0.000000
0.465729 0.283081 0.000000
0.498474 0.283081 0.000000
0.531342 0.283081 0.000000
0.564270 0.283081 0.000000
0.597321 0.283081 0.000000
0.630463 0.283081 0.000000
0.663696 0.283081 0.000000
0.696991 0.283081 0.000000
0.730377 0.283081 0.000000
0.763855 0.283081 0.000000
0.797363 0.283081 0.000000
0.830994 0.283081 0.000000
0.864655 0.283081 0.000000
0.898407 0.283081 0.000000
0.932220 0.283081 0.000000
0.966064 0.283081 0.000000
1.000000 0.283081 0.000000
0.000000 0.315216 0.000000
0.026917 0.315216 0.000000
0.055847 0.315216 0.000000
0.085571 0.315216 0.000000
0.115845 0.315216 0.000000
0.146515 0.315216 0.000000
0.177521 0.315216 0.000000
0.208801 0.315216 0.000000
0.240295 0.315216 0.000000
0.272003 0.315216 0.000000
0.303925 0.315216 0.000000
0.335999 0.315216 0.000000
0.368225 0.315216 0.000000
0.400604 0.315216 0.000000
0.433105 0.315216 0.000000
0.465729 0.315216 0.000000
0.498474 0.315216 0.000000
0.531342 0.315216 0.000000
0.564270 0.315216 0.000000
0.597321 0.315216 0.000000
0.630463 0.315216 0.000000
0.663696 0.315216 0.000000
0.696991 0.315216 0.000000
0.730377 0.315216 0.000000
0.763855 0.315216 0.000000
0.797363 0.315216 0.000000
0.830994 0.315216 0.000000
0.864655 0.315216 0.000000
0.898407 0.315216 0.000000
0.932220 0.315216 0.000000
0.966064 0.315216 0.000000
1.000000 0.315216 0.000000
0.000000 0.347412 0.000000
0.026917 0.347412 0.000000
0.055847 0.347412 0.000000
0.085571 0.347412 0.000000
0.115845 0.347412 0.000000
0.146515 0.347412 0.000000
0.177521 0.347412 0.000000
0.208801 0.347412 0.000000
0.240295 0.347412 0.000000
0.272003 0.347412 0.000000
0.303925 0.347412 0.000000
0.335999 0.347412 0.000000
0.368225 0.347412 0.000000
0.400604 0.347412 0.000000
0.433105 0.347412 0.000000
0.465729 0.347412 0.000000
0.498474 0.347412 0.000000
0.531342 0.347412 0.000000
0.564270 0.347412 0.000000
0.597321 0.347412 0.000000
0.630463 0.347412 0.000000
0.663696 0.347412 0.000000
0.696991 0.347412 0.000000
0.730377 0.347412 0.000000
0.763855 0.347412 0.000000
0.797363 0.347412 0.000000
0.830994 0.347412 0.000000
0.864655 0.347412 0.000000
0.898407 0.347412 0.000000
0.932220 0.347412 0.000000
0.966064 0.347412 0.000000
1.000000 0.347412 0.000000
0.000000 0.379669 0.000000
0.026917 0.379669 0.000000
0.055847 0.379669 0.000000
0.085571 0.379669 0.000000
0.115845 0.379669 0.000000
0.146515 0.379669 0.000000
0.177521 0.379669 0.000000
0.208801 0.379669 0.000000
0.240295 0.379669 0.000000
0.272003 0.379669 0.000000
0.303925 0.379669 0.000000
0.335999 0.379669 0.000000
0.368225 0.379669 0.000000
0.400604 0.379669 0.000000
0.433105 0.379669 0.000000
0.465729 0.379669 0.000000
0.498474 0.379669 0.000000
0.531342 0.379669 0.000000
0.564270 0.379669 0.000000
0.597321 0.379669 0.000000
0.630463 0.379669 0.000000
0.663696 0.379669 0.000000
0.696991 0.379669 0.000000
0.730377 0.379669 0.000000
0.763855 0.379669 0.000000
0.797363 0.379669 0.000000
0.830994 0.379669 0.000000
0.864655 0.379669 0.000000
0.898407 0.379669 0.000000
0.932220 0.379669 0.000000
0.966064 0.379669 0.000000
1.000000 0.379669 0.000000
0.000000 0.411957 0.000000
0.026917 0.411957 0.000000
0.055847 0.411957 0.000000
0.085571 0.411957 0.000000
0.115845 0.411957 0.000000
0.146515 0.411957 0.000000
0.177521 0.411957 0.000000
0.208801 0.411957 0.000000
0.240295 0.411957 0.000000
0.272003 0.411957 0.000000
0.303925 0.411957 0.000000
0.335999 0.411957 0.000000
0.368225 0.411957 0.000000
0.400604 0.411957 0.000000
0.433105 0.411957 0.000000
0.465729 0.411957 0.000000
0.498474 0.411957 0.000000
0.531342 0.411957 0.000000
0.564270 0.411957 0.000000
0.597321 0.411957 0.000000
0.630463 0.411957 0.000000
0.663696 0.411957 0.000000
0.696991 0.411957 0.000000
0.730377 0.411957 0.000000
0.763855 0.411957 0.000000
0.797363 0.411957 0.000000
0.830994 0.411957 0.000000
0.864655 0.411957 0.000000
0.898407 0.411957 0.000000
0.932220 0.411957 0.000000
0.966064 0.411957 0.000000
1.000000 0.411957 0.000000
0.000000 0.444336 0.000000
0.026917 0.444336 0.000000
0.055847 0.444336 0.000000
0.085571 0.444336 0.000000
0.115845 0.444336 0.000000
0.146515 0.444336 0.000000
0.177521 0.444336 0.000000
0.208801 0.444336 0.000000
0.240295 0.444336 0.000000
0.272003 0.444336 0.000000
0.303925 0.444336 0.000000
0.335999 0.444336 0.000000
0.368225 0.444336 0.000000
0.400604 0.444336 0.000000
0.433105 0.444336 0.000000
0.465729 0.444336 0.000000
0.498474 0.444336 0.000000
0.531342 0.444336 0.000000
0.564270 0.444336 0.000000
0.597321 0.444336 0.000000
0.630463 0.444336 0.000000
0.663696 0.444336 0.000000
0.696991 0.444336 0.000000
0.730377 0.444336 0.000000
0.763855 0.444336 0.000000
0.797363 0.444336 0.000000
0.830994 0.444336 0.000000
0.864655 0.444336 0.000000
0.898407 0.444336 0.000000
0.932220 0.444336 0.000000
0.966064 0.444336 0.000000
1.000000 0.444336 0.000000
0.000000 0.476746 0.000000
0.026917 0.476746 0.000000
0.055847 0.476746 0.000000
0.085571 0.476746 0.000000
0.115845 0.476746 0.000000
0.146515 0.476746 0.000000
0.177521 0.476746 0.000000
0.208801 0.476746 0.000000
0.240295 0.476746 0.000000
0.272003 0.476746 0.000000
0.303925 0.476746 0.000000
0.335999 0.476746 0.000000
0.368225 0.476746 0.000000
0.400604 0.476746 0.000000
0.433105 0.476746 0.000000
0.465729 0.476746 0.000000
0.498474 0.476746 0.000000
0.531342 0.476746 0.000000
0.564270 0.476746 0.000000
0.597321 0.476746 0.000000
0.630463 0.476746 0.000000
0.663696 0.476746 0.000000
0.696991 0.476746 0.000000
0.730377 0.476746 0.000000
0.763855 0.476746 0.000000
0.797363 0.476746 0.000000
0.830994 0.476746 0.000000
0.864655 0.476746 0.000000
0.898407 0.476746 0.000000
0.932220 0.476746 0.000000
0.966064 0.476746 0.000000
1.000000 0.476746 0.000000
0.000000 0.509216 0.000000
0.026917 0.509216 0.000000
0.055847 0.509216 0.000000
0.085571 0.509216 0.000000
0.115845 0.509216 0.000000
0.146515 0.509216 0.000000
0.177521 0.509216 0.000000
0.208801 0.509216 0.000000
0.240295 0.509216 0.000000
0.272003 0.509216 0.000000
0.303925 0.509216 0.000000
0.335999 0.509216 0.000000
0.368225 0.509216 0.000000
0.400604 0.509216 0.000000
0.433105 0.509216 0.000000
0.465729 0.509216 0.000000
0.498474 0.509216 0.000000
0.531342 0.509216 0.000000
0.564270 0.509216 0.000000
0.597321 0.509216 0.000000
0.630463 0.509216 0.000000
0.663696 0.509216 0.000000
0.696991 0.509216 0.000000
0.730377 0.509216 0.000000
0.763855 0.509216 0.000000
0.797363 0.509216 0.000000
0.830994 0.509216 0.000000
0.864655 0.509216 0.000000
0.898407 0.509216 0.000000
0.932220 0.509216 0.000000
0.966064 0.509216 0.000000
1.000000 0.509216 0.000000
0.000000 0.541718 0.000000
0.026917 0.541718 0.000000
0.055847 0.541718 0.000000
0.085571 0.541718 0.000000
0.115845 0.541718 0.000000
0.146515 0.541718 0.000000
0.177521 0.541718 0.000000
0.208801 0.541718 0.000000
0.240295 0.541718 0.000000
0.272003 0.541718 0.000000
0.303925 0.541718 0.000000
0.335999 0.541718 0.000000
0.368225 0.541718 0.000000
0.400604 0.541718 0.000000
0.433105 0.541718 0.000000
0.465729 0.541718 0.000000
0.498474 0.541718 0.000000
0.531342 0.541718 0.000000
0.564270 0.541718 0.000000
0.597321 0.541718 0.000000
0.630463 0.541718 0.000000
0.663696 0.541718 0.000000
0.696991 0.541718 0.000000
0.730377 0.541718 0.000000
0.763855 0.541718 0.000000
0.797363 0.541718 0.000000
0.830994 0.541718 0.000000
0.864655 0.541718 0.000000
0.898407 0.541718 0.000000
0.932220 0.541718 0.000000
0.966064 0.541718 0.000000
1.000000 0.541718 0.000000
0.000000 0.574249 0.000000
0.026917 0.574249 0.000000
0.055847 0.574249 0.000000
0.085571 0.574249 0.000000
0.115845 0.574249 0.000000
0.146515 0.574249 0.000000
0.177521 0.574249 0.000000
0.208801 0.574249 0.000000
0.240295 0.574249 0.000000
0.272003 0.574249 0.000000
0.303925 0.574249 0.000000
0.335999 0.574249 0.000000
0.368225 0.574249 0.000000
0.400604 0.574249 0.000000
0.433105 0.574249 0.000000
0.465729 0.574249 0.000000
0.498474 0.574249 0.000000
0.531342 0.574249 0.000000
0.564270 0.574249 0.000000
0.597321 0.574249 0.000000
0.630463 0.574249 0.000000
0.663696 0.574249 0.000000
0.696991 0.574249 0.000000
0.730377 0.574249 0.000000
0.763855 0.574249 0.000000
0.797363 0.574249 0.000000
0.830994 0.574249 0.000000
0.864655 0.574249 0.000000
0.898407 0.574249 0.000000
0.932220 0.574249 0.000000
0.966064 0.574249 0.000000
1.000000 0.574249 0.000000
0.000000 0.606812 0.000000
0.026917 0.606812 0.000000
0.055847 0.606812 0.000000
0.085571 0.606812 0.000000
0.115845 0.606812 0.000000
0.146515 0.606812 0.000000
0.177521 0.606812 0.000000
0.208801 0.606812 0.000000
0.240295 0.606812 0.000000
0.272003 0.606812 0.000000
0.303925 0.606812 0.000000
0.335999 0.606812 0.000000
0.368225 0.606812 0.000000
0.400604 0.606812 0.000000
0.433105 0.606812 0.000000
0.465729 0.606812 0.000000
0.498474 0.606812 0.000000
0.531342 0.606812 0.000000
0.564270 0.606812 0.000000
0.597321 0.606812 0.000000
0.630463 0.606812 0.000000
0.663696 0.606812 0.000000
0.696991 0.606812 0.000000
0.730377 0.606812 0.000000
0.763855 0.606812 0.000000
0.797363 0.606812 0.000000
0.830994 0.606812 0.000000
0.864655 0.606812 0.000000
0.898407 0.606812 0.000000
0.932220 0.606812 0.000000
0.966064 0.606812 0.000000
1.000000 0.606812 0.000000
0.000000 0.639435 0.000000
0.026917 0.639435 0.000000
0.055847 0.639435 0.000000
0.085571 0.639435 0.000000
0.115845 0.639435 0.000000
0.146515 0.639435 0.000000
0.177521 0.639435 0.000000
0.208801 0.639435 0.000000
0.240295 0.639435 0.000000
0.272003 0.639435 0.000000
0.303925 0.639435 0.000000
0.335999 0.639435 0.000000
0.368225 0.639435 0.000000
0.400604 0.639435 0.000000
0.433105 0.639435 0.000000
0.465729 0.639435 0.000000
0.498474 0.639435 0.000000
0.531342 0.639435 0.000000
0.564270 0.639435 0.000000
0.597321 0.639435 0.000000
0.630463 0.639435 0.000000
0.663696 0.639435 0.000000
0.696991 0.639435 0.000000
0.730377 0.639435 0.000000
0.763855 0.639435 0.000000
0.797363 0.639435 0.000000
0.830994 0.639435 0.000000
0.864655 0.639435 0.000000
0.898407 0.639435 0.000000
0.932220 0.639435 0.000000
0.966064 0.639435 0.000000
1.000000 0.639435 0.000000
0.000000 0.672058 0.000000
0.026917 0.672058 0.000000
0.055847 0.672058 0.000000
0.085571 0.672058 0.000000
0.115845 0.672058 0.000000
0.146515 0.672058 0.000000
0.177521 0.672058 0.000000
0.208801 0.672058 0.000000
0.240295 0.672058 0.000000
0.272003 0.672058 0.000000
0.303925 0.672058 0.000000
0.335999 0.672058 0.000000
0.368225 0.672058 0.000000
0.400604 0.672058 0.000000
0.433105 0.672058 0.000000
0.465729 0.672058 0.000000
0.498474 0.672058 0.000000
0.531342 0.672058 0.000000
0.564270 0.672058 0.000000
0.597321 0.672058 0.000000
0.630463 0.672058 0.000000
0.663696 0.672058 0.000000
0.696991 0.672058 0.000000
0.730377 0.672058 0.000000
0.763855 0.672058 0.000000
0.797363 0.672058 0.000000
0.830994 0.672058 0.000000
0.864655 0.672058 0.000000
0.898407 0.672058 0.000000
0.932220 0.672058 0.000000
0.966064 0.672058 0.000000
1.000000 0.672058 0.000000
0.000000 0.704742 0.000000
0.026917 0.704742 0.000000
0.055847 0.704742 0.000000
0.085571 0.704742 0.000000
0.115845 0.704742 0.000000
0.146515 0.704742 0.000000
0.177521 0.704742 0.000000
0.208801 0.704742 0.000000
0.240295 0.704742 0.000000
0.272003 0.704742 0.000000
0.303925 0.704742 0.000000
0.335999 0.704742 0.000000
0.368225 0.704742 0.000000
0.400604 0.704742 0.000000
0.433105 0.704742 0.000000
0.465729 0.704742 0.000000
0.498474 0.704742 0.000000
0.531342 0.704742 0.000000
0.564270 0.704742 0.000000
0.597321 0.704742 0.000000
0.630463 0.704742 0.000000
0.663696 0.704742 0.000000
0.696991 0.704742 0.000000
0.730377 0.704742 0.000000
0.763855 0.704742 0.000000
0.797363 0.704742 0.000000
0.830994 0.704742 0.000000
0.864655 0.704742 0.000000
0.898407 0.704742 0.000000
0.932220 0.704742 0.000000
0.966064 0.704742 0.000000
1.000000 0.704742 0.000000
0.000000 0.737427 0.000000
0.026917 0.737427 0.000000
0.055847 0.737427 0.000000
0.085571 0.737427 0.000000
0.115845 0.737427 0.000000
0.146515 0.737427 0.000000
0.177521 0.737427 0.000000
0.208801 0.737427 0.000000
0.240295 0.737427 0.000000
0.272003 0.737427 0.000000
0.303925 0.737427 0.000000
0.335999 0.737427 0.000000
0.368225 0.737427 0.000000
0.400604 0.737427 0.000000
0.433105 0.737427 0.000000
0.465729 0.737427 0.000000
0.498474 0.737427 0.000000
0.531342 0.737427 0.000000
0.564270 0.737427 0.000000
0.597321 0.737427 0.000000
0.630463 0.737427 0.000000
0.663696 0.737427 0.000000
0.696991 0.737427 0.000000
0.730377 0.737427 0.000000
0.763855 0.737427 0.000000
0.797363 0.737427 0.000000
0.830994 0.737427 0.000000
0.864655 0.737427 0.000000
0.898407 0.737427 0.000000
0.932220 0.737427 0.000000
0.966064 0.737427 0.000000
1.000000 0.737427 0.000000
0.000000 0.770172 0.000000
0.026917 0.770172 0.000000
0.055847 0.770172 0.000000
0.085571 0.770172 0.000000
0.115845 0.770172 0.000000
0.146515 0.770172 0.000000
0.177521 0.770172 0.000000
0.208801 0.770172 0.000000
0.240295 0.770172 0.000000
0.272003 0.770172 0.000000
0.303925 0.770172 0.000000
0.335999 0.770172 0.000000
0.368225 0.770172 0.000000
0.400604 0.770172 0.000000
0.433105 0.770172 0.000000
0.465729 0.770172 0.000000
0.498474 0.770172 0.000000
0.531342 0.770172 0.000000
0.564270 0.770172 0.000000
0.597321 0.770172 0.000000
0.630463 0.770172 0.000000
0.663696 0.770172 0.000000
0.696991 0.770172 0.000000
0.730377 0.770172 0.000000
0.763855 0.770172 0.000000
0.797363 0.770172 0.000000
0.830994 0.770172 0.000000
0.864655 0.770172 0.000000
0.898407 0.770172 0.000000
0.932220 0.770172 0.000000
0.966064 0.770172 0.000000
1.000000 0.770172 0.000000
0.000000 0.802917 0.000000
0.026917 0.802917 0.000000
0.055847 0.802917 0.000000
0.085571 0.802917 0.000000
0.115845 0.802917 0.000000
0.146515 0.802917 0.000000
0.177521 0.802917 0.000000
0.208801 0.802917 0.000000
0.240295 0.802917 0.000000
0.272003 0.802917 0.000000
0.303925 0.802917 0.000000
0.335999 0.802917 0.000000
0.368225 0.802917 0.000000
0.400604 0.802917 0.000000
0.433105 0.802917 0.000000
0.465729 0.802917 0.000000
0.498474 0.802917 0.000000
0.531342 0.802917 0.000000
0.564270 0.802917 0.000000
0.597321 0.802917 0.000000
0.630463 0.802917 0.000000
0.663696 0.802917 0.000000
0.696991 0.802917 0.000000
0.730377 0.802917 0.000000
0.763855 0.802917 0.000000
0.797363 0.802917 0.000000
0.830994 0.802917 0.000000
0.864655 0.802917 0.000000
0.898407 0.802917 0.000000
0.932220 0.802917 0.000000
0.966064 0.802917 0.000000
1.000000 0.802917 0.000000
0.000000 0.835693 0.000000
0.026917 0.835693 0.000000
0.055847 0.835693 0.000000
0.085571 0.835693 0.000000
0.115845 0.835693 0.000000
0.146515 0.835693 0.000000
0.177521 0.835693 0.000000
0.208801 0.835693 0.000000
0.240295 0.835693 0.000000
0.272003 0.835693 0.000000
0.303925 0.835693 0.000000
0.335999 0.835693 0.000000
0.368225 0.835693 0.000000
0.400604 0.835693 0.000000
0.433105 0.835693 0.000000
0.465729 0.835693 0.000000
0.498474 0.835693 0.000000
0.531342 0.835693 0.000000
0.564270 0.835693 0.000000
0.597321 0.835693 0.000000
0.630463 0.835693 0.000000
0.663696 0.835693 0.000000
0.696991 0.835693 0.000000
0.730377 0.835693 0.000000
0.763855 0.835693 0.000000
0.797363 0.835693 0.000000
0.830994 0.835693 0.000000
0.864655 0.835693 0.000000
0.898407 0.835693 0.000000
0.932220 0.835693 0.000000
0.966064 0.835693 0.000000
1.000000 0.835693 0.000000
0.000000 0.868530 0.000000
0.026917 0.868530 0.000000
0.055847 0.868530 0.000000
0.085571 0.868530 0.000000
0.115845 0.868530 0.000000
0.146515 0.868530 0.000000
0.177521 0.868530 0.000000
0.208801 0.868530 0.000000
0.240295 0.868530 0.000000
0.272003 0.868530 0.000000
0.303925 0.868530 0.000000
0.335999 0.868530 0.000000
0.368225 0.868530 0.000000
0.400604 0.868530 0.000000
0.433105 0.868530 0.000000
0.465729 0.868530 0.000000
