dist/luts/Laptop, review and businessman with client collaboration, teamwork and strategy for company finance.CUBE
#Created by: Adobe Photoshop Export Color Lookup Plugin
TITLE "Laptop, review and businessman with client collaboration, teamwork and strategy for company finance.psd"
#LUT size
LUT_3D_SIZE 8
#data domain
#LUT data points
DOMAIN_MIN 0.000000 0.000000 0.000000
DOMAIN_MAX 0.903226 0.903226 0.903226
0.000000 0.000000 0.000000
0.000000 0.000000 0.000000
0.080872 0.000000 0.000000
0.228577 0.000000 0.000000
0.356812 0.000000 0.000000
0.484192 0.000000 0.000000
0.613464 0.000000 0.000000
0.745239 0.000000 0.000000
0.000000 0.000000 0.000000
0.000000 0.000000 0.000000
0.080872 0.000000 0.000000
0.228577 0.000000 0.000000
0.356812 0.000000 0.000000
0.484192 0.000000 0.000000
0.613464 0.000000 0.000000
0.745239 0.000000 0.000000
0.000000 0.080872 0.000000
0.000000 0.080872 0.000000
0.080872 0.080872 0.000000
0.228577 0.080872 0.000000
0.356812 0.080872 0.000000
0.484192 0.080872 0.000000
0.613464 0.080872 0.000000
0.745239 0.080872 0.000000
0.000000 0.228577 0.000000
0.000000 0.228577 0.000000
0.080872 0.228577 0.000000
0.228577 0.228577 0.000000
0.356812 0.228577 0.000000
0.484192 0.228577 0.000000
0.613464 0.228577 0.000000
0.745239 0.228577 0.000000
0.000000 0.356812 0.000000
0.000000 0.356812 0.000000
0.080872 0.356812 0.000000
0.228577 0.356812 0.000000
0.356812 0.356812 0.000000
0.484192 0.356812 0.000000
0.613464 0.356812 0.000000
0.745239 0.356812 0.000000
0.000000 0.484192 0.000000
0.000000 0.484192 0.000000
0.080872 0.484192 0.000000
0.228577 0.484192 0.000000
0.356812 0.484192 0.000000
0.484192 0.484192 0.000000
0.613464 0.484192 0.000000
0.745239 0.484192 0.000000
0.000000 0.613464 0.000000
0.000000 0.613464 0.000000
0.080872 0.613464 0.000000
0.228577 0.613464 0.000000
0.356812 0.613464 0.000000
0.484192 0.613464 0.000000
0.613464 0.613464 0.000000
0.745239 0.613464 0.000000
0.000000 0.745239 0.000000
0.000000 0.745239 0.000000
0.080872 0.745239 0.000000
0.228577 0.745239 0.000000
0.356812 0.745239 0.000000
0.484192 0.745239 0.000000
0.613464 0.745239 0.000000
0.745239 0.745239 0.000000
0.000000 0.000000 0.000000
0.000000 0.000000 0.000000
0.080872 0.000000 0.000000
0.228577 0.000000 0.000000
0.356812 0.000000 0.000000
0.484192 0.000000 0.000000
0.613464 0.000000 0.000000
0.745239 0.000000 0.000000
0.000000 0.000000 0.000000
0.000000 0.000000 0.000000
0.080872 0.000000 0.000000
0.228577 0.000000 0.000000
0.356812 0.000000 0.000000
0.484192 0.000000 0.000000
0.613464 0.000000 0.000000
0.745239 0.000000 0.000000
0.000000 0.080872 0.000000
0.000000 0.080872 0.000000
0.080872 0.080872 0.000000
0.228577 0.080872 0.000000
0.356812 0.080872 0.000000
0.484192 0.080872 0.000000
0.613464 0.080872 0.000000
0.745239 0.080872 0.000000
0.000000 0.228577 0.000000
0.000000 0.228577 0.000000
0.080872 0.228577 0.000000
0.228577 0.228577 0.000000
0.356812 0.228577 0.000000
0.484192 0.228577 0.000000
0.613464 0.228577 0.000000
0.745239 0.228577 0.000000
0.000000 0.356812 0.000000
0.000000 0.356812 0.000000
0.080872 0.356812 0.000000
0.228577 0.356812 0.000000
0.356812 0.356812 0.000000
0.484192 0.356812 0.000000
0.613464 0.356812 0.000000
0.745239 0.356812 0.000000
0.000000 0.484192 0.000000
0.000000 0.484192 0.000000
0.080872 0.484192 0.000000
0.228577 0.484192 0.000000
0.356812 0.484192 0.000000
0.484192 0.484192 0.000000
0.613464 0.484192 0.000000
0.745239 0.484192 0.000000
0.000000 0.613464 0.000000
0.000000 0.613464 0.000000
0.080872 0.613464 0.000000
0.228577 0.613464 0.000000
0.356812 0.613464 0.000000
0.484192 0.613464 0.000000
0.613464 0.613464 0.000000
0.745239 0.613464 0.000000
0.000000 0.745239 0.000000
0.000000 0.745239 0.000000
0.080872 0.745239 0.000000
0.228577 0.745239 0.000000
0.356812 0.745239 0.000000
0.484192 0.745239 0.000000
0.613464 0.745239 0.000000
0.745239 0.745239 0.000000
0.000000 0.000000 0.080872
0.000000 0.000000 0.080872
0.080872 0.000000 0.080872
0.228577 0.000000 0.080872
0.356812 0.000000 0.080872
0.484192 0.000000 0.080872
0.613464 0.000000 0.080872
0.745239 0.000000 0.080872
0.000000 0.000000 0.080872
0.000000 0.000000 0.080872
0.080872 0.000000 0.080872
0.228577 0.000000 0.080872
0.356812 0.000000 0.080872
0.484192 0.000000 0.080872
0.613464 0.000000 0.080872
0.745239 0.000000 0.080872
0.000000 0.080872 0.080872
0.000000 0.080872 0.080872
0.080872 0.080872 0.080872
0.228577 0.080872 0.080872
0.356812 0.080872 0.080872
0.484192 0.080872 0.080872
0.613464 0.080872 0.080872
0.745239 0.080872 0.080872
0.000000 0.228577 0.080872
0.000000 0.228577 0.080872
0.080872 0.228577 0.080872
0.228577 0.228577 0.080872
0.356812 0.228577 0.080872
0.484192 0.228577 0.080872
0.613464 0.228577 0.080872
0.745239 0.228577 0.080872
0.000000 0.356812 0.080872
0.000000 0.356812 0.080872
0.080872 0.356812 0.080872
0.228577 0.356812 0.080872
0.356812 0.356812 0.080872
0.484192 0.356812 0.080872
0.613464 0.356812 0.080872
0.745239 0.356812 0.080872
0.000000 0.484192 0.080872
0.000000 0.484192 0.080872
0.080872 0.484192 0.080872
0.228577 0.484192 0.080872
0.356812 0.484192 0.080872
0.484192 0.484192 0.080872
0.613464 0.484192 0.080872
0.745239 0.484192 0.080872
0.000000 0.613464 0.080872
0.000000 0.613464 0.080872
0.080872 0.613464 0.080872
0.228577 0.613464 0.080872
0.356812 0.613464 0.080872
0.484192 0.613464 0.080872
0.613464 0.613464 0.080872
0.745239 0.613464 0.080872
0.000000 0.745239 0.080872
0.000000 0.745239 0.080872
0.080872 0.745239 0.080872
0.228577 0.745239 0.080872
0.356812 0.745239 0.080872
0.484192 0.745239 0.080872
0.613464 0.745239 0.080872
0.745239 0.745239 0.080872
0.000000 0.000000 0.228577
0.000000 0.000000 0.228577
0.080872 0.000000 0.228577
0.228577 0.000000 0.228577
0.356812 0.000000 0.228577
0.484192 0.000000 0.228577
0.613464 0.000000 0.228577
0.745239 0.000000 0.228577
0.000000 0.000000 0.228577
0.000000 0.000000 0.228577
0.080872 0.000000 0.228577
0.228577 0.000000 0.228577
0.356812 0.000000 0.228577
0.484192 0.000000 0.228577
0.613464 0.000000 0.228577
0.745239 0.000000 0.228577
0.000000 0.080872 0.228577
0.000000 0.080872 0.228577
0.080872 0.080872 0.228577
0.228577 0.080872 0.228577
0.356812 0.080872 0.228577
0.484192 0.080872 0.228577
0.613464 0.080872 0.228577
0.745239 0.080872 0.228577
0.000000 0.228577 0.228577
0.000000 0.228577 0.228577
0.080872 0.228577 0.228577
0.228577 0.228577 0.228577
0.356812 0.228577 0.228577
0.484192 0.228577 0.228577
0.613464 0.228577 0.228577
0.745239 0.228577 0.228577
0.000000 0.356812 0.228577
0.000000 0.356812 0.228577
0.080872 0.356812 0.228577
0.228577 0.356812 0.228577
0.356812 0.356812 0.228577
0.484192 0.356812 0.228577
0.613464 0.356812 0.228577
0.745239 0.356812 0.228577
0.000000 0.484192 0.228577
0.000000 0.484192 0.228577
0.080872 0.484192 0.228577
0.228577 0.484192 0.228577
0.356812 0.484192 0.228577
0.484192 0.484192 0.228577
0.613464 0.484192 0.228577
0.745239 0.484192 0.228577
0.000000 0.613464 0.228577
0.000000 0.613464 0.228577
0.080872 0.613464 0.228577
0.228577 0.613464 0.228577
0.356812 0.613464 0.228577
0.484192 0.613464 0.228577
0.613464 0.613464 0.228577
0.745239 0.613464 0.228577
0.000000 0.745239 0.228577
0.000000 0.745239 0.228577
0.080872 0.745239 0.228577
0.228577 0.745239 0.228577
0.356812 0.745239 0.228577
0.484192 0.745239 0.228577
0.613464 0.745239 0.228577
0.745239 0.745239 0.228577
0.000000 0.000000 0.356812
0.000000 0.000000 0.356812
0.080872 0.000000 0.356812
0.228577 0.000000 0.356812
0.356812 0.000000 0.356812
0.484192 0.000000 0.356812
0.613464 0.000000 0.356812
0.745239 0.000000 0.356812
0.000000 0.000000 0.356812
0.000000 0.000000 0.356812
0.080872 0.000000 0.356812
0.228577 0.000000 0.356812
0.356812 0.000000 0.356812
0.484192 0.000000 0.356812
0.613464 0.000000 0.356812
0.745239 0.000000 0.356812
0.000000 0.080872 0.356812
0.000000 0.080872 0.356812
0.080872 0.080872 0.356812
0.228577 0.080872 0.356812
0.356812 0.080872 0.356812
0.484192 0.080872 0.356812
0.613464 0.080872 0.356812
0.745239 0.080872 0.356812
0.000000 0.228577 0.356812
0.000000 0.228577 0.356812
0.080872 0.228577 0.356812
0.228577 0.228577 0.356812
0.356812 0.228577 0.356812
0.484192 0.228577 0.356812
0.613464 0.228577 0.356812
0.745239 0.228577 0.356812
0.000000 0.356812 0.356812
0.000000 0.356812 0.356812
0.080872 0.356812 0.356812
0.228577 0.356812 0.356812
0.356812 0.356812 0.356812
0.484192 0.356812 0.356812
0.613464 0.356812 0.356812
0.745239 0.356812 0.356812
0.000000 0.484192 0.356812
0.000000 0.484192 0.356812
0.080872 0.484192 0.356812
0.228577 0.484192 0.356812
0.356812 0.484192 0.356812
0.484192 0.484192 0.356812
0.613464 0.484192 0.356812
0.745239 0.484192 0.356812
0.000000 0.613464 0.356812
0.000000 0.613464 0.356812
0.080872 0.613464 0.356812
0.228577 0.613464 0.356812
0.356812 0.613464 0.356812
0.484192 0.613464 0.356812
0.613464 0.613464 0.356812
0.745239 0.613464 0.356812
0.000000 0.745239 0.356812
0.000000 0.745239 0.356812
0.080872 0.745239 0.356812
0.228577 0.745239 0.356812
0.356812 0.745239 0.356812
0.484192 0.745239 0.356812
0.613464 0.745239 0.356812
0.745239 0.745239 0.356812
0.000000 0.000000 0.484192
0.000000 0.000000 0.484192
0.080872 0.000000 0.484192
0.228577 0.000000 0.484192
0.356812 0.000000 0.484192
0.484192 0.000000 0.484192
0.613464 0.000000 0.484192
0.745239 0.000000 0.484192
0.000000 0.000000 0.484192
0.000000 0.000000 0.484192
0.080872 0.000000 0.484192
0.228577 0.000000 0.484192
0.356812 0.000000 0.484192
0.484192 0.000000 0.484192
0.613464 0.000000 0.484192
0.745239 0.000000 0.484192
0.000000 0.080872 0.484192
0.000000 0.080872 0.484192
0.080872 0.080872 0.484192
0.228577 0.080872 0.484192
0.356812 0.080872 0.484192
0.484192 0.080872 0.484192
0.613464 0.080872 0.484192
0.745239 0.080872 0.484192
0.000000 0.228577 0.484192
0.000000 0.228577 0.484192
0.080872 0.228577 0.484192
0.228577 0.228577 0.484192
0.356812 0.228577 0.484192
0.484192 0.228577 0.484192
0.613464 0.228577 0.484192
0.745239 0.228577 0.484192
0.000000 0.356812 0.484192
0.000000 0.356812 0.484192
0.080872 0.356812 0.484192
0.228577 0.356812 0.484192
0.356812 0.356812 0.484192
0.484192 0.356812 0.484192
0.613464 0.356812 0.484192
0.745239 0.356812 0.484192
0.000000 0.484192 0.484192
0.000000 0.484192 0.484192
0.080872 0.484192 0.484192
0.228577 0.484192 0.484192
0.356812 0.484192 0.484192
0.484192 0.484192 0.484192
0.613464 0.484192 0.484192
0.745239 0.484192 0.484192
0.000000 0.613464 0.484192
0.000000 0.613464 0.484192
0.080872 0.613464 0.484192
0.228577 0.613464 0.484192
0.356812 0.613464 0.484192
0.484192 0.613464 0.484192
0.613464 0.613464 0.484192
0.745239 0.613464 0.484192
0.000000 0.745239 0.484192
0.000000 0.745239 0.484192
0.080872 0.745239 0.484192
0.228577 0.745239 0.484192
0.356812 0.745239 0.484192
0.484192 0.745239 0.484192
0.613464 0.745239 0.484192
0.745239 0.745239 0.484192
0.000000 0.000000 0.613464
0.000000 0.000000 0.613464
0.080872 0.000000 0.613464
0.228577 0.000000 0.613464
0.356812 0.000000 0.613464
0.484192 0.000000 0.613464
0.613464 0.000000 0.613464
0.745239 0.000000 0.613464
0.000000 0.000000 0.613464
0.000000 0.000000 0.613464
0.080872 0.000000 0.613464
0.228577 0.000000 0.613464
0.356812 0.000000 0.613464
0.484192 0.000000 0.613464
0.613464 0.000000 0.613464
0.745239 0.000000 0.613464
0.000000 0.080872 0.613464
0.000000 0.080872 0.613464
0.080872 0.080872 0.613464
0.228577 0.080872 0.613464
0.356812 0.080872 0.613464
0.484192 0.080872 0.613464
0.613464 0.080872 0.613464
0.745239 0.080872 0.613464
0.000000 0.228577 0.613464
0.000000 0.228577 0.613464
0.080872 0.228577 0.613464
0.228577 0.228577 0.613464
0.356812 0.228577 0.613464
0.484192 0.228577 0.613464
0.613464 0.228577 0.613464
0.745239 0.228577 0.613464
0.000000 0.356812 0.613464
0.000000 0.356812 0.613464
0.080872 0.356812 0.613464
0.228577 0.356812 0.613464
0.356812 0.356812 0.613464
0.484192 0.356812 0.613464
0.613464 0.356812 0.613464
0.745239 0.356812 0.613464
0.000000 0.484192 0.613464
0.000000 0.484192 0.613464
0.080872 0.484192 0.613464
0.228577 0.484192 0.613464
0.356812 0.484192 0.613464
0.484192 0.484192 0.613464
0.613464 0.484192 0.613464
0.745239 0.484192 0.613464
0.000000 0.613464 0.613464
0.000000 0.613464 0.613464
0.080872 0.613464 0.613464
0.228577 0.613464 0.613464
0.356812 0.613464 0.613464
0.484192 0.613464 0.613464
0.613464 0.613464 0.613464
0.745239 0.613464 0.613464
0.000000 0.745239 0.613464
0.000000 0.745239 0.613464
0.080872 0.745239 0.613464
0.228577 0.745239 0.613464
0.356812 0.745239 0.613464
0.484192 0.745239 0.613464
0.613464 0.745239 0.613464
0.745239 0.745239 0.613464
0.000000 0.000000 0.745239
0.000000 0.000000 0.745239
0.080872 0.000000 0.745239
0.228577 0.000000 0.745239
0.356812 0.000000 0.745239
0.484192 0.000000 0.745239
0.613464 0.000000 0.745239
0.745239 0.000000 0.745239
0.000000 0.000000 0.745239
0.000000 0.000000 0.745239
0.080872 0.000000 0.745239
0.228577 0.000000 0.745239
0.356812 0.000000 0.745239
0.484192 0.000000 0.745239
0.613464 0.000000 0.745239
0.745239 0.000000 0.745239
0.000000 0.080872 0.745239
0.000000 0.080872 0.745239
0.080872 0.080872 0.745239
0.228577 0.080872 0.745239
0.356812 0.080872 0.745239
0.484192 0.080872 0.745239
0.613464 0.080872 0.745239
0.745239 0.080872 0.745239
0.000000 0.228577 0.745239
0.000000 0.228577 0.745239
0.080872 0.228577 0.745239
0.228577 0.228577 0.745239
0.356812 0.228577 0.745239
0.484192 0.228577 0.745239
0.613464 0.228577 0.745239
0.745239 0.228577 0.745239
0.000000 0.356812 0.745239
0.000000 0.356812 0.745239
0.080872 0.356812 0.745239
0.228577 0.356812 0.745239
0.356812 0.356812 0.745239
0.484192 0.356812 0.745239
0.613464 0.356812 0.745239
0.745239 0.356812 0.745239
0.000000 0.484192 0.745239
0.000000 0.484192 0.745239
0.080872 0.484192 0.745239
0.228577 0.484192 0.745239
0.356812 0.484192 0.745239
0.484192 0.484192 0.745239
0.613464 0.484192 0.745239
0.745239 0.484192 0.745239
0.000000 0.613464 0.745239
0.000000 0.613464 0.745239
0.080872 0.613464 0.745239
0.228577 0.613464 0.745239
0.356812 0.613464 0.745239
0.484192 0.613464 0.745239
0.613464 0.613464 0.745239
0.745239 0.613464 0.745239
0.000000 0.745239 0.745239
0.000000 0.745239 0.745239
0.080872 0.745239 0.745239
0.228577 0.745239 0.745239
0.356812 0.745239 0.745239
0.484192 0.745239 0.745239
0.613464 0.745239 0.745239
0.745239 0.745239 0.745239
