dist/luts/Laptop, review and businessman with client collaboration, teamwork and strategy for company finance.CUBE
#Created by: Adobe Photoshop Export Color Lookup Plugin
TITLE "Laptop, review and businessman with client collaboration, teamwork and strategy for company finance.psd"
#LUT size
LUT_3D_SIZE 5
#data domain
#LUT data points
DOMAIN_MIN 0.000000 0.000000 0.000000
DOMAIN_MAX 0.903226 0.903226 0.903226
0.000000 0.000000 0.000000
0.000000 0.000000 0.000000
0.293152 0.000000 0.000000
0.516296 0.000000 0.000000
0.745239 0.000000 0.000000
0.000000 0.000000 0.000000
0.000000 0.000000 0.000000
0.293152 0.000000 0.000000
0.516296 0.000000 0.000000
0.745239 0.000000 0.000000
0.000000 0.293152 0.000000
0.000000 0.293152 0.000000
0.293152 0.293152 0.000000
0.516296 0.293152 0.000000
0.745239 0.293152 0.000000
0.000000 0.516296 0.000000
0.000000 0.516296 0.000000
0.293152 0.516296 0.000000
0.516296 0.516296 0.000000
0.745239 0.516296 0.000000
0.000000 0.745239 0.000000
0.000000 0.745239 0.000000
0.293152 0.745239 0.000000
0.516296 0.745239 0.000000
0.745239 0.745239 0.000000
0.000000 0.000000 0.000000
0.000000 0.000000 0.000000
0.293152 0.000000 0.000000
0.516296 0.000000 0.000000
0.745239 0.000000 0.000000
0.000000 0.000000 0.000000
0.000000 0.000000 0.000000
0.293152 0.000000 0.000000
0.516296 0.000000 0.000000
0.745239 0.000000 0.000000
0.000000 0.293152 0.000000
0.000000 0.293152 0.000000
0.293152 0.293152 0.000000
0.516296 0.293152 0.000000
0.745239 0.293152 0.000000
0.000000 0.516296 0.000000
0.000000 0.516296 0.000000
0.293152 0.516296 0.000000
0.516296 0.516296 0.000000
0.745239 0.516296 0.000000
0.000000 0.745239 0.000000
0.000000 0.745239 0.000000
0.293152 0.745239 0.000000
0.516296 0.745239 0.000000
0.745239 0.745239 0.000000
0.000000 0.000000 0.293152
0.000000 0.000000 0.293152
0.293152 0.000000 0.293152
0.516296 0.000000 0.293152
0.745239 0.000000 0.293152
0.000000 0.000000 0.293152
0.000000 0.000000 0.293152
0.293152 0.000000 0.293152
0.516296 0.000000 0.293152
0.745239 0.000000 0.293152
0.000000 0.293152 0.293152
0.000000 0.293152 0.293152
0.293152 0.293152 0.293152
0.516296 0.293152 0.293152
0.745239 0.293152 0.293152
0.000000 0.516296 0.293152
0.000000 0.516296 0.293152
0.293152 0.516296 0.293152
0.516296 0.516296 0.293152
0.745239 0.516296 0.293152
0.000000 0.745239 0.293152
0.000000 0.745239 0.293152
0.293152 0.745239 0.293152
0.516296 0.745239 0.293152
0.745239 0.745239 0.293152
0.000000 0.000000 0.516296
0.000000 0.000000 0.516296
0.293152 0.000000 0.516296
0.516296 0.000000 0.516296
0.745239 0.000000 0.516296
0.000000 0.000000 0.516296
0.000000 0.000000 0.516296
0.293152 0.000000 0.516296
0.516296 0.000000 0.516296
0.745239 0.000000 0.516296
0.000000 0.293152 0.516296
0.000000 0.293152 0.516296
0.293152 0.293152 0.516296
0.516296 0.293152 0.516296
0.745239 0.293152 0.516296
0.000000 0.516296 0.516296
0.000000 0.516296 0.516296
0.293152 0.516296 0.516296
0.516296 0.516296 0.516296
0.745239 0.516296 0.516296
0.000000 0.745239 0.516296
0.000000 0.745239 0.516296
0.293152 0.745239 0.516296
0.516296 0.745239 0.516296
0.745239 0.745239 0.516296
0.000000 0.000000 0.745239
0.000000 0.000000 0.745239
0.293152 0.000000 0.745239
0.516296 0.000000 0.745239
0.745239 0.000000 0.745239
0.000000 0.000000 0.745239
0.000000 0.000000 0.745239
0.293152 0.000000 0.745239
0.516296 0.000000 0.745239
0.745239 0.000000 0.745239
0.000000 0.293152 0.745239
0.000000 0.293152 0.745239
0.293152 0.293152 0.745239
0.516296 0.293152 0.745239
0.745239 0.293152 0.745239
0.000000 0.516296 0.745239
0.000000 0.516296 0.745239
0.293152 0.516296 0.745239
0.516296 0.516296 0.745239
0.745239 0.516296 0.745239
0.000000 0.745239 0.745239
0.000000 0.745239 0.745239
0.293152 0.745239 0.745239
0.516296 0.745239 0.745239
0.745239 0.745239 0.745239
