dist/luts/Laptop, review and businessman with client collaboration, teamwork and strategy for company finance.CUBE
#Created by: Adobe Photoshop Export Color Lookup Plugin
TITLE "Laptop, review and businessman with client collaboration, teamwork and strategy for company finance.psd"
#LUT size
LUT_3D_SIZE 32
#data domain
DOMAIN_MIN 0.0 0.0 0.0
DOMAIN_MAX 1.0 1.0 1.0
#LUT data points
0.000000 0.000000 0.000000
0.000000 0.000000 0.000000
0.000000 0.000000 0.000000
0.000000 0.000000 0.000000
0.000000 0.000000 0.000000
0.000000 0.000000 0.000000
0.000000 0.000000 0.000000
0.000000 0.000000 0.000000
0.080872 0.000000 0.000000
0.123749 0.000000 0.000000
0.160797 0.000000 0.000000
0.195343 0.000000 0.000000
0.228577 0.000000 0.000000
0.261047 0.000000 0.000000
0.293152 0.000000 0.000000
0.325012 0.000000 0.000000
0.356812 0.000000 0.000000
0.388550 0.000000 0.000000
0.420349 0.000000 0.000000
0.452209 0.000000 0.000000
0.484192 0.000000 0.000000
0.516296 0.000000 0.000000
0.548523 0.000000 0.000000
0.580902 0.000000 0.000000
0.613464 0.000000 0.000000
0.646149 0.000000 0.000000
0.679016 0.000000 0.000000
0.712036 0.000000 0.000000
0.745239 0.000000 0.000000
0.778595 0.000000 0.000000
0.812134 0.000000 0.000000
0.845825 0.000000 0.000000
0.000000 0.000000 0.000000
0.000000 0.000000 0.000000
0.000000 0.000000 0.000000
0.000000 0.000000 0.000000
0.000000 0.000000 0.000000
0.000000 0.000000 0.000000
0.000000 0.000000 0.000000
0.000000 0.000000 0.000000
0.080872 0.000000 0.000000
0.123749 0.000000 0.000000
0.160797 0.000000 0.000000
0.195343 0.000000 0.000000
0.228577 0.000000 0.000000
0.261047 0.000000 0.000000
0.293152 0.000000 0.000000
0.325012 0.000000 0.000000
0.356812 0.000000 0.000000
0.388550 0.000000 0.000000
0.420349 0.000000 0.000000
0.452209 0.000000 0.000000
0.484192 0.000000 0.000000
0.516296 0.000000 0.000000
0.548523 0.000000 0.000000
0.580902 0.000000 0.000000
0.613464 0.000000 0.000000
0.646149 0.000000 0.000000
0.679016 0.000000 0.000000
0.712036 0.000000 0.000000
0.745239 0.000000 0.000000
0.778595 0.000000 0.000000
0.812134 0.000000 0.000000
0.845825 0.000000 0.000000
0.000000 0.000000 0.000000
0.000000 0.000000 0.000000
0.000000 0.000000 0.000000
0.000000 0.000000 0.000000
0.000000 0.000000 0.000000
0.000000 0.000000 0.000000
0.000000 0.000000 0.000000
0.000000 0.000000 0.000000
0.080872 0.000000 0.000000
0.123749 0.000000 0.000000
0.160797 0.000000 0.000000
0.195343 0.000000 0.000000
0.228577 0.000000 0.000000
0.261047 0.000000 0.000000
0.293152 0.000000 0.000000
0.325012 0.000000 0.000000
0.356812 0.000000 0.000000
0.388550 0.000000 0.000000
0.420349 0.000000 0.000000
0.452209 0.000000 0.000000
0.484192 0.000000 0.000000
0.516296 0.000000 0.000000
0.548523 0.000000 0.000000
0.580902 0.000000 0.000000
0.613464 0.000000 0.000000
0.646149 0.000000 0.000000
0.679016 0.000000 0.000000
0.712036 0.000000 0.000000
0.745239 0.000000 0.000000
0.778595 0.000000 0.000000
0.812134 0.000000 0.000000
0.845825 0.000000 0.000000
0.000000 0.000000 0.000000
0.000000 0.000000 0.000000
0.000000 0.000000 0.000000
0.000000 0.000000 0.000000
0.000000 0.000000 0.000000
0.000000 0.000000 0.000000
0.000000 0.000000 0.000000
0.000000 0.000000 0.000000
0.080872 0.000000 0.000000
0.123749 0.000000 0.000000
0.160797 0.000000 0.000000
0.195343 0.000000 0.000000
0.228577 0.000000 0.000000
0.261047 0.000000 0.000000
0.293152 0.000000 0.000000
0.325012 0.000000 0.000000
0.356812 0.000000 0.000000
0.388550 0.000000 0.000000
0.420349 0.000000 0.000000
0.452209 0.000000 0.000000
0.484192 0.000000 0.000000
0.516296 0.000000 0.000000
0.548523 0.000000 0.000000
0.580902 0.000000 0.000000
0.613464 0.000000 0.000000
0.646149 0.000000 0.000000
0.679016 0.000000 0.000000
0.712036 0.000000 0.000000
0.745239 0.000000 0.000000
0.778595 0.000000 0.000000
0.812134 0.000000 0.000000
0.845825 0.000000 0.000000
0.000000 0.000000 0.000000
0.000000 0.000000 0.000000
0.000000 0.000000 0.000000
0.000000 0.000000 0.000000
0.000000 0.000000 0.000000
0.000000 0.000000 0.000000
0.000000 0.000000 0.000000
0.000000 0.000000 0.000000
0.080872 0.000000 0.000000
0.123749 0.000000 0.000000
0.160797 0.000000 0.000000
0.195343 0.000000 0.000000
0.228577 0.000000 0.000000
0.261047 0.000000 0.000000
0.293152 0.000000 0.000000
0.325012 0.000000 0.000000
0.356812 0.000000 0.000000
0.388550 0.000000 0.000000
0.420349 0.000000 0.000000
0.452209 0.000000 0.000000
0.484192 0.000000 0.000000
0.516296 0.000000 0.000000
0.548523 0.000000 0.000000
0.580902 0.000000 0.000000
0.613464 0.000000 0.000000
0.646149 0.000000 0.000000
0.679016 0.000000 0.000000
0.712036 0.000000 0.000000
0.745239 0.000000 0.000000
0.778595 0.000000 0.000000
0.812134 0.000000 0.000000
0.845825 0.000000 0.000000
0.000000 0.000000 0.000000
0.000000 0.000000 0.000000
0.000000 0.000000 0.000000
0.000000 0.000000 0.000000
0.000000 0.000000 0.000000
0.000000 0.000000 0.000000
0.000000 0.000000 0.000000
0.000000 0.000000 0.000000
0.080872 0.000000 0.000000
0.123749 0.000000 0.000000
0.160797 0.000000 0.000000
0.195343 0.000000 0.000000
0.228577 0.000000 0.000000
0.261047 0.000000 0.000000
0.293152 0.000000 0.000000
0.325012 0.000000 0.000000
0.356812 0.000000 0.000000
0.388550 0.000000 0.000000
0.420349 0.000000 0.000000
0.452209 0.000000 0.000000
0.484192 0.000000 0.000000
0.516296 0.000000 0.000000
0.548523 0.000000 0.000000
0.580902 0.000000 0.000000
0.613464 0.000000 0.000000
0.646149 0.000000 0.000000
0.679016 0.000000 0.000000
0.712036 0.000000 0.000000
0.745239 0.000000 0.000000
0.778595 0.000000 0.000000
0.812134 0.000000 0.000000
0.845825 0.000000 0.000000
0.000000 0.000000 0.000000
0.000000 0.000000 0.000000
0.000000 0.000000 0.000000
0.000000 0.000000 0.000000
0.000000 0.000000 0.000000
0.000000 0.000000 0.000000
0.000000 0.000000 0.000000
0.000000 0.000000 0.000000
0.080872 0.000000 0.000000
0.123749 0.000000 0.000000
0.160797 0.000000 0.000000
0.195343 0.000000 0.000000
0.228577 0.000000 0.000000
0.261047 0.000000 0.000000
0.293152 0.000000 0.000000
0.325012 0.000000 0.000000
0.356812 0.000000 0.000000
0.388550 0.000000 0.000000
0.420349 0.000000 0.000000
0.452209 0.000000 0.000000
0.484192 0.000000 0.000000
0.516296 0.000000 0.000000
0.548523 0.000000 0.000000
0.580902 0.000000 0.000000
0.613464 0.000000 0.000000
0.646149 0.000000 0.000000
0.679016 0.000000 0.000000
0.712036 0.000000 0.000000
0.745239 0.000000 0.000000
0.778595 0.000000 0.000000
0.812134 0.000000 0.000000
0.845825 0.000000 0.000000
0.000000 0.000000 0.000000
0.000000 0.000000 0.000000
0.000000 0.000000 0.000000
0.000000 0.000000 0.000000
0.000000 0.000000 0.000000
0.000000 0.000000 0.000000
0.000000 0.000000 0.000000
0.000000 0.000000 0.000000
0.080872 0.000000 0.000000
0.123749 0.000000 0.000000
0.160797 0.000000 0.000000
0.195343 0.000000 0.000000
0.228577 0.000000 0.000000
0.261047 0.000000 0.000000
0.293152 0.000000 0.000000
0.325012 0.000000 0.000000
0.356812 0.000000 0.000000
0.388550 0.000000 0.000000
0.420349 0.000000 0.000000
0.452209 0.000000 0.000000
0.484192 0.000000 0.000000
0.516296 0.000000 0.000000
0.548523 0.000000 0.000000
0.580902 0.000000 0.000000
0.613464 0.000000 0.000000
0.646149 0.000000 0.000000
0.679016 0.000000 0.000000
0.712036 0.000000 0.000000
0.745239 0.000000 0.000000
0.778595 0.000000 0.000000
0.812134 0.000000 0.000000
0.845825 0.000000 0.000000
0.000000 0.080872 0.000000
0.000000 0.080872 0.000000
0.000000 0.080872 0.000000
0.000000 0.080872 0.000000
0.000000 0.080872 0.000000
0.000000 0.080872 0.000000
0.000000 0.080872 0.000000
0.000000 0.080872 0.000000
0.080872 0.080872 0.000000
0.123749 0.080872 0.000000
0.160797 0.080872 0.000000
0.195343 0.080872 0.000000
0.228577 0.080872 0.000000
0.261047 0.080872 0.000000
0.293152 0.080872 0.000000
0.325012 0.080872 0.000000
0.356812 0.080872 0.000000
0.388550 0.080872 0.000000
0.420349 0.080872 0.000000
0.452209 0.080872 0.000000
0.484192 0.080872 0.000000
0.516296 0.080872 0.000000
0.548523 0.080872 0.000000
0.580902 0.080872 0.000000
0.613464 0.080872 0.000000
0.646149 0.080872 0.000000
0.679016 0.080872 0.000000
0.712036 0.080872 0.000000
0.745239 0.080872 0.000000
0.778595 0.080872 0.000000
0.812134 0.080872 0.000000
0.845825 0.080872 0.000000
0.000000 0.123749 0.000000
0.000000 0.123749 0.000000
0.000000 0.123749 0.000000
0.000000 0.123749 0.000000
0.000000 0.123749 0.000000
0.000000 0.123749 0.000000
0.000000 0.123749 0.000000
0.000000 0.123749 0.000000
0.080872 0.123749 0.000000
0.123749 0.123749 0.000000
0.160797 0.123749 0.000000
0.195343 0.123749 0.000000
0.228577 0.123749 0.000000
0.261047 0.123749 0.000000
0.293152 0.123749 0.000000
0.325012 0.123749 0.000000
0.356812 0.123749 0.000000
0.388550 0.123749 0.000000
0.420349 0.123749 0.000000
0.452209 0.123749 0.000000
0.484192 0.123749 0.000000
0.516296 0.123749 0.000000
0.548523 0.123749 0.000000
0.580902 0.123749 0.000000
0.613464 0.123749 0.000000
0.646149 0.123749 0.000000
0.679016 0.123749 0.000000
0.712036 0.123749 0.000000
0.745239 0.123749 0.000000
0.778595 0.123749 0.000000
0.812134 0.123749 0.000000
0.845825 0.123749 0.000000
0.000000 0.160797 0.000000
0.000000 0.160797 0.000000
0.000000 0.160797 0.000000
0.000000 0.160797 0.000000
0.000000 0.160797 0.000000
0.000000 0.160797 0.000000
0.000000 0.160797 0.000000
0.000000 0.160797 0.000000
0.080872 0.160797 0.000000
0.123749 0.160797 0.000000
0.160797 0.160797 0.000000
0.195343 0.160797 0.000000
0.228577 0.160797 0.000000
0.261047 0.160797 0.000000
0.293152 0.160797 0.000000
0.325012 0.160797 0.000000
0.356812 0.160797 0.000000
0.388550 0.160797 0.000000
0.420349 0.160797 0.000000
0.452209 0.160797 0.000000
0.484192 0.160797 0.000000
0.516296 0.160797 0.000000
0.548523 0.160797 0.000000
0.580902 0.160797 0.000000
0.613464 0.160797 0.000000
0.646149 0.160797 0.000000
0.679016 0.160797 0.000000
0.712036 0.160797 0.000000
0.745239 0.160797 0.000000
0.778595 0.160797 0.000000
0.812134 0.160797 0.000000
0.845825 0.160797 0.000000
0.000000 0.195343 0.000000
0.000000 0.195343 0.000000
0.000000 0.195343 0.000000
0.000000 0.195343 0.000000
0.000000 0.195343 0.000000
0.000000 0.195343 0.000000
0.000000 0.195343 0.000000
0.000000 0.195343 0.000000
0.080872 0.195343 0.000000
0.123749 0.195343 0.000000
0.160797 0.195343 0.000000
0.195343 0.195343 0.000000
0.228577 0.195343 0.000000
0.261047 0.195343 0.000000
0.293152 0.195343 0.000000
0.325012 0.195343 0.000000
0.356812 0.195343 0.000000
0.388550 0.195343 0.000000
0.420349 0.195343 0.000000
0.452209 0.195343 0.000000
0.484192 0.195343 0.000000
0.516296 0.195343 0.000000
0.548523 0.195343 0.000000
0.580902 0.195343 0.000000
0.613464 0.195343 0.000000
0.646149 0.195343 0.000000
0.679016 0.195343 0.000000
0.712036 0.195343 0.000000
0.745239 0.195343 0.000000
0.778595 0.195343 0.000000
0.812134 0.195343 0.000000
0.845825 0.195343 0.000000
0.000000 0.228577 0.000000
0.000000 0.228577 0.000000
0.000000 0.228577 0.000000
0.000000 0.228577 0.000000
0.000000 0.228577 0.000000
0.000000 0.228577 0.000000
0.000000 0.228577 0.000000
0.000000 0.228577 0.000000
0.080872 0.228577 0.000000
0.123749 0.228577 0.000000
0.160797 0.228577 0.000000
0.195343 0.228577 0.000000
0.228577 0.228577 0.000000
0.261047 0.228577 0.000000
0.293152 0.228577 0.000000
0.325012 0.228577 0.000000
0.356812 0.228577 0.000000
0.388550 0.228577 0.000000
0.420349 0.228577 0.000000
0.452209 0.228577 0.000000
0.484192 0.228577 0.000000
0.516296 0.228577 0.000000
0.548523 0.228577 0.000000
0.580902 0.228577 0.000000
0.613464 0.228577 0.000000
0.646149 0.228577 0.000000
0.679016 0.228577 0.000000
0.712036 0.228577 0.000000
0.745239 0.228577 0.000000
0.778595 0.228577 0.000000
0.812134 0.228577 0.000000
0.845825 0.228577 0.000000
0.000000 0.261047 0.000000
0.000000 0.261047 0.000000
0.000000 0.261047 0.000000
0.000000 0.261047 0.000000
0.000000 0.261047 0.000000
0.000000 0.261047 0.000000
0.000000 0.261047 0.000000
0.000000 0.261047 0.000000
0.080872 0.261047 0.000000
0.123749 0.261047 0.000000
0.160797 0.261047 0.000000
0.195343 0.261047 0.000000
0.228577 0.261047 0.000000
0.261047 0.261047 0.000000
0.293152 0.261047 0.000000
0.325012 0.261047 0.000000
0.356812 0.261047 0.000000
0.388550 0.261047 0.000000
0.420349 0.261047 0.000000
0.452209 0.261047 0.000000
0.484192 0.261047 0.000000
0.516296 0.261047 0.000000
0.548523 0.261047 0.000000
0.580902 0.261047 0.000000
0.613464 0.261047 0.000000
0.646149 0.261047 0.000000
0.679016 0.261047 0.000000
0.712036 0.261047 0.000000
0.745239 0.261047 0.000000
0.778595 0.261047 0.000000
0.812134 0.261047 0.000000
0.845825 0.261047 0.000000
0.000000 0.293152 0.000000
0.000000 0.293152 0.000000
0.000000 0.293152 0.000000
0.000000 0.293152 0.000000
0.000000 0.293152 0.000000
0.000000 0.293152 0.000000
0.000000 0.293152 0.000000
0.000000 0.293152 0.000000
0.080872 0.293152 0.000000
0.123749 0.293152 0.000000
0.160797 0.293152 0.000000
0.195343 0.293152 0.000000
0.228577 0.293152 0.000000
0.261047 0.293152 0.000000
0.293152 0.293152 0.000000
0.325012 0.293152 0.000000
0.356812 0.293152 0.000000
0.388550 0.293152 0.000000
0.420349 0.293152 0.000000
0.452209 0.293152 0.000000
0.484192 0.293152 0.000000
0.516296 0.293152 0.000000
0.548523 0.293152 0.000000
0.580902 0.293152 0.000000
0.613464 0.293152 0.000000
0.646149 0.293152 0.000000
0.679016 0.293152 0.000000
0.712036 0.293152 0.000000
0.745239 0.293152 0.000000
0.778595 0.293152 0.000000
0.812134 0.293152 0.000000
0.845825 0.293152 0.000000
0.000000 0.325012 0.000000
0.000000 0.325012 0.000000
0.000000 0.325012 0.000000
0.000000 0.325012 0.000000
0.000000 0.325012 0.000000
0.000000 0.325012 0.000000
0.000000 0.325012 0.000000
0.000000 0.325012 0.000000
0.080872 0.325012 0.000000
0.123749 0.325012 0.000000
0.160797 0.325012 0.000000
0.195343 0.325012 0.000000
0.228577 0.325012 0.000000
0.261047 0.325012 0.000000
0.293152 0.325012 0.000000
0.325012 0.325012 0.000000
0.356812 0.325012 0.000000
0.388550 0.325012 0.000000
0.420349 0.325012 0.000000
0.452209 0.325012 0.000000
0.484192 0.325012 0.000000
0.516296 0.325012 0.000000
0.548523 0.325012 0.000000
0.580902 0.325012 0.000000
0.613464 0.325012 0.000000
0.646149 0.325012 0.000000
0.679016 0.325012 0.000000
0.712036 0.325012 0.000000
0.745239 0.325012 0.000000
0.778595 0.325012 0.000000
0.812134 0.325012 0.000000
0.845825 0.325012 0.000000
0.000000 0.356812 0.000000
0.000000 0.356812 0.000000
0.000000 0.356812 0.000000
0.000000 0.356812 0.000000
0.000000 0.356812 0.000000
0.000000 0.356812 0.000000
0.000000 0.356812 0.000000
0.000000 0.356812 0.000000
0.080872 0.356812 0.000000
0.123749 0.356812 0.000000
0.160797 0.356812 0.000000
0.195343 0.356812 0.000000
0.228577 0.356812 0.000000
0.261047 0.356812 0.000000
0.293152 0.356812 0.000000
0.325012 0.356812 0.000000
0.356812 0.356812 0.000000
0.388550 0.356812 0.000000
0.420349 0.356812 0.000000
0.452209 0.356812 0.000000
0.484192 0.356812 0.000000
0.516296 0.356812 0.000000
0.548523 0.356812 0.000000
0.580902 0.356812 0.000000
0.613464 0.356812 0.000000
0.646149 0.356812 0.000000
0.679016 0.356812 0.000000
0.712036 0.356812 0.000000
0.745239 0.356812 0.000000
0.778595 0.356812 0.000000
0.812134 0.356812 0.000000
0.845825 0.356812 0.000000
0.000000 0.388550 0.000000
0.000000 0.388550 0.000000
0.000000 0.388550 0.000000
0.000000 0.388550 0.000000
0.000000 0.388550 0.000000
0.000000 0.388550 0.000000
0.000000 0.388550 0.000000
0.000000 0.388550 0.000000
0.080872 0.388550 0.000000
0.123749 0.388550 0.000000
0.160797 0.388550 0.000000
0.195343 0.388550 0.000000
0.228577 0.388550 0.000000
0.261047 0.388550 0.000000
0.293152 0.388550 0.000000
0.325012 0.388550 0.000000
0.356812 0.388550 0.000000
0.388550 0.388550 0.000000
0.420349 0.388550 0.000000
0.452209 0.388550 0.000000
0.484192 0.388550 0.000000
0.516296 0.388550 0.000000
0.548523 0.388550 0.000000
0.580902 0.388550 0.000000
0.613464 0.388550 0.000000
0.646149 0.388550 0.000000
0.679016 0.388550 0.000000
0.712036 0.388550 0.000000
0.745239 0.388550 0.000000
0.778595 0.388550 0.000000
0.812134 0.388550 0.000000
0.845825 0.388550 0.000000
0.000000 0.420349 0.000000
0.000000 0.420349 0.000000
0.000000 0.420349 0.000000
0.000000 0.420349 0.000000
0.000000 0.420349 0.000000
0.000000 0.420349 0.000000
0.000000 0.420349 0.000000
0.000000 0.420349 0.000000
0.080872 0.420349 0.000000
0.123749 0.420349 0.000000
0.160797 0.420349 0.000000
0.195343 0.420349 0.000000
0.228577 0.420349 0.000000
0.261047 0.420349 0.000000
0.293152 0.420349 0.000000
0.325012 0.420349 0.000000
0.356812 0.420349 0.000000
0.388550 0.420349 0.000000
0.420349 0.420349 0.000000
0.452209 0.420349 0.000000
0.484192 0.420349 0.000000
0.516296 0.420349 0.000000
0.548523 0.420349 0.000000
0.580902 0.420349 0.000000
0.613464 0.420349 0.000000
0.646149 0.420349 0.000000
0.679016 0.420349 0.000000
0.712036 0.420349 0.000000
0.745239 0.420349 0.000000
0.778595 0.420349 0.000000
0.812134 0.420349 0.000000
0.845825 0.420349 0.000000
0.000000 0.452209 0.000000
0.000000 0.452209 0.000000
0.000000 0.452209 0.000000
0.000000 0.452209 0.000000
0.000000 0.452209 0.000000
0.000000 0.452209 0.000000
0.000000 0.452209 0.000000
0.000000 0.452209 0.000000
0.080872 0.452209 0.000000
0.123749 0.452209 0.000000
0.160797 0.452209 0.000000
0.195343 0.452209 0.000000
0.228577 0.452209 0.000000
0.261047 0.452209 0.000000
0.293152 0.452209 0.000000
0.325012 0.452209 0.000000
0.356812 0.452209 0.000000
0.388550 0.452209 0.000000
0.420349 0.452209 0.000000
0.452209 0.452209 0.000000
0.484192 0.452209 0.000000
0.516296 0.452209 0.000000
0.548523 0.452209 0.000000
0.580902 0.452209 0.000000
0.613464 0.452209 0.000000
0.646149 0.452209 0.000000
0.679016 0.452209 0.000000
0.712036 0.452209 0.000000
0.745239 0.452209 0.000000
0.778595 0.452209 0.000000
0.812134 0.452209 0.000000
0.845825 0.452209 0.000000
0.000000 0.484192 0.000000
0.000000 0.484192 0.000000
0.000000 0.484192 0.000000
0.000000 0.484192 0.000000
0.000000 0.484192 0.000000
0.000000 0.484192 0.000000
0.000000 0.484192 0.000000
0.000000 0.484192 0.000000
0.080872 0.484192 0.000000
0.123749 0.484192 0.000000
0.160797 0.484192 0.000000
0.195343 0.484192 0.000000
0.228577 0.484192 0.000000
0.261047 0.484192 0.000000
0.293152 0.484192 0.000000
0.325012 0.484192 0.000000
0.356812 0.484192 0.000000
0.388550 0.484192 0.000000
0.420349 0.484192 0.000000
0.452209 0.484192 0.000000
0.484192 0.484192 0.000000
0.516296 0.484192 0.000000
0.548523 0.484192 0.000000
0.580902 0.484192 0.000000
0.613464 0.484192 0.000000
0.646149 0.484192 0.000000
0.679016 0.484192 0.000000
0.712036 0.484192 0.000000
0.745239 0.484192 0.000000
0.778595 0.484192 0.000000
0.812134 0.484192 0.000000
0.845825 0.484192 0.000000
0.000000 0.516296 0.000000
0.000000 0.516296 0.000000
0.000000 0.516296 0.000000
0.000000 0.516296 0.000000
0.000000 0.516296 0.000000
0.000000 0.516296 0.000000
0.000000 0.516296 0.000000
0.000000 0.516296 0.000000
0.080872 0.516296 0.000000
0.123749 0.516296 0.000000
0.160797 0.516296 0.000000
0.195343 0.516296 0.000000
0.228577 0.516296 0.000000
0.261047 0.516296 0.000000
0.293152 0.516296 0.000000
0.325012 0.516296 0.000000
0.356812 0.516296 0.000000
0.388550 0.516296 0.000000
0.420349 0.516296 0.000000
0.452209 0.516296 0.000000
0.484192 0.516296 0.000000
0.516296 0.516296 0.000000
0.548523 0.516296 0.000000
0.580902 0.516296 0.000000
0.613464 0.516296 0.000000
0.646149 0.516296 0.000000
0.679016 0.516296 0.000000
0.712036 0.516296 0.000000
0.745239 0.516296 0.000000
0.778595 0.516296 0.000000
0.812134 0.516296 0.000000
0.845825 0.516296 0.000000
0.000000 0.548523 0.000000
0.000000 0.548523 0.000000
0.000000 0.548523 0.000000
0.000000 0.548523 0.000000
0.000000 0.548523 0.000000
0.000000 0.548523 0.000000
0.000000 0.548523 0.000000
0.000000 0.548523 0.000000
0.080872 0.548523 0.000000
0.123749 0.548523 0.000000
0.160797 0.548523 0.000000
0.195343 0.548523 0.000000
0.228577 0.548523 0.000000
0.261047 0.548523 0.000000
0.293152 0.548523 0.000000
0.325012 0.548523 0.000000
0.356812 0.548523 0.000000
0.388550 0.548523 0.000000
0.420349 0.548523 0.000000
0.452209 0.548523 0.000000
0.484192 0.548523 0.000000
0.516296 0.548523 0.000000
0.548523 0.548523 0.000000
0.580902 0.548523 0.000000
0.613464 0.548523 0.000000
0.646149 0.548523 0.000000
0.679016 0.548523 0.000000
0.712036 0.548523 0.000000
0.745239 0.548523 0.000000
0.778595 0.548523 0.000000
0.812134 0.548523 0.000000
0.845825 0.548523 0.000000
0.000000 0.580902 0.000000
0.000000 0.580902 0.000000
0.000000 0.580902 0.000000
0.000000 0.580902 0.000000
0.000000 0.580902 0.000000
0.000000 0.580902 0.000000
0.000000 0.580902 0.000000
0.000000 0.580902 0.000000
0.080872 0.580902 0.000000
0.123749 0.580902 0.000000
0.160797 0.580902 0.000000
0.195343 0.580902 0.000000
0.228577 0.580902 0.000000
0.261047 0.580902 0.000000
0.293152 0.580902 0.000000
0.325012 0.580902 0.000000
0.356812 0.580902 0.000000
0.388550 0.580902 0.000000
0.420349 0.580902 0.000000
0.452209 0.580902 0.000000
0.484192 0.580902 0.000000
0.516296 0.580902 0.000000
0.548523 0.580902 0.000000
0.580902 0.580902 0.000000
0.613464 0.580902 0.000000
0.646149 0.580902 0.000000
0.679016 0.580902 0.000000
0.712036 0.580902 0.000000
0.745239 0.580902 0.000000
0.778595 0.580902 0.000000
0.812134 0.580902 0.000000
0.845825 0.580902 0.000000
0.000000 0.613464 0.000000
0.000000 0.613464 0.000000
0.000000 0.613464 0.000000
0.000000 0.613464 0.000000
0.000000 0.613464 0.000000
0.000000 0.613464 0.000000
0.000000 0.613464 0.000000
0.000000 0.613464 0.000000
0.080872 0.613464 0.000000
0.123749 0.613464 0.000000
0.160797 0.613464 0.000000
0.195343 0.613464 0.000000
0.228577 0.613464 0.000000
0.261047 0.613464 0.000000
0.293152 0.613464 0.000000
0.325012 0.613464 0.000000
0.356812 0.613464 0.000000
0.388550 0.613464 0.000000
0.420349 0.613464 0.000000
0.452209 0.613464 0.000000
0.484192 0.613464 0.000000
0.516296 0.613464 0.000000
0.548523 0.613464 0.000000
0.580902 0.613464 0.000000
0.613464 0.613464 0.000000
0.646149 0.613464 0.000000
0.679016 0.613464 0.000000
0.712036 0.613464 0.000000
0.745239 0.613464 0.000000
0.778595 0.613464 0.000000
0.812134 0.613464 0.000000
0.845825 0.613464 0.000000
0.000000 0.646149 0.000000
0.000000 0.646149 0.000000
0.000000 0.646149 0.000000
0.000000 0.646149 0.000000
0.000000 0.646149 0.000000
0.000000 0.646149 0.000000
0.000000 0.646149 0.000000
0.000000 0.646149 0.000000
0.080872 0.646149 0.000000
0.123749 0.646149 0.000000
0.160797 0.646149 0.000000
0.195343 0.646149 0.000000
0.228577 0.646149 0.000000
0.261047 0.646149 0.000000
0.293152 0.646149 0.000000
0.325012 0.646149 0.000000
0.356812 0.646149 0.000000
0.388550 0.646149 0.000000
0.420349 0.646149 0.000000
0.452209 0.646149 0.000000
0.484192 0.646149 0.000000
0.516296 0.646149 0.000000
0.548523 0.646149 0.000000
0.580902 0.646149 0.000000
0.613464 0.646149 0.000000
0.646149 0.646149 0.000000
0.679016 0.646149 0.000000
0.712036 0.646149 0.000000
0.745239 0.646149 0.000000
0.778595 0.646149 0.000000
0.812134 0.646149 0.000000
0.845825 0.646149 0.000000
0.000000 0.679016 0.000000
0.000000 0.679016 0.000000
0.000000 0.679016 0.000000
0.000000 0.679016 0.000000
0.000000 0.679016 0.000000
0.000000 0.679016 0.000000
0.000000 0.679016 0.000000
0.000000 0.679016 0.000000
0.080872 0.679016 0.000000
0.123749 0.679016 0.000000
0.160797 0.679016 0.000000
0.195343 0.679016 0.000000
0.228577 0.679016 0.000000
0.261047 0.679016 0.000000
0.293152 0.679016 0.000000
0.325012 0.679016 0.000000
0.356812 0.679016 0.000000
0.388550 0.679016 0.000000
0.420349 0.679016 0.000000
0.452209 0.679016 0.000000
0.484192 0.679016 0.000000
0.516296 0.679016 0.000000
0.548523 0.679016 0.000000
0.580902 0.679016 0.000000
0.613464 0.679016 0.000000
0.646149 0.679016 0.000000
0.679016 0.679016 0.000000
0.712036 0.679016 0.000000
0.745239 0.679016 0.000000
0.778595 0.679016 0.000000
0.812134 0.679016 0.000000
0.845825 0.679016 0.000000
0.000000 0.712036 0.000000
0.000000 0.712036 0.000000
0.000000 0.712036 0.000000
0.000000 0.712036 0.000000
0.000000 0.712036 0.000000
0.000000 0.712036 0.000000
0.000000 0.712036 0.000000
0.000000 0.712036 0.000000
0.080872 0.712036 0.000000
0.123749 0.712036 0.000000
0.160797 0.712036 0.000000
0.195343 0.712036 0.000000
0.228577 0.712036 0.000000
0.261047 0.712036 0.000000
