dist/luts/MOIM Vaasa Plant Photoshoot - 6 2.CUBE
#Created by: Adobe Photoshop Export Color Lookup Plugin
TITLE "MOIM Vaasa Plant Photoshoot - 6 2.psd"
#LUT size
LUT_3D_SIZE 32
#data domain
DOMAIN_MIN 0.0 0.0 0.0
DOMAIN_MAX 1.0 1.0 1.0
#LUT data points
0.000000 0.000000 0.000000
0.041046 0.001373 0.000977
0.079041 0.002106 0.001587
0.114288 0.003021 0.002167
0.149384 0.003571 0.002594
0.182922 0.004242 0.003113
0.215698 0.005005 0.003693
0.247894 0.005707 0.004272
0.279785 0.006317 0.004730
0.310791 0.007080 0.005341
0.341553 0.007782 0.005920
0.371979 0.008514 0.006470
0.402130 0.009216 0.007050
0.432007 0.009918 0.007660
0.461456 0.010681 0.008270
0.490784 0.011383 0.008820
0.519897 0.012177 0.009460
0.548828 0.012909 0.010071
0.577484 0.013611 0.010681
0.605957 0.014404 0.011292
0.634277 0.015137 0.011932
0.662445 0.015900 0.012573
0.690460 0.016632 0.013184
0.718292 0.017395 0.013824
0.746033 0.018127 0.014435
0.773590 0.018890 0.015076
0.801056 0.019684 0.015747
0.828400 0.020416 0.016357
0.855621 0.021210 0.017059
0.882751 0.021973 0.017670
0.909729 0.022736 0.018341
0.936615 0.023499 0.018982
0.014282 0.020660 0.002625
0.052307 0.022278 0.004120
0.089172 0.023102 0.005463
0.125610 0.023376 0.006653
0.161163 0.023468 0.008148
0.195648 0.023590 0.009613
0.229736 0.023468 0.011414
0.264313 0.022827 0.013763
0.298370 0.022125 0.016205
0.330688 0.022125 0.017822
0.361176 0.022919 0.018494
0.391449 0.023682 0.019135
0.421295 0.024445 0.019806
0.450989 0.025238 0.020477
0.480255 0.026062 0.021179
0.509399 0.026825 0.021851
0.538361 0.027618 0.022522
0.567047 0.028412 0.023193
0.595673 0.029205 0.023895
0.624054 0.029999 0.024567
0.652283 0.030792 0.025238
0.680298 0.031555 0.025940
0.708221 0.032379 0.026611
0.735962 0.033173 0.027313
0.763550 0.033966 0.028046
0.791107 0.034729 0.028687
0.818481 0.035522 0.029388
0.845703 0.036316 0.030090
0.872864 0.037140 0.030792
0.899841 0.037903 0.031494
0.926849 0.038757 0.032227
0.953644 0.039551 0.032928
0.023285 0.044708 0.004761
0.061218 0.045990 0.006439
0.097046 0.047028 0.007751
0.132477 0.047668 0.009155
0.166656 0.048248 0.010498
0.200928 0.048340 0.012238
0.235901 0.047729 0.014465
0.269196 0.047607 0.016541
0.303497 0.046661 0.019135
0.336945 0.045898 0.021851
0.371033 0.044556 0.025085
0.405060 0.042969 0.028748
0.438751 0.041382 0.032532
0.469757 0.041290 0.034454
0.498932 0.042145 0.035187
0.527954 0.042938 0.035919
0.556824 0.043732 0.036621
0.585388 0.044556 0.037323
0.613800 0.045349 0.038055
0.642029 0.046173 0.038788
0.670166 0.047028 0.039520
0.698059 0.047852 0.040253
0.725891 0.048676 0.040985
0.753601 0.049469 0.041718
0.781128 0.050293 0.042450
0.808533 0.051117 0.043182
0.835846 0.051910 0.043884
0.863007 0.052734 0.044617
0.890045 0.053558 0.045349
0.917023 0.054382 0.046112
0.943909 0.055206 0.046844
0.970642 0.056030 0.047577
0.032776 0.069824 0.005676
0.069519 0.071289 0.007172
0.102692 0.073120 0.008728
0.136932 0.074127 0.010162
0.170898 0.074707 0.011627
0.203674 0.075500 0.012970
0.237732 0.075348 0.014771
0.270630 0.075500 0.016571
0.303711 0.075226 0.018677
0.336517 0.074799 0.020996
0.369873 0.073822 0.023743
0.403137 0.072662 0.026825
0.436798 0.071075 0.030640
0.471680 0.068512 0.035400
0.505310 0.066437 0.039795
0.539795 0.063721 0.045074
0.574707 0.060608 0.050934
0.603668 0.061157 0.052155
0.632019 0.061951 0.052887
0.660095 0.062775 0.053650
0.688080 0.063629 0.054413
0.715912 0.064484 0.055176
0.743652 0.065277 0.055939
0.771179 0.066162 0.056702
0.798615 0.066986 0.057465
0.825989 0.067841 0.058197
0.853180 0.068695 0.058990
0.880341 0.069550 0.059784
0.907288 0.070374 0.060547
0.934143 0.071198 0.061279
0.960907 0.072052 0.062042
0.987640 0.072876 0.062805
0.042236 0.095551 0.006439
0.077118 0.097473 0.007965
0.110352 0.099182 0.009705
0.142456 0.100830 0.011292
0.175049 0.102020 0.012665
0.208130 0.102600 0.014130
0.240875 0.103058 0.015686
0.272797 0.103638 0.017151
0.305786 0.103424 0.019043
0.338074 0.103302 0.020996
0.369934 0.103241 0.023132
0.402039 0.102753 0.025421
0.434418 0.101959 0.028137
0.466766 0.100891 0.031189
0.499420 0.099487 0.034698
0.532562 0.097626 0.038757
0.566528 0.095001 0.043671
0.600800 0.092041 0.049316
0.635773 0.088440 0.055786
0.671448 0.084198 0.063049
0.706055 0.080536 0.069794
0.733704 0.081421 0.070618
0.761353 0.082275 0.071381
0.788849 0.083130 0.072174
0.816162 0.083984 0.072968
0.843384 0.084839 0.073730
0.870544 0.085693 0.074524
0.897552 0.086548 0.075317
0.924500 0.087402 0.076080
0.951294 0.088287 0.076904
0.978058 0.089172 0.077728
1.000000 0.092072 0.080383
0.054169 0.120911 0.006653
0.087708 0.122986 0.008240
0.117859 0.125702 0.010437
0.149384 0.127563 0.012238
0.180847 0.129089 0.013733
0.212769 0.130188 0.015259
0.244873 0.130920 0.016693
0.276917 0.131409 0.018280
0.308105 0.132080 0.019775
0.340057 0.132141 0.021545
0.371796 0.132111 0.023438
0.403473 0.131897 0.025513
0.434662 0.131775 0.027618
0.466125 0.131317 0.029999
0.497894 0.130524 0.032745
0.529572 0.129547 0.035736
0.561523 0.128265 0.039062
0.593445 0.126831 0.042694
0.625763 0.124969 0.046814
0.658875 0.122467 0.051727
0.692413 0.119446 0.057373
0.727203 0.115448 0.064301
0.763550 0.110291 0.072937
0.799927 0.104889 0.081970
0.833710 0.101196 0.088837
0.860901 0.102051 0.089630
0.887909 0.102936 0.090485
0.914856 0.103851 0.091309
0.941711 0.104675 0.092072
0.968414 0.105530 0.092896
0.995087 0.106415 0.093689
1.000000 0.117004 0.103577
0.065857 0.146637 0.006775
0.097870 0.149048 0.008667
0.126434 0.152252 0.011139
0.156097 0.154724 0.013062
0.187042 0.156372 0.014771
0.218140 0.157776 0.016357
0.249603 0.158752 0.017822
0.281067 0.159515 0.019379
0.312347 0.160156 0.020935
0.343292 0.160736 0.022522
0.374512 0.160980 0.024170
0.405304 0.161224 0.025970
0.436371 0.161163 0.027954
0.467285 0.161041 0.029968
0.498169 0.160767 0.032227
0.529144 0.160278 0.034698
0.560028 0.159698 0.037292
0.591339 0.158691 0.040314
0.622437 0.157684 0.043427
0.653778 0.156311 0.046936
0.685333 0.154724 0.050812
0.717316 0.152679 0.055145
0.749664 0.150208 0.060089
0.782684 0.147186 0.065796
0.816467 0.143463 0.072449
0.851440 0.138794 0.080383
0.888824 0.132233 0.090912
0.927002 0.124969 0.102539
0.958954 0.122131 0.108368
0.985626 0.123016 0.109222
1.000000 0.129395 0.115204
1.000000 0.142334 0.127411
0.078949 0.172150 0.006561
0.109131 0.175018 0.008789
0.135193 0.179016 0.011658
0.163452 0.181946 0.013916
0.193848 0.183807 0.015778
0.223816 0.185638 0.017456
0.254333 0.187012 0.019012
0.285522 0.187866 0.020508
0.316315 0.188690 0.022034
0.347076 0.189331 0.023560
0.377472 0.189972 0.025177
0.408112 0.190399 0.026855
0.438934 0.190491 0.028656
0.469421 0.190582 0.030579
0.499847 0.190582 0.032532
0.530334 0.190399 0.034698
0.560638 0.190155 0.036926
0.591187 0.189636 0.039429
0.621582 0.189056 0.042023
0.652313 0.188202 0.044983
0.683075 0.187134 0.048157
0.713715 0.185974 0.051422
0.744629 0.184601 0.055084
0.775818 0.182800 0.059143
0.807434 0.180664 0.063690
0.839355 0.178162 0.068756
0.871490 0.175354 0.074219
0.904541 0.171753 0.080719
0.938751 0.167267 0.088470
0.974243 0.161682 0.097717
1.000000 0.159515 0.116211
1.000000 0.168762 0.148010
0.092773 0.197540 0.006165
0.119110 0.201630 0.008942
0.144409 0.205872 0.011963
0.171753 0.209106 0.014557
0.200317 0.211670 0.016632
0.230164 0.213501 0.018433
0.260040 0.215118 0.020081
0.290161 0.216400 0.021637
0.320892 0.217194 0.023193
0.351074 0.218140 0.024750
0.381317 0.218842 0.026337
0.411560 0.219452 0.027924
0.441864 0.219788 0.029602
0.471954 0.220154 0.031342
0.502045 0.220337 0.033173
0.532196 0.220398 0.035187
0.562256 0.220337 0.037201
0.592041 0.220306 0.039337
0.622284 0.219818 0.041718
0.652344 0.219391 0.044220
0.682465 0.218750 0.046906
0.712494 0.218018 0.049713
0.742706 0.217041 0.052734
0.772980 0.216003 0.056030
0.803406 0.214722 0.059509
0.834045 0.213135 0.063416
0.864929 0.211243 0.067596
0.896027 0.209106 0.072235
0.927277 0.206757 0.077148
0.959290 0.203735 0.082916
0.991821 0.200256 0.089325
1.000000 0.207123 0.110443
0.105988 0.223358 0.005798
0.130585 0.227966 0.008972
0.154419 0.232635 0.012268
0.180115 0.236450 0.015106
0.208038 0.239227 0.017395
0.236389 0.241608 0.019409
0.266144 0.243225 0.021149
0.295746 0.244781 0.022797
0.325592 0.246002 0.024384
0.355530 0.247009 0.025909
0.385406 0.247894 0.027496
0.415283 0.248627 0.029022
0.445282 0.249207 0.030701
0.475067 0.249664 0.032318
0.504852 0.250031 0.034088
0.534607 0.250275 0.035919
0.564270 0.250519 0.037781
0.594086 0.250427 0.039856
0.623840 0.250305 0.042023
0.653381 0.250183 0.044220
0.682983 0.249878 0.046539
0.712677 0.249420 0.049072
0.742432 0.248779 0.051727
0.772125 0.248138 0.054535
0.802002 0.247192 0.057556
0.831940 0.246094 0.060822
0.861847 0.244904 0.064209
0.892029 0.243530 0.067963
0.922333 0.241882 0.071960
0.952789 0.239990 0.076202
0.983459 0.237885 0.080872
1.000000 0.241486 0.095428
0.118622 0.249481 0.005554
0.141266 0.254761 0.009033
0.164246 0.259705 0.012543
0.189209 0.263733 0.015533
0.215759 0.266998 0.018036
0.243927 0.269440 0.020203
0.272369 0.271576 0.022125
0.301392 0.273315 0.023926
0.330780 0.274750 0.025513
0.360474 0.275818 0.027130
0.389954 0.276917 0.028687
0.419525 0.277832 0.030334
0.449158 0.278534 0.031891
0.478546 0.279236 0.033508
0.508148 0.279694 0.035187
0.537506 0.280182 0.036957
0.567108 0.280365 0.038757
0.596405 0.280640 0.040619
0.625763 0.280731 0.042572
0.655060 0.280762 0.044617
0.684479 0.280640 0.046814
0.713745 0.280457 0.049072
0.743103 0.280090 0.051483
0.772491 0.279633 0.054016
0.801880 0.279053 0.056671
0.831177 0.278412 0.059448
0.860748 0.277496 0.062500
0.890320 0.276520 0.065674
0.919952 0.275360 0.069031
0.949585 0.274078 0.072601
0.979553 0.272522 0.076477
1.000000 0.274841 0.087189
0.131866 0.275452 0.005127
0.153076 0.281189 0.008820
0.174500 0.286713 0.012665
0.198059 0.291290 0.015930
0.223938 0.294800 0.018677
0.251221 0.297546 0.020996
0.279022 0.299957 0.023071
0.307434 0.301910 0.024902
0.336548 0.303436 0.026611
0.365448 0.304901 0.028320
0.394684 0.306030 0.029938
0.423920 0.307098 0.031525
0.453217 0.307953 0.033112
0.482422 0.308746 0.034729
0.511658 0.309418 0.036377
0.540924 0.309967 0.038086
0.570038 0.310455 0.039764
0.599182 0.310791 0.041565
0.628357 0.311005 0.043457
0.657440 0.311157 0.045410
0.686462 0.311279 0.047394
0.715485 0.311218 0.049500
0.744568 0.311066 0.051727
0.773560 0.310883 0.054047
0.802673 0.310516 0.056488
0.831665 0.310089 0.058990
0.860748 0.309509 0.061707
0.889923 0.308838 0.064545
0.918945 0.308105 0.067444
0.948242 0.307098 0.070618
0.977570 0.306000 0.073944
1.000000 0.307556 0.082794
0.144409 0.301910 0.004822
0.164398 0.308044 0.008728
0.185120 0.313751 0.012695
0.207458 0.318787 0.016205
0.232361 0.322632 0.019135
0.258789 0.325684 0.021637
0.285919 0.328339 0.023865
0.313934 0.330475 0.025879
0.342346 0.332336 0.027679
0.370789 0.333984 0.029419
0.399689 0.335266 0.031128
0.428589 0.336456 0.032715
0.457458 0.337524 0.034332
0.486511 0.338379 0.035919
0.515442 0.339203 0.037567
0.544434 0.339844 0.039215
0.573334 0.340485 0.040894
0.602264 0.340973 0.042664
0.631195 0.341309 0.044403
0.660034 0.341644 0.046326
0.688812 0.341858 0.048187
0.717651 0.341980 0.050201
0.746460 0.341980 0.052246
0.775146 0.341980 0.054413
0.803986 0.341766 0.056671
0.832764 0.341492 0.059021
0.861511 0.341217 0.061462
0.890289 0.340790 0.064026
0.919098 0.340240 0.066742
0.947937 0.339600 0.069550
0.976807 0.338806 0.072510
1.000000 0.340179 0.080444
0.156799 0.328491 0.004486
0.176178 0.334839 0.008575
0.195374 0.341125 0.012787
0.217377 0.346222 0.016418
0.241150 0.350494 0.019562
0.266541 0.353973 0.022308
0.293365 0.356689 0.024628
0.320587 0.359131 0.026764
0.348389 0.361206 0.028687
0.376434 0.363037 0.030548
0.404938 0.364502 0.032227
0.433624 0.365814 0.033936
0.462097 0.367096 0.035583
0.490753 0.368134 0.037201
0.519531 0.368988 0.038818
0.548248 0.369781 0.040466
0.577026 0.370483 0.042145
0.605621 0.371124 0.043823
0.634338 0.371582 0.045563
0.662964 0.372040 0.047333
0.691559 0.372406 0.049194
0.720154 0.372650 0.051086
0.748657 0.372864 0.053040
0.777222 0.372925 0.055054
0.805756 0.372925 0.057190
0.834290 0.372864 0.059387
0.862823 0.372681 0.061646
0.891357 0.372437 0.064026
0.919861 0.372070 0.066498
0.948395 0.371643 0.069092
0.976959 0.371124 0.071808
1.000000 0.372620 0.079681
0.168915 0.355194 0.004211
0.187378 0.361877 0.008392
0.206177 0.368317 0.012695
0.227325 0.373779 0.016541
0.250275 0.378357 0.019897
0.274872 0.382141 0.022797
0.300995 0.385132 0.025330
0.327576 0.387848 0.027588
0.354889 0.390106 0.029663
0.382477 0.392120 0.031586
0.410583 0.393768 0.033386
0.438721 0.395294 0.035126
0.466980 0.396606 0.036774
0.495392 0.397797 0.038452
0.523773 0.398834 0.040039
0.552307 0.399811 0.041748
0.580811 0.400604 0.043396
0.609283 0.401276 0.045044
0.637787 0.401886 0.046753
0.666107 0.402466 0.048492
0.694489 0.402985 0.050262
0.722900 0.403351 0.052094
0.751312 0.403625 0.053986
0.779663 0.403870 0.055939
0.808075 0.403961 0.057983
0.836243 0.404083 0.060028
0.864594 0.404053 0.062164
0.892975 0.403931 0.064423
0.921234 0.403748 0.066742
0.949585 0.403442 0.069183
0.977753 0.403168 0.071625
1.000000 0.404907 0.080261
0.181274 0.382019 0.003876
0.198761 0.389038 0.008209
0.216736 0.395813 0.012695
0.237091 0.401489 0.016663
0.259308 0.406372 0.020203
0.283417 0.410339 0.023254
0.308594 0.413696 0.025970
0.334473 0.416687 0.028381
0.361450 0.419098 0.030579
0.388702 0.421265 0.032593
0.416260 0.423157 0.034485
0.444061 0.424774 0.036255
0.472137 0.426208 0.037994
0.500244 0.427521 0.039673
0.528351 0.428711 0.041351
0.556610 0.429718 0.042969
0.585022 0.430634 0.044647
0.613098 0.431549 0.046326
0.641418 0.432281 0.048004
0.669647 0.432922 0.049744
0.697906 0.433441 0.051453
0.726013 0.433960 0.053223
0.754211 0.434357 0.055054
0.782318 0.434753 0.056915
0.810547 0.434967 0.058868
0.838593 0.435181 0.060822
0.866699 0.435272 0.062897
0.894836 0.435364 0.065063
0.922852 0.435364 0.067200
0.951019 0.435211 0.069489
0.979065 0.434998 0.071838
1.000000 0.437225 0.081970
0.193359 0.409027 0.003540
0.210205 0.416290 0.007996
0.227875 0.423126 0.012543
0.247253 0.429230 0.016724
0.268707 0.434357 0.020416
0.292114 0.438629 0.023651
0.316650 0.442291 0.026520
0.342072 0.445465 0.029114
0.368500 0.448059 0.031403
0.395111 0.450470 0.033508
0.422241 0.452515 0.035492
0.449829 0.454285 0.037384
0.477448 0.455933 0.039154
0.505219 0.457336 0.040894
0.533142 0.458649 0.042603
0.561127 0.459778 0.044250
0.589172 0.460876 0.045959
0.617249 0.461792 0.047607
0.645233 0.462646 0.049255
0.673279 0.463409 0.050964
0.701294 0.464081 0.052704
0.729309 0.464691 0.054443
0.757324 0.465179 0.056213
0.785248 0.465637 0.058044
0.813293 0.466034 0.059937
0.841187 0.466339 0.061829
0.869202 0.466492 0.063843
0.897064 0.466675 0.065826
0.924988 0.466766 0.067963
0.952942 0.466766 0.070129
0.980743 0.466736 0.072296
1.000000 0.469421 0.084778
0.205444 0.436066 0.003265
0.221771 0.443542 0.007751
0.238342 0.450867 0.012482
0.257385 0.457062 0.016754
0.278320 0.462402 0.020599
0.300995 0.466919 0.024017
0.324738 0.470886 0.027039
0.349579 0.474274 0.029724
0.375458 0.477112 0.032196
0.401825 0.479645 0.034424
0.428528 0.481873 0.036499
0.455566 0.483856 0.038452
0.483002 0.485596 0.040314
0.510498 0.487183 0.042084
0.538086 0.488586 0.043823
0.565857 0.489868 0.045563
0.593658 0.490997 0.047180
0.621399 0.492126 0.048920
0.649323 0.493011 0.050568
0.677155 0.493896 0.052277
0.705048 0.494598 0.053955
0.732819 0.495331 0.055695
0.760712 0.495941 0.057465
0.788452 0.496521 0.059235
0.816284 0.496979 0.061066
0.844055 0.497345 0.062927
0.871826 0.497681 0.064789
0.899597 0.497925 0.066803
0.927277 0.498199 0.068787
0.955048 0.498291 0.070892
0.982788 0.498352 0.072998
1.000000 0.501556 0.088531
0.217285 0.463318 0.002930
0.233276 0.470947 0.007507
0.249390 0.478394 0.012329
0.267761 0.484863 0.016724
0.288086 0.490448 0.020752
0.309967 0.495300 0.024261
0.333099 0.499512 0.027496
0.357483 0.503052 0.030304
0.382690 0.506165 0.032898
0.408569 0.508881 0.035248
0.434875 0.511322 0.037415
0.461670 0.513367 0.039459
0.488617 0.515320 0.041382
0.515930 0.516998 0.043274
0.543213 0.518616 0.045044
0.570679 0.519989 0.046783
0.598358 0.521210 0.048492
0.625854 0.522369 0.050171
0.653503 0.523438 0.051849
0.681213 0.524353 0.053558
0.708923 0.525177 0.055267
0.736481 0.526062 0.056976
0.764191 0.526764 0.058685
0.791901 0.527344 0.060516
0.819489 0.527954 0.062256
0.847137 0.528412 0.064117
0.874695 0.528900 0.065948
0.902283 0.529236 0.067841
0.929962 0.529510 0.069824
0.957458 0.529785 0.071808
0.984985 0.529938 0.073822
1.000000 0.533539 0.093445
0.229034 0.490662 0.002655
0.244598 0.498413 0.007233
0.260498 0.505981 0.012115
0.278137 0.512756 0.016663
0.297821 0.518585 0.020782
0.319275 0.523621 0.024506
0.341644 0.528137 0.027863
0.365662 0.531830 0.030853
0.390198 0.535278 0.033539
0.415710 0.538086 0.036011
0.441467 0.540771 0.038330
0.467834 0.543060 0.040466
0.494598 0.545013 0.042419
0.521423 0.546936 0.044373
0.548553 0.548523 0.046204
0.575775 0.550049 0.047974
0.603058 0.551483 0.049774
0.630463 0.552734 0.051483
0.657867 0.553894 0.053162
0.685394 0.554901 0.054871
0.712891 0.555878 0.056580
0.740387 0.556763 0.058289
0.767822 0.557556 0.060028
0.795349 0.558258 0.061768
0.822906 0.558899 0.063507
0.850342 0.559509 0.065308
0.877808 0.560028 0.067139
0.905243 0.560486 0.069000
0.932648 0.560913 0.070892
0.960083 0.561218 0.072845
0.987549 0.561493 0.074829
1.000000 0.565521 0.099396
0.240936 0.518066 0.002350
0.255859 0.526062 0.006989
0.271271 0.533783 0.011932
0.288483 0.540771 0.016602
0.307617 0.546814 0.020844
0.328400 0.552063 0.024689
0.350433 0.556732 0.028168
0.373718 0.560760 0.031311
0.397949 0.564270 0.034119
0.422791 0.567474 0.036774
0.448364 0.570190 0.039154
0.474274 0.572662 0.041382
0.500641 0.574829 0.043457
0.527191 0.576813 0.045441
0.553894 0.578674 0.047333
0.580872 0.580292 0.049194
0.608093 0.581696 0.050964
0.635193 0.583130 0.052765
0.662506 0.584351 0.054474
0.689728 0.585541 0.056213
0.717102 0.586548 0.057892
0.744354 0.587524 0.059631
0.771729 0.588409 0.061371
0.799011 0.589233 0.063049
0.826385 0.589905 0.064789
0.853699 0.590607 0.066589
0.881042 0.591217 0.068390
0.908356 0.591705 0.070221
0.935638 0.592224 0.072083
0.962921 0.592682 0.073975
0.990234 0.593018 0.075928
1.000000 0.597321 0.106567
0.252686 0.545502 0.002045
0.267120 0.553772 0.006714
0.282410 0.561584 0.011719
0.299255 0.568634 0.016449
0.317749 0.574982 0.020844
0.337860 0.580536 0.024841
0.359406 0.585358 0.028442
0.382050 0.589661 0.031738
0.405731 0.593414 0.034729
0.430206 0.596680 0.037415
0.455261 0.599670 0.039917
0.480927 0.602234 0.042236
0.506805 0.604645 0.044403
0.533112 0.606750 0.046478
0.559601 0.608734 0.048492
0.586304 0.610443 0.050385
0.613190 0.612030 0.052216
0.640137 0.613464 0.053986
0.667145 0.614838 0.055725
0.694183 0.616089 0.057465
0.721344 0.617249 0.059235
0.748505 0.618317 0.060974
0.775726 0.619263 0.062653
0.802887 0.620148 0.064392
0.830078 0.620972 0.066132
0.857300 0.621735 0.067932
0.884491 0.622406 0.069702
0.911621 0.623047 0.071472
0.938782 0.623596 0.073303
0.965973 0.624054 0.075165
0.993073 0.624512 0.077057
1.000000 0.628906 0.114960
0.264130 0.573242 0.001770
0.278503 0.581482 0.006439
0.293060 0.589539 0.011505
0.309723 0.596680 0.016266
0.327850 0.603180 0.020782
0.347504 0.608978 0.024963
0.368317 0.614136 0.028687
0.390717 0.618530 0.032104
0.413727 0.622528 0.035217
0.437775 0.626007 0.038025
0.462433 0.629150 0.040680
0.487640 0.631897 0.043060
0.513245 0.634430 0.045349
0.539276 0.636658 0.047485
0.565369 0.638763 0.049500
0.591827 0.640625 0.051483
0.618439 0.642365 0.053375
0.645203 0.643921 0.055206
0.671997 0.645386 0.057037
0.698853 0.646698 0.058777
0.725830 0.647919 0.060547
0.752869 0.649078 0.062286
0.779907 0.650116 0.063995
0.806915 0.651062 0.065735
0.833923 0.652008 0.067444
0.860992 0.652863 0.069244
0.888000 0.653625 0.070984
0.915131 0.654297 0.072815
0.942108 0.654938 0.074585
0.969116 0.655548 0.076416
0.996155 0.656067 0.078278
1.000000 0.660309 0.125122
0.275818 0.600952 0.001465
0.289886 0.609253 0.006165
0.304138 0.617523 0.011261
0.320221 0.624908 0.016174
0.337891 0.631531 0.020752
0.356873 0.637573 0.025024
0.377563 0.642761 0.028839
0.399231 0.647461 0.032410
0.421936 0.651611 0.035645
0.445435 0.655365 0.038635
0.469757 0.658630 0.041351
0.494476 0.661652 0.043884
0.519775 0.664276 0.046234
0.545380 0.666687 0.048462
0.571381 0.668854 0.050568
0.597565 0.670837 0.052582
0.623779 0.672729 0.054535
0.650391 0.674408 0.056427
0.677032 0.675934 0.058258
0.703705 0.677338 0.060059
0.730377 0.678741 0.061829
0.757263 0.679901 0.063599
0.784058 0.681091 0.065338
0.810974 0.682098 0.067047
0.837860 0.683105 0.068817
0.864868 0.683960 0.070587
0.891663 0.684875 0.072327
0.918610 0.685638 0.074097
0.945526 0.686279 0.075897
0.972443 0.687012 0.077728
0.999329 0.687592 0.079559
1.000000 0.691498 0.136993
0.287323 0.628693 0.001190
0.300873 0.637268 0.005890
0.315002 0.645599 0.011047
0.330688 0.653137 0.015991
0.347839 0.660034 0.020691
0.366669 0.666107 0.025055
0.386749 0.671570 0.029022
0.407928 0.676453 0.032684
0.430206 0.680817 0.036041
0.453339 0.684662 0.039124
0.477142 0.688202 0.041962
0.501526 0.691284 0.044586
0.526398 0.694122 0.047058
0.551788 0.696716 0.049408
0.577454 0.699005 0.051544
0.603363 0.701111 0.053650
0.629456 0.703064 0.055664
0.655670 0.704865 0.057587
0.682129 0.706482 0.059479
0.708618 0.708008 0.061310
0.735168 0.709442 0.063080
0.761810 0.710815 0.064911
0.788483 0.712036 0.066650
0.815216 0.713135 0.068420
0.841980 0.714172 0.070190
0.868744 0.715210 0.071930
0.895599 0.716064 0.073700
0.922302 0.716919 0.075439
0.949097 0.717743 0.077240
0.975891 0.718414 0.079010
1.000000 0.719269 0.087158
1.000000 0.722351 0.150696
0.298584 0.656708 0.000946
0.312256 0.665192 0.005585
0.325775 0.673706 0.010773
0.341187 0.681396 0.015808
0.357910 0.688477 0.020599
0.376312 0.694702 0.025055
0.395905 0.700439 0.029175
0.416901 0.705414 0.032959
0.438568 0.710022 0.036407
0.461273 0.714081 0.039642
0.484680 0.717743 0.042572
0.508728 0.721008 0.045258
0.533356 0.723938 0.047852
0.558350 0.726654 0.050232
0.583740 0.729095 0.052521
0.609344 0.731293 0.054657
0.635193 0.733429 0.056732
0.661224 0.735321 0.058716
0.687408 0.737061 0.060669
0.713715 0.738708 0.062561
0.740082 0.740204 0.064362
0.766541 0.741608 0.066193
0.793030 0.742920 0.067963
0.819641 0.744141 0.069763
0.846191 0.745270 0.071503
0.872864 0.746368 0.073273
0.899475 0.747375 0.075073
0.926117 0.748260 0.076813
0.952820 0.749115 0.078583
0.979462 0.749939 0.080383
1.000000 0.750702 0.098206
1.000000 0.752777 0.167145
0.309998 0.684662 0.000671
0.323181 0.693390 0.005310
0.336792 0.701874 0.010498
0.351807 0.709717 0.015594
0.368317 0.716858 0.020447
0.386047 0.723450 0.025085
0.405396 0.729187 0.029236
0.425720 0.734436 0.033142
0.447144 0.739166 0.036743
0.469421 0.743378 0.040009
0.492462 0.747284 0.043121
0.516205 0.750671 0.045959
0.540436 0.753815 0.048615
0.564972 0.756744 0.051086
0.590057 0.759277 0.053436
0.615417 0.761627 0.055664
0.641052 0.763794 0.057800
0.666809 0.765808 0.059814
0.692719 0.767731 0.061829
0.718872 0.769440 0.063751
0.745087 0.771057 0.065643
0.771362 0.772552 0.067474
0.797699 0.773895 0.069275
0.824097 0.775177 0.071075
0.850586 0.776398 0.072845
0.877075 0.777527 0.074646
0.903534 0.778625 0.076416
0.930023 0.779633 0.078156
0.956573 0.780548 0.079956
0.983185 0.781403 0.081757
1.000000 0.781708 0.111633
1.000000 0.782654 0.186401
0.321320 0.712708 0.000397
0.334351 0.721436 0.005005
0.347687 0.730133 0.010254
0.362518 0.738037 0.015381
0.378601 0.745422 0.020325
0.396027 0.752075 0.024994
0.414734 0.758148 0.029327
0.434784 0.763489 0.033295
0.455658 0.768433 0.037048
0.477661 0.772797 0.040436
0.500214 0.776855 0.043610
0.523590 0.780457 0.046539
0.547485 0.783722 0.049316
0.571838 0.786682 0.051849
0.596680 0.789398 0.054321
0.621674 0.791931 0.056580
0.647034 0.794220 0.058807
