dist/luts/MOIM Vaasa Plant Photoshoot - 6 2.CUBE
#Created by: Adobe Photoshop Export Color Lookup Plugin
TITLE "MOIM Vaasa Plant Photoshoot - 6 2.psd"
#LUT size
LUT_3D_SIZE 5
#data domain
#LUT data points
DOMAIN_MIN 0.000000 0.000000 0.000000
DOMAIN_MAX 0.903226 0.903226 0.903226
0.000000 0.000000 0.000000
0.247894 0.005707 0.004272
0.461456 0.010681 0.008270
0.662445 0.015900 0.012573
0.855621 0.021210 0.017059
0.078949 0.172150 0.006561
0.285522 0.187866 0.020508
0.499847 0.190582 0.032532
0.713715 0.185974 0.051422
0.938751 0.167267 0.088470
0.168915 0.355194 0.004211
0.327576 0.387848 0.027588
0.523773 0.398834 0.040039
0.722900 0.403351 0.052094
0.921234 0.403748 0.066742
0.252686 0.545502 0.002045
0.382050 0.589661 0.031738
0.559601 0.608734 0.048492
0.748505 0.618317 0.060974
0.938782 0.623596 0.073303
0.332428 0.740936 0.000214
0.443787 0.792664 0.033478
0.603180 0.819580 0.055145
0.781342 0.834351 0.069977
0.964569 0.843445 0.082703
0.051483 0.000031 0.098694
0.263092 0.008514 0.137634
0.471649 0.015076 0.144684
0.670990 0.020966 0.150299
0.863403 0.026733 0.155365
0.117065 0.168762 0.133575
0.301575 0.191223 0.158356
0.511475 0.195404 0.174591
0.723969 0.191254 0.197296
0.949127 0.172180 0.239716
0.191742 0.358246 0.125824
0.342834 0.393402 0.158691
0.535492 0.405731 0.174438
0.733185 0.410797 0.188385
0.930756 0.411621 0.204193
0.271912 0.553314 0.106903
0.398193 0.598450 0.146393
0.573059 0.618469 0.166321
0.760651 0.628693 0.180206
0.950287 0.634460 0.192780
0.353607 0.754944 0.071777
0.463165 0.807190 0.114166
0.620697 0.834930 0.138580
0.797668 0.850281 0.154022
0.980377 0.859955 0.165802
0.110199 0.000031 0.184509
0.290985 0.005859 0.299744
0.486908 0.016022 0.312347
0.681824 0.023254 0.320709
0.872101 0.029694 0.327759
0.177185 0.153656 0.290680
0.331146 0.185822 0.328064
0.529907 0.193787 0.350586
0.738892 0.190552 0.378235
0.965912 0.169189 0.430267
0.230652 0.349213 0.291382
0.366943 0.389435 0.332703
0.550720 0.405121 0.353729
0.744476 0.411682 0.370911
0.940063 0.413177 0.389771
0.297180 0.547119 0.285339
0.416931 0.594635 0.331757
0.585510 0.617126 0.356537
0.769714 0.628632 0.373657
0.957489 0.635010 0.389313
0.369110 0.747742 0.272980
0.475433 0.801178 0.323334
0.628784 0.830597 0.352997
0.803040 0.846985 0.372437
0.983978 0.857056 0.388123
0.163116 0.000031 0.279663
0.330475 0.000031 0.468018
0.509674 0.014313 0.488495
0.697479 0.023834 0.500488
0.884216 0.031464 0.509613
0.246033 0.133759 0.458527
0.376434 0.173187 0.506927
0.559784 0.186523 0.537720
0.763580 0.184418 0.572205
0.998352 0.155853 0.642700
0.283081 0.334839 0.460938
0.403870 0.380402 0.510223
0.574768 0.401062 0.537720
0.762299 0.410065 0.558777
0.954559 0.412811 0.580536
0.337006 0.536804 0.460724
0.447784 0.587524 0.512970
0.606903 0.613861 0.543182
0.785583 0.627686 0.563782
0.970184 0.635406 0.581818
0.399475 0.740143 0.455475
0.501007 0.795441 0.510712
0.647644 0.827606 0.544983
0.817291 0.845978 0.567535
0.995422 0.857208 0.585663
0.213684 0.000031 0.379395
0.366486 0.000031 0.604218
0.539642 0.010040 0.669128
0.718140 0.022461 0.685699
0.899933 0.031799 0.697601
0.319763 0.110046 0.638245
0.433929 0.154083 0.695160
0.602356 0.172150 0.736053
0.801941 0.169800 0.782135
1.000000 0.165314 0.826019
0.342194 0.316833 0.636139
0.450653 0.366669 0.692139
0.607483 0.392792 0.726929
0.786713 0.405090 0.752747
0.974579 0.409485 0.777954
0.385712 0.522583 0.638824
0.487946 0.576324 0.696381
0.635925 0.607239 0.732452
0.807281 0.624176 0.757233
0.987579 0.633606 0.778229
0.439301 0.729065 0.638000
0.535278 0.786377 0.697540
0.673859 0.821930 0.736664
0.837311 0.842957 0.763000
1.000000 0.860809 0.796326
