dist/luts/MOIM Vaasa Plant Photoshoot - 6.CUBE
#Created by: Adobe Photoshop Export Color Lookup Plugin
TITLE "MOIM Vaasa Plant Photoshoot - 6.psd"
#LUT size
LUT_3D_SIZE 32
#data domain
DOMAIN_MIN 0.0 0.0 0.0
DOMAIN_MAX 1.0 1.0 1.0
#LUT data points
0.000000 0.000000 0.000000
0.047882 0.000000 0.000000
0.088440 0.000000 0.000000
0.126587 0.000000 0.000000
0.163330 0.000000 0.000000
0.198975 0.000000 0.000000
0.233795 0.000000 0.000000
0.267975 0.000000 0.000000
0.301575 0.000000 0.000000
0.334717 0.000000 0.000000
0.367401 0.000000 0.000000
0.399750 0.000000 0.000000
0.431732 0.000000 0.000000
0.463440 0.000000 0.000000
0.494843 0.000000 0.000000
0.526001 0.000000 0.000000
0.556946 0.000000 0.000000
0.587646 0.000000 0.000000
0.618134 0.000000 0.000000
0.648438 0.000000 0.000000
0.678528 0.000000 0.000000
0.708466 0.000000 0.000000
0.738251 0.000000 0.000000
0.767853 0.000000 0.000000
0.797333 0.000000 0.000000
0.826660 0.000000 0.000000
0.855865 0.000000 0.000000
0.884949 0.000000 0.000000
0.913849 0.000000 0.000000
0.942688 0.000000 0.000000
0.971405 0.000000 0.000000
1.000000 0.000000 0.000000
0.000000 0.020203 0.000000
0.047882 0.020203 0.000000
0.088440 0.020203 0.000000
0.126587 0.020203 0.000000
0.163330 0.020203 0.000000
0.198975 0.020203 0.000000
0.233795 0.020203 0.000000
0.267975 0.020203 0.000000
0.301575 0.020203 0.000000
0.334717 0.020203 0.000000
0.367401 0.020203 0.000000
0.399750 0.020203 0.000000
0.431732 0.020203 0.000000
0.463440 0.020203 0.000000
0.494843 0.020203 0.000000
0.526001 0.020203 0.000000
0.556946 0.020203 0.000000
0.587646 0.020203 0.000000
0.618134 0.020203 0.000000
0.648438 0.020203 0.000000
0.678528 0.020203 0.000000
0.708466 0.020203 0.000000
0.738251 0.020203 0.000000
0.767853 0.020203 0.000000
0.797333 0.020203 0.000000
0.826660 0.020203 0.000000
0.855865 0.020203 0.000000
0.884949 0.020203 0.000000
0.913849 0.020203 0.000000
0.942688 0.020203 0.000000
0.971405 0.020203 0.000000
1.000000 0.020203 0.000000
0.000000 0.044403 0.000000
0.047882 0.044403 0.000000
0.088440 0.044403 0.000000
0.126587 0.044403 0.000000
0.163330 0.044403 0.000000
0.198975 0.044403 0.000000
0.233795 0.044403 0.000000
0.267975 0.044403 0.000000
0.301575 0.044403 0.000000
0.334717 0.044403 0.000000
0.367401 0.044403 0.000000
0.399750 0.044403 0.000000
0.431732 0.044403 0.000000
0.463440 0.044403 0.000000
0.494843 0.044403 0.000000
0.526001 0.044403 0.000000
0.556946 0.044403 0.000000
0.587646 0.044403 0.000000
0.618134 0.044403 0.000000
0.648438 0.044403 0.000000
0.678528 0.044403 0.000000
0.708466 0.044403 0.000000
0.738251 0.044403 0.000000
0.767853 0.044403 0.000000
0.797333 0.044403 0.000000
0.826660 0.044403 0.000000
0.855865 0.044403 0.000000
0.884949 0.044403 0.000000
0.913849 0.044403 0.000000
0.942688 0.044403 0.000000
0.971405 0.044403 0.000000
1.000000 0.044403 0.000000
0.000000 0.070374 0.000000
0.047882 0.070374 0.000000
0.088440 0.070374 0.000000
0.126587 0.070374 0.000000
0.163330 0.070374 0.000000
0.198975 0.070374 0.000000
0.233795 0.070374 0.000000
0.267975 0.070374 0.000000
0.301575 0.070374 0.000000
0.334717 0.070374 0.000000
0.367401 0.070374 0.000000
0.399750 0.070374 0.000000
0.431732 0.070374 0.000000
0.463440 0.070374 0.000000
0.494843 0.070374 0.000000
0.526001 0.070374 0.000000
0.556946 0.070374 0.000000
0.587646 0.070374 0.000000
0.618134 0.070374 0.000000
0.648438 0.070374 0.000000
0.678528 0.070374 0.000000
0.708466 0.070374 0.000000
0.738251 0.070374 0.000000
0.767853 0.070374 0.000000
0.797333 0.070374 0.000000
0.826660 0.070374 0.000000
0.855865 0.070374 0.000000
0.884949 0.070374 0.000000
0.913849 0.070374 0.000000
0.942688 0.070374 0.000000
0.971405 0.070374 0.000000
1.000000 0.070374 0.000000
0.000000 0.097595 0.000000
0.047882 0.097595 0.000000
0.088440 0.097595 0.000000
0.126587 0.097595 0.000000
0.163330 0.097595 0.000000
0.198975 0.097595 0.000000
0.233795 0.097595 0.000000
0.267975 0.097595 0.000000
0.301575 0.097595 0.000000
0.334717 0.097595 0.000000
0.367401 0.097595 0.000000
0.399750 0.097595 0.000000
0.431732 0.097595 0.000000
0.463440 0.097595 0.000000
0.494843 0.097595 0.000000
0.526001 0.097595 0.000000
0.556946 0.097595 0.000000
0.587646 0.097595 0.000000
0.618134 0.097595 0.000000
0.648438 0.097595 0.000000
0.678528 0.097595 0.000000
0.708466 0.097595 0.000000
0.738251 0.097595 0.000000
0.767853 0.097595 0.000000
0.797333 0.097595 0.000000
0.826660 0.097595 0.000000
0.855865 0.097595 0.000000
0.884949 0.097595 0.000000
0.913849 0.097595 0.000000
0.942688 0.097595 0.000000
0.971405 0.097595 0.000000
1.000000 0.097595 0.000000
0.000000 0.125763 0.000000
0.047882 0.125763 0.000000
0.088440 0.125763 0.000000
0.126587 0.125763 0.000000
0.163330 0.125763 0.000000
0.198975 0.125763 0.000000
0.233795 0.125763 0.000000
0.267975 0.125763 0.000000
0.301575 0.125763 0.000000
0.334717 0.125763 0.000000
0.367401 0.125763 0.000000
0.399750 0.125763 0.000000
0.431732 0.125763 0.000000
0.463440 0.125763 0.000000
0.494843 0.125763 0.000000
0.526001 0.125763 0.000000
0.556946 0.125763 0.000000
0.587646 0.125763 0.000000
0.618134 0.125763 0.000000
0.648438 0.125763 0.000000
0.678528 0.125763 0.000000
0.708466 0.125763 0.000000
0.738251 0.125763 0.000000
0.767853 0.125763 0.000000
0.797333 0.125763 0.000000
0.826660 0.125763 0.000000
0.855865 0.125763 0.000000
0.884949 0.125763 0.000000
0.913849 0.125763 0.000000
0.942688 0.125763 0.000000
0.971405 0.125763 0.000000
1.000000 0.125763 0.000000
0.000000 0.154694 0.000000
0.047882 0.154694 0.000000
0.088440 0.154694 0.000000
0.126587 0.154694 0.000000
0.163330 0.154694 0.000000
0.198975 0.154694 0.000000
0.233795 0.154694 0.000000
0.267975 0.154694 0.000000
0.301575 0.154694 0.000000
0.334717 0.154694 0.000000
0.367401 0.154694 0.000000
0.399750 0.154694 0.000000
0.431732 0.154694 0.000000
0.463440 0.154694 0.000000
0.494843 0.154694 0.000000
0.526001 0.154694 0.000000
0.556946 0.154694 0.000000
0.587646 0.154694 0.000000
0.618134 0.154694 0.000000
0.648438 0.154694 0.000000
0.678528 0.154694 0.000000
0.708466 0.154694 0.000000
0.738251 0.154694 0.000000
0.767853 0.154694 0.000000
0.797333 0.154694 0.000000
0.826660 0.154694 0.000000
0.855865 0.154694 0.000000
0.884949 0.154694 0.000000
0.913849 0.154694 0.000000
0.942688 0.154694 0.000000
0.971405 0.154694 0.000000
1.000000 0.154694 0.000000
0.000000 0.184326 0.000000
0.047882 0.184326 0.000000
0.088440 0.184326 0.000000
0.126587 0.184326 0.000000
0.163330 0.184326 0.000000
0.198975 0.184326 0.000000
0.233795 0.184326 0.000000
0.267975 0.184326 0.000000
0.301575 0.184326 0.000000
0.334717 0.184326 0.000000
0.367401 0.184326 0.000000
0.399750 0.184326 0.000000
0.431732 0.184326 0.000000
0.463440 0.184326 0.000000
0.494843 0.184326 0.000000
0.526001 0.184326 0.000000
0.556946 0.184326 0.000000
0.587646 0.184326 0.000000
0.618134 0.184326 0.000000
0.648438 0.184326 0.000000
0.678528 0.184326 0.000000
0.708466 0.184326 0.000000
0.738251 0.184326 0.000000
0.767853 0.184326 0.000000
0.797333 0.184326 0.000000
0.826660 0.184326 0.000000
0.855865 0.184326 0.000000
0.884949 0.184326 0.000000
0.913849 0.184326 0.000000
0.942688 0.184326 0.000000
0.971405 0.184326 0.000000
1.000000 0.184326 0.000000
0.000000 0.214539 0.000000
0.047882 0.214539 0.000000
0.088440 0.214539 0.000000
0.126587 0.214539 0.000000
0.163330 0.214539 0.000000
0.198975 0.214539 0.000000
0.233795 0.214539 0.000000
0.267975 0.214539 0.000000
0.301575 0.214539 0.000000
0.334717 0.214539 0.000000
0.367401 0.214539 0.000000
0.399750 0.214539 0.000000
0.431732 0.214539 0.000000
0.463440 0.214539 0.000000
0.494843 0.214539 0.000000
0.526001 0.214539 0.000000
0.556946 0.214539 0.000000
0.587646 0.214539 0.000000
0.618134 0.214539 0.000000
0.648438 0.214539 0.000000
0.678528 0.214539 0.000000
0.708466 0.214539 0.000000
0.738251 0.214539 0.000000
0.767853 0.214539 0.000000
0.797333 0.214539 0.000000
0.826660 0.214539 0.000000
0.855865 0.214539 0.000000
0.884949 0.214539 0.000000
0.913849 0.214539 0.000000
0.942688 0.214539 0.000000
0.971405 0.214539 0.000000
1.000000 0.214539 0.000000
0.000000 0.245270 0.000000
0.047882 0.245270 0.000000
0.088440 0.245270 0.000000
0.126587 0.245270 0.000000
0.163330 0.245270 0.000000
0.198975 0.245270 0.000000
0.233795 0.245270 0.000000
0.267975 0.245270 0.000000
0.301575 0.245270 0.000000
0.334717 0.245270 0.000000
0.367401 0.245270 0.000000
0.399750 0.245270 0.000000
0.431732 0.245270 0.000000
0.463440 0.245270 0.000000
0.494843 0.245270 0.000000
0.526001 0.245270 0.000000
0.556946 0.245270 0.000000
0.587646 0.245270 0.000000
0.618134 0.245270 0.000000
0.648438 0.245270 0.000000
0.678528 0.245270 0.000000
0.708466 0.245270 0.000000
0.738251 0.245270 0.000000
0.767853 0.245270 0.000000
0.797333 0.245270 0.000000
0.826660 0.245270 0.000000
0.855865 0.245270 0.000000
0.884949 0.245270 0.000000
0.913849 0.245270 0.000000
0.942688 0.245270 0.000000
0.971405 0.245270 0.000000
1.000000 0.245270 0.000000
0.000000 0.276459 0.000000
0.047882 0.276459 0.000000
0.088440 0.276459 0.000000
0.126587 0.276459 0.000000
0.163330 0.276459 0.000000
0.198975 0.276459 0.000000
0.233795 0.276459 0.000000
0.267975 0.276459 0.000000
0.301575 0.276459 0.000000
0.334717 0.276459 0.000000
0.367401 0.276459 0.000000
0.399750 0.276459 0.000000
0.431732 0.276459 0.000000
0.463440 0.276459 0.000000
0.494843 0.276459 0.000000
0.526001 0.276459 0.000000
0.556946 0.276459 0.000000
0.587646 0.276459 0.000000
0.618134 0.276459 0.000000
0.648438 0.276459 0.000000
0.678528 0.276459 0.000000
0.708466 0.276459 0.000000
0.738251 0.276459 0.000000
0.767853 0.276459 0.000000
0.797333 0.276459 0.000000
0.826660 0.276459 0.000000
0.855865 0.276459 0.000000
0.884949 0.276459 0.000000
0.913849 0.276459 0.000000
0.942688 0.276459 0.000000
0.971405 0.276459 0.000000
1.000000 0.276459 0.000000
0.000000 0.308075 0.000000
0.047882 0.308075 0.000000
0.088440 0.308075 0.000000
0.126587 0.308075 0.000000
0.163330 0.308075 0.000000
0.198975 0.308075 0.000000
0.233795 0.308075 0.000000
0.267975 0.308075 0.000000
0.301575 0.308075 0.000000
0.334717 0.308075 0.000000
0.367401 0.308075 0.000000
0.399750 0.308075 0.000000
0.431732 0.308075 0.000000
0.463440 0.308075 0.000000
0.494843 0.308075 0.000000
0.526001 0.308075 0.000000
0.556946 0.308075 0.000000
0.587646 0.308075 0.000000
0.618134 0.308075 0.000000
0.648438 0.308075 0.000000
0.678528 0.308075 0.000000
0.708466 0.308075 0.000000
0.738251 0.308075 0.000000
0.767853 0.308075 0.000000
0.797333 0.308075 0.000000
0.826660 0.308075 0.000000
0.855865 0.308075 0.000000
0.884949 0.308075 0.000000
0.913849 0.308075 0.000000
0.942688 0.308075 0.000000
0.971405 0.308075 0.000000
1.000000 0.308075 0.000000
0.000000 0.340088 0.000000
0.047882 0.340088 0.000000
0.088440 0.340088 0.000000
0.126587 0.340088 0.000000
0.163330 0.340088 0.000000
0.198975 0.340088 0.000000
0.233795 0.340088 0.000000
0.267975 0.340088 0.000000
0.301575 0.340088 0.000000
0.334717 0.340088 0.000000
0.367401 0.340088 0.000000
0.399750 0.340088 0.000000
0.431732 0.340088 0.000000
0.463440 0.340088 0.000000
0.494843 0.340088 0.000000
0.526001 0.340088 0.000000
0.556946 0.340088 0.000000
0.587646 0.340088 0.000000
0.618134 0.340088 0.000000
0.648438 0.340088 0.000000
0.678528 0.340088 0.000000
0.708466 0.340088 0.000000
0.738251 0.340088 0.000000
0.767853 0.340088 0.000000
0.797333 0.340088 0.000000
0.826660 0.340088 0.000000
0.855865 0.340088 0.000000
0.884949 0.340088 0.000000
0.913849 0.340088 0.000000
0.942688 0.340088 0.000000
0.971405 0.340088 0.000000
1.000000 0.340088 0.000000
0.000000 0.372467 0.000000
0.047882 0.372467 0.000000
0.088440 0.372467 0.000000
0.126587 0.372467 0.000000
0.163330 0.372467 0.000000
0.198975 0.372467 0.000000
0.233795 0.372467 0.000000
0.267975 0.372467 0.000000
0.301575 0.372467 0.000000
0.334717 0.372467 0.000000
0.367401 0.372467 0.000000
0.399750 0.372467 0.000000
0.431732 0.372467 0.000000
0.463440 0.372467 0.000000
0.494843 0.372467 0.000000
0.526001 0.372467 0.000000
0.556946 0.372467 0.000000
0.587646 0.372467 0.000000
0.618134 0.372467 0.000000
0.648438 0.372467 0.000000
0.678528 0.372467 0.000000
0.708466 0.372467 0.000000
0.738251 0.372467 0.000000
0.767853 0.372467 0.000000
0.797333 0.372467 0.000000
0.826660 0.372467 0.000000
0.855865 0.372467 0.000000
0.884949 0.372467 0.000000
0.913849 0.372467 0.000000
0.942688 0.372467 0.000000
0.971405 0.372467 0.000000
1.000000 0.372467 0.000000
0.000000 0.405212 0.000000
0.047882 0.405212 0.000000
0.088440 0.405212 0.000000
0.126587 0.405212 0.000000
0.163330 0.405212 0.000000
0.198975 0.405212 0.000000
0.233795 0.405212 0.000000
0.267975 0.405212 0.000000
0.301575 0.405212 0.000000
0.334717 0.405212 0.000000
0.367401 0.405212 0.000000
0.399750 0.405212 0.000000
0.431732 0.405212 0.000000
0.463440 0.405212 0.000000
0.494843 0.405212 0.000000
0.526001 0.405212 0.000000
0.556946 0.405212 0.000000
0.587646 0.405212 0.000000
0.618134 0.405212 0.000000
0.648438 0.405212 0.000000
0.678528 0.405212 0.000000
0.708466 0.405212 0.000000
0.738251 0.405212 0.000000
0.767853 0.405212 0.000000
0.797333 0.405212 0.000000
0.826660 0.405212 0.000000
0.855865 0.405212 0.000000
0.884949 0.405212 0.000000
0.913849 0.405212 0.000000
0.942688 0.405212 0.000000
0.971405 0.405212 0.000000
1.000000 0.405212 0.000000
0.000000 0.438263 0.000000
0.047882 0.438263 0.000000
0.088440 0.438263 0.000000
0.126587 0.438263 0.000000
0.163330 0.438263 0.000000
0.198975 0.438263 0.000000
0.233795 0.438263 0.000000
0.267975 0.438263 0.000000
0.301575 0.438263 0.000000
0.334717 0.438263 0.000000
0.367401 0.438263 0.000000
0.399750 0.438263 0.000000
0.431732 0.438263 0.000000
0.463440 0.438263 0.000000
0.494843 0.438263 0.000000
0.526001 0.438263 0.000000
0.556946 0.438263 0.000000
0.587646 0.438263 0.000000
0.618134 0.438263 0.000000
0.648438 0.438263 0.000000
0.678528 0.438263 0.000000
0.708466 0.438263 0.000000
0.738251 0.438263 0.000000
0.767853 0.438263 0.000000
0.797333 0.438263 0.000000
0.826660 0.438263 0.000000
0.855865 0.438263 0.000000
0.884949 0.438263 0.000000
0.913849 0.438263 0.000000
0.942688 0.438263 0.000000
0.971405 0.438263 0.000000
1.000000 0.438263 0.000000
0.000000 0.471619 0.000000
0.047882 0.471619 0.000000
0.088440 0.471619 0.000000
0.126587 0.471619 0.000000
0.163330 0.471619 0.000000
0.198975 0.471619 0.000000
0.233795 0.471619 0.000000
0.267975 0.471619 0.000000
0.301575 0.471619 0.000000
0.334717 0.471619 0.000000
0.367401 0.471619 0.000000
0.399750 0.471619 0.000000
0.431732 0.471619 0.000000
0.463440 0.471619 0.000000
0.494843 0.471619 0.000000
0.526001 0.471619 0.000000
0.556946 0.471619 0.000000
0.587646 0.471619 0.000000
0.618134 0.471619 0.000000
0.648438 0.471619 0.000000
0.678528 0.471619 0.000000
0.708466 0.471619 0.000000
0.738251 0.471619 0.000000
0.767853 0.471619 0.000000
0.797333 0.471619 0.000000
0.826660 0.471619 0.000000
0.855865 0.471619 0.000000
0.884949 0.471619 0.000000
0.913849 0.471619 0.000000
0.942688 0.471619 0.000000
0.971405 0.471619 0.000000
1.000000 0.471619 0.000000
0.000000 0.505249 0.000000
0.047882 0.505249 0.000000
0.088440 0.505249 0.000000
0.126587 0.505249 0.000000
0.163330 0.505249 0.000000
0.198975 0.505249 0.000000
0.233795 0.505249 0.000000
0.267975 0.505249 0.000000
0.301575 0.505249 0.000000
0.334717 0.505249 0.000000
0.367401 0.505249 0.000000
0.399750 0.505249 0.000000
0.431732 0.505249 0.000000
0.463440 0.505249 0.000000
0.494843 0.505249 0.000000
0.526001 0.505249 0.000000
0.556946 0.505249 0.000000
0.587646 0.505249 0.000000
0.618134 0.505249 0.000000
0.648438 0.505249 0.000000
0.678528 0.505249 0.000000
0.708466 0.505249 0.000000
0.738251 0.505249 0.000000
0.767853 0.505249 0.000000
0.797333 0.505249 0.000000
0.826660 0.505249 0.000000
0.855865 0.505249 0.000000
0.884949 0.505249 0.000000
0.913849 0.505249 0.000000
0.942688 0.505249 0.000000
0.971405 0.505249 0.000000
1.000000 0.505249 0.000000
0.000000 0.539154 0.000000
0.047882 0.539154 0.000000
0.088440 0.539154 0.000000
0.126587 0.539154 0.000000
0.163330 0.539154 0.000000
0.198975 0.539154 0.000000
0.233795 0.539154 0.000000
0.267975 0.539154 0.000000
0.301575 0.539154 0.000000
0.334717 0.539154 0.000000
0.367401 0.539154 0.000000
0.399750 0.539154 0.000000
0.431732 0.539154 0.000000
0.463440 0.539154 0.000000
0.494843 0.539154 0.000000
0.526001 0.539154 0.000000
0.556946 0.539154 0.000000
0.587646 0.539154 0.000000
0.618134 0.539154 0.000000
0.648438 0.539154 0.000000
0.678528 0.539154 0.000000
0.708466 0.539154 0.000000
0.738251 0.539154 0.000000
0.767853 0.539154 0.000000
0.797333 0.539154 0.000000
0.826660 0.539154 0.000000
0.855865 0.539154 0.000000
0.884949 0.539154 0.000000
0.913849 0.539154 0.000000
0.942688 0.539154 0.000000
0.971405 0.539154 0.000000
1.000000 0.539154 0.000000
0.000000 0.573334 0.000000
0.047882 0.573334 0.000000
0.088440 0.573334 0.000000
0.126587 0.573334 0.000000
0.163330 0.573334 0.000000
0.198975 0.573334 0.000000
0.233795 0.573334 0.000000
0.267975 0.573334 0.000000
0.301575 0.573334 0.000000
0.334717 0.573334 0.000000
0.367401 0.573334 0.000000
0.399750 0.573334 0.000000
0.431732 0.573334 0.000000
0.463440 0.573334 0.000000
0.494843 0.573334 0.000000
0.526001 0.573334 0.000000
0.556946 0.573334 0.000000
0.587646 0.573334 0.000000
0.618134 0.573334 0.000000
0.648438 0.573334 0.000000
0.678528 0.573334 0.000000
0.708466 0.573334 0.000000
0.738251 0.573334 0.000000
0.767853 0.573334 0.000000
0.797333 0.573334 0.000000
0.826660 0.573334 0.000000
0.855865 0.573334 0.000000
0.884949 0.573334 0.000000
0.913849 0.573334 0.000000
0.942688 0.573334 0.000000
0.971405 0.573334 0.000000
1.000000 0.573334 0.000000
0.000000 0.607758 0.000000
0.047882 0.607758 0.000000
0.088440 0.607758 0.000000
0.126587 0.607758 0.000000
0.163330 0.607758 0.000000
0.198975 0.607758 0.000000
0.233795 0.607758 0.000000
0.267975 0.607758 0.000000
0.301575 0.607758 0.000000
0.334717 0.607758 0.000000
0.367401 0.607758 0.000000
0.399750 0.607758 0.000000
0.431732 0.607758 0.000000
0.463440 0.607758 0.000000
0.494843 0.607758 0.000000
0.526001 0.607758 0.000000
0.556946 0.607758 0.000000
0.587646 0.607758 0.000000
0.618134 0.607758 0.000000
0.648438 0.607758 0.000000
0.678528 0.607758 0.000000
0.708466 0.607758 0.000000
0.738251 0.607758 0.000000
0.767853 0.607758 0.000000
0.797333 0.607758 0.000000
0.826660 0.607758 0.000000
0.855865 0.607758 0.000000
0.884949 0.607758 0.000000
0.913849 0.607758 0.000000
0.942688 0.607758 0.000000
0.971405 0.607758 0.000000
1.000000 0.607758 0.000000
0.000000 0.642395 0.000000
0.047882 0.642395 0.000000
0.088440 0.642395 0.000000
0.126587 0.642395 0.000000
0.163330 0.642395 0.000000
0.198975 0.642395 0.000000
0.233795 0.642395 0.000000
0.267975 0.642395 0.000000
0.301575 0.642395 0.000000
0.334717 0.642395 0.000000
0.367401 0.642395 0.000000
0.399750 0.642395 0.000000
0.431732 0.642395 0.000000
0.463440 0.642395 0.000000
0.494843 0.642395 0.000000
0.526001 0.642395 0.000000
0.556946 0.642395 0.000000
0.587646 0.642395 0.000000
0.618134 0.642395 0.000000
0.648438 0.642395 0.000000
0.678528 0.642395 0.000000
0.708466 0.642395 0.000000
0.738251 0.642395 0.000000
0.767853 0.642395 0.000000
0.797333 0.642395 0.000000
0.826660 0.642395 0.000000
0.855865 0.642395 0.000000
0.884949 0.642395 0.000000
0.913849 0.642395 0.000000
0.942688 0.642395 0.000000
0.971405 0.642395 0.000000
1.000000 0.642395 0.000000
0.000000 0.677277 0.000000
0.047882 0.677277 0.000000
0.088440 0.677277 0.000000
0.126587 0.677277 0.000000
0.163330 0.677277 0.000000
0.198975 0.677277 0.000000
0.233795 0.677277 0.000000
0.267975 0.677277 0.000000
0.301575 0.677277 0.000000
0.334717 0.677277 0.000000
0.367401 0.677277 0.000000
0.399750 0.677277 0.000000
0.431732 0.677277 0.000000
0.463440 0.677277 0.000000
0.494843 0.677277 0.000000
0.526001 0.677277 0.000000
0.556946 0.677277 0.000000
0.587646 0.677277 0.000000
0.618134 0.677277 0.000000
0.648438 0.677277 0.000000
0.678528 0.677277 0.000000
0.708466 0.677277 0.000000
0.738251 0.677277 0.000000
0.767853 0.677277 0.000000
0.797333 0.677277 0.000000
0.826660 0.677277 0.000000
0.855865 0.677277 0.000000
0.884949 0.677277 0.000000
0.913849 0.677277 0.000000
0.942688 0.677277 0.000000
0.971405 0.677277 0.000000
1.000000 0.677277 0.000000
0.000000 0.712341 0.000000
0.047882 0.712341 0.000000
0.088440 0.712341 0.000000
0.126587 0.712341 0.000000
0.163330 0.712341 0.000000
0.198975 0.712341 0.000000
0.233795 0.712341 0.000000
0.267975 0.712341 0.000000
0.301575 0.712341 0.000000
0.334717 0.712341 0.000000
0.367401 0.712341 0.000000
0.399750 0.712341 0.000000
0.431732 0.712341 0.000000
0.463440 0.712341 0.000000
0.494843 0.712341 0.000000
0.526001 0.712341 0.000000
0.556946 0.712341 0.000000
0.587646 0.712341 0.000000
0.618134 0.712341 0.000000
0.648438 0.712341 0.000000
0.678528 0.712341 0.000000
0.708466 0.712341 0.000000
0.738251 0.712341 0.000000
0.767853 0.712341 0.000000
0.797333 0.712341 0.000000
0.826660 0.712341 0.000000
0.855865 0.712341 0.000000
0.884949 0.712341 0.000000
0.913849 0.712341 0.000000
0.942688 0.712341 0.000000
0.971405 0.712341 0.000000
1.000000 0.712341 0.000000
0.000000 0.747650 0.000000
0.047882 0.747650 0.000000
0.088440 0.747650 0.000000
0.126587 0.747650 0.000000
0.163330 0.747650 0.000000
0.198975 0.747650 0.000000
0.233795 0.747650 0.000000
0.267975 0.747650 0.000000
0.301575 0.747650 0.000000
0.334717 0.747650 0.000000
0.367401 0.747650 0.000000
0.399750 0.747650 0.000000
0.431732 0.747650 0.000000
0.463440 0.747650 0.000000
0.494843 0.747650 0.000000
0.526001 0.747650 0.000000
0.556946 0.747650 0.000000
0.587646 0.747650 0.000000
0.618134 0.747650 0.000000
0.648438 0.747650 0.000000
0.678528 0.747650 0.000000
0.708466 0.747650 0.000000
0.738251 0.747650 0.000000
0.767853 0.747650 0.000000
0.797333 0.747650 0.000000
0.826660 0.747650 0.000000
0.855865 0.747650 0.000000
0.884949 0.747650 0.000000
0.913849 0.747650 0.000000
0.942688 0.747650 0.000000
0.971405 0.747650 0.000000
1.000000 0.747650 0.000000
0.000000 0.783142 0.000000
0.047882 0.783142 0.000000
0.088440 0.783142 0.000000
0.126587 0.783142 0.000000
0.163330 0.783142 0.000000
0.198975 0.783142 0.000000
0.233795 0.783142 0.000000
0.267975 0.783142 0.000000
0.301575 0.783142 0.000000
0.334717 0.783142 0.000000
0.367401 0.783142 0.000000
0.399750 0.783142 0.000000
0.431732 0.783142 0.000000
0.463440 0.783142 0.000000
0.494843 0.783142 0.000000
0.526001 0.783142 0.000000
0.556946 0.783142 0.000000
0.587646 0.783142 0.000000
0.618134 0.783142 0.000000
0.648438 0.783142 0.000000
0.678528 0.783142 0.000000
0.708466 0.783142 0.000000
0.738251 0.783142 0.000000
0.767853 0.783142 0.000000
0.797333 0.783142 0.000000
0.826660 0.783142 0.000000
0.855865 0.783142 0.000000
0.884949 0.783142 0.000000
0.913849 0.783142 0.000000
0.942688 0.783142 0.000000
0.971405 0.783142 0.000000
1.000000 0.783142 0.000000
0.000000 0.818817 0.000000
0.047882 0.818817 0.000000
0.088440 0.818817 0.000000
0.126587 0.818817 0.000000
0.163330 0.818817 0.000000
0.198975 0.818817 0.000000
0.233795 0.818817 0.000000
0.267975 0.818817 0.000000
0.301575 0.818817 0.000000
0.334717 0.818817 0.000000
0.367401 0.818817 0.000000
0.399750 0.818817 0.000000
0.431732 0.818817 0.000000
0.463440 0.818817 0.000000
0.494843 0.818817 0.000000
0.526001 0.818817 0.000000
0.556946 0.818817 0.000000
0.587646 0.818817 0.000000
0.618134 0.818817 0.000000
0.648438 0.818817 0.000000
0.678528 0.818817 0.000000
0.708466 0.818817 0.000000
0.738251 0.818817 0.000000
0.767853 0.818817 0.000000
0.797333 0.818817 0.000000
0.826660 0.818817 0.000000
0.855865 0.818817 0.000000
0.884949 0.818817 0.000000
0.913849 0.818817 0.000000
0.942688 0.818817 0.000000
0.971405 0.818817 0.000000
1.000000 0.818817 0.000000
0.000000 0.854736 0.000000
0.047882 0.854736 0.000000
0.088440 0.854736 0.000000
0.126587 0.854736 0.000000
0.163330 0.854736 0.000000
0.198975 0.854736 0.000000
0.233795 0.854736 0.000000
0.267975 0.854736 0.000000
0.301575 0.854736 0.000000
0.334717 0.854736 0.000000
0.367401 0.854736 0.000000
0.399750 0.854736 0.000000
0.431732 0.854736 0.000000
0.463440 0.854736 0.000000
0.494843 0.854736 0.000000
0.526001 0.854736 0.000000
0.556946 0.854736 0.000000
