dist/luts/MOIM Vaasa Plant Photoshoot - 6.CUBE
#Created by: Adobe Photoshop Export Color Lookup Plugin
TITLE "MOIM Vaasa Plant Photoshoot - 6.psd"
#LUT size
LUT_3D_SIZE 5
#data domain
#LUT data points
DOMAIN_MIN 0.000000 0.000000 0.000000
DOMAIN_MAX 0.903226 0.903226 0.903226
0.000000 0.000000 0.000000
0.267975 0.000000 0.000000
0.494843 0.000000 0.000000
0.708466 0.000000 0.000000
0.913849 0.000000 0.000000
0.000000 0.184326 0.000000
0.267975 0.184326 0.000000
0.494843 0.184326 0.000000
0.708466 0.184326 0.000000
0.913849 0.184326 0.000000
0.000000 0.405212 0.000000
0.267975 0.405212 0.000000
0.494843 0.405212 0.000000
0.708466 0.405212 0.000000
0.913849 0.405212 0.000000
0.000000 0.642395 0.000000
0.267975 0.642395 0.000000
0.494843 0.642395 0.000000
0.708466 0.642395 0.000000
0.913849 0.642395 0.000000
0.000000 0.890778 0.000000
0.267975 0.890778 0.000000
0.494843 0.890778 0.000000
0.708466 0.890778 0.000000
0.913849 0.890778 0.000000
0.000000 0.000000 0.184326
0.267975 0.000000 0.184326
0.494843 0.000000 0.184326
0.708466 0.000000 0.184326
0.913849 0.000000 0.184326
0.000000 0.184326 0.184326
0.267975 0.184326 0.184326
0.494843 0.184326 0.184326
0.708466 0.184326 0.184326
0.913849 0.184326 0.184326
0.000000 0.405212 0.184326
0.267975 0.405212 0.184326
0.494843 0.405212 0.184326
0.708466 0.405212 0.184326
0.913849 0.405212 0.184326
0.000000 0.642395 0.184326
0.267975 0.642395 0.184326
0.494843 0.642395 0.184326
0.708466 0.642395 0.184326
0.913849 0.642395 0.184326
0.000000 0.890778 0.184326
0.267975 0.890778 0.184326
0.494843 0.890778 0.184326
0.708466 0.890778 0.184326
0.913849 0.890778 0.184326
0.000000 0.000000 0.405212
0.267975 0.000000 0.405212
0.494843 0.000000 0.405212
0.708466 0.000000 0.405212
0.913849 0.000000 0.405212
0.000000 0.184326 0.405212
0.267975 0.184326 0.405212
0.494843 0.184326 0.405212
0.708466 0.184326 0.405212
0.913849 0.184326 0.405212
0.000000 0.405212 0.405212
0.267975 0.405212 0.405212
0.494843 0.405212 0.405212
0.708466 0.405212 0.405212
0.913849 0.405212 0.405212
0.000000 0.642395 0.405212
0.267975 0.642395 0.405212
0.494843 0.642395 0.405212
0.708466 0.642395 0.405212
0.913849 0.642395 0.405212
0.000000 0.890778 0.405212
0.267975 0.890778 0.405212
0.494843 0.890778 0.405212
0.708466 0.890778 0.405212
0.913849 0.890778 0.405212
0.000000 0.000000 0.642395
0.267975 0.000000 0.642395
0.494843 0.000000 0.642395
0.708466 0.000000 0.642395
0.913849 0.000000 0.642395
0.000000 0.184326 0.642395
0.267975 0.184326 0.642395
0.494843 0.184326 0.642395
0.708466 0.184326 0.642395
0.913849 0.184326 0.642395
0.000000 0.405212 0.642395
0.267975 0.405212 0.642395
0.494843 0.405212 0.642395
0.708466 0.405212 0.642395
0.913849 0.405212 0.642395
0.000000 0.642395 0.642395
0.267975 0.642395 0.642395
0.494843 0.642395 0.642395
0.708466 0.642395 0.642395
0.913849 0.642395 0.642395
0.000000 0.890778 0.642395
0.267975 0.890778 0.642395
0.494843 0.890778 0.642395
0.708466 0.890778 0.642395
0.913849 0.890778 0.642395
0.000000 0.000000 0.890778
0.267975 0.000000 0.890778
0.494843 0.000000 0.890778
0.708466 0.000000 0.890778
0.913849 0.000000 0.890778
0.000000 0.184326 0.890778
0.267975 0.184326 0.890778
0.494843 0.184326 0.890778
0.708466 0.184326 0.890778
0.913849 0.184326 0.890778
0.000000 0.405212 0.890778
0.267975 0.405212 0.890778
0.494843 0.405212 0.890778
0.708466 0.405212 0.890778
0.913849 0.405212 0.890778
0.000000 0.642395 0.890778
0.267975 0.642395 0.890778
0.494843 0.642395 0.890778
0.708466 0.642395 0.890778
0.913849 0.642395 0.890778
0.000000 0.890778 0.890778
0.267975 0.890778 0.890778
0.494843 0.890778 0.890778
0.708466 0.890778 0.890778
0.913849 0.890778 0.890778
