dist/luts/MOIM Vaasa Plant Photoshoot - 6 2.CUBE
#Created by: Adobe Photoshop Export Color Lookup Plugin
TITLE "MOIM Vaasa Plant Photoshoot - 6 2.psd"
#LUT size
LUT_3D_SIZE 8
#data domain
#LUT data points
DOMAIN_MIN 0.000000 0.000000 0.000000
DOMAIN_MAX 0.903226 0.903226 0.903226
0.000000 0.000000 0.000000
0.149384 0.003571 0.002594
0.279785 0.006317 0.004730
0.402130 0.009216 0.007050
0.519897 0.012177 0.009460
0.634277 0.015137 0.011932
0.746033 0.018127 0.014435
0.855621 0.021210 0.017059
0.042236 0.095551 0.006439
0.175049 0.102020 0.012665
0.305786 0.103424 0.019043
0.434418 0.101959 0.028137
0.566528 0.095001 0.043671
0.706055 0.080536 0.069794
0.816162 0.083984 0.072968
0.924500 0.087402 0.076080
0.092773 0.197540 0.006165
0.200317 0.211670 0.016632
0.320892 0.217194 0.023193
0.441864 0.219788 0.029602
0.562256 0.220337 0.037201
0.682465 0.218750 0.046906
0.803406 0.214722 0.059509
0.927277 0.206757 0.077148
0.144409 0.301910 0.004822
0.232361 0.322632 0.019135
0.342346 0.332336 0.027679
0.457458 0.337524 0.034332
0.573334 0.340485 0.040894
0.688812 0.341858 0.048187
0.803986 0.341766 0.056671
0.919098 0.340240 0.066742
0.193359 0.409027 0.003540
0.268707 0.434357 0.020416
0.368500 0.448059 0.031403
0.477448 0.455933 0.039154
0.589172 0.460876 0.045959
0.701294 0.464081 0.052704
0.813293 0.466034 0.059937
0.924988 0.466766 0.067963
0.240936 0.518066 0.002350
0.307617 0.546814 0.020844
0.397949 0.564270 0.034119
0.500641 0.574829 0.043457
0.608093 0.581696 0.050964
0.717102 0.586548 0.057892
0.826385 0.589905 0.064789
0.935638 0.592224 0.072083
0.287323 0.628693 0.001190
0.347839 0.660034 0.020691
0.430206 0.680817 0.036041
0.526398 0.694122 0.047058
0.629456 0.703064 0.055664
0.735168 0.709442 0.063080
0.841980 0.714172 0.070190
0.949097 0.717743 0.077240
0.332428 0.740936 0.000214
0.388794 0.773956 0.020142
0.464478 0.797668 0.037262
0.554718 0.813599 0.049957
0.653137 0.824646 0.059784
0.755463 0.832642 0.068054
0.859558 0.838745 0.075500
0.964569 0.843445 0.082703
0.025574 0.000031 0.061432
0.160034 0.005371 0.069305
0.286865 0.009094 0.073181
0.408234 0.012360 0.076233
0.525452 0.015564 0.078827
0.639526 0.018768 0.081421
0.751160 0.021973 0.083588
0.860748 0.025299 0.085571
0.063904 0.095032 0.071503
0.186768 0.103882 0.081848
0.313354 0.106720 0.090240
0.441650 0.105225 0.101166
0.573456 0.098297 0.118866
0.711456 0.084808 0.145813
0.821442 0.088470 0.148438
0.929749 0.092102 0.150513
0.109589 0.199066 0.067780
0.211060 0.214935 0.082245
0.328949 0.221375 0.090668
0.448883 0.224396 0.097900
0.568909 0.225037 0.106415
0.688751 0.223724 0.116333
0.809875 0.219696 0.129425
0.933746 0.211884 0.147522
0.158112 0.306000 0.058990
0.243530 0.327423 0.077484
0.351410 0.337860 0.087524
0.465698 0.343384 0.095123
0.580994 0.346710 0.101715
0.696167 0.348297 0.109100
0.811218 0.348450 0.117126
0.926300 0.347168 0.126526
0.207123 0.416107 0.043945
0.281097 0.441803 0.064758
0.379272 0.456146 0.076965
0.487518 0.464264 0.085175
0.598785 0.469482 0.092010
0.710632 0.473022 0.097931
0.822540 0.475220 0.104401
0.934174 0.476318 0.110931
0.257324 0.529572 0.019745
0.322998 0.558563 0.040985
0.412140 0.576447 0.055176
0.514252 0.587311 0.064240
0.621063 0.594513 0.071350
0.729858 0.599670 0.077118
0.839050 0.603302 0.082825
0.948334 0.605988 0.088226
0.304291 0.642517 0.009155
0.364288 0.673950 0.030579
0.445801 0.694885 0.046600
0.541443 0.708344 0.058044
0.643738 0.717468 0.066956
0.748962 0.723938 0.074615
0.855499 0.728729 0.081879
0.962219 0.732361 0.089081
0.348938 0.754974 0.007874
0.404602 0.788208 0.030090
0.479767 0.811981 0.047882
0.569366 0.828125 0.061066
0.667267 0.839294 0.071198
0.769165 0.847351 0.079651
0.873047 0.853455 0.087311
0.977692 0.858246 0.094666
0.060638 0.000031 0.109863
0.176392 0.004059 0.155029
0.296326 0.009583 0.161438
0.415039 0.013550 0.165955
0.530975 0.017151 0.169678
0.644226 0.020538 0.173096
0.755310 0.023834 0.176270
0.864502 0.027191 0.179260
0.100098 0.087067 0.154968
0.204620 0.100952 0.171844
0.324982 0.105713 0.183136
0.450623 0.104980 0.196381
0.581329 0.098297 0.216614
0.715912 0.086700 0.243561
0.825439 0.090393 0.246948
0.933319 0.094055 0.249969
0.133728 0.194031 0.155212
0.226135 0.212616 0.174133
0.338379 0.221069 0.185120
0.456116 0.224731 0.194122
0.574677 0.225952 0.203888
0.694092 0.224548 0.215820
0.814636 0.220612 0.230713
0.938416 0.212585 0.251312
0.174530 0.302521 0.152100
0.254944 0.325623 0.174072
0.359344 0.337250 0.186646
0.471649 0.343475 0.195770
0.585815 0.347076 0.204041
0.700226 0.348877 0.212799
0.814758 0.349060 0.222534
0.929474 0.347778 0.233826
0.218079 0.412659 0.145935
0.289581 0.439270 0.170380
0.385101 0.454437 0.185242
0.491760 0.463135 0.195374
0.601990 0.468628 0.203766
0.713135 0.472321 0.211609
0.824585 0.474457 0.219788
0.935791 0.475525 0.228668
0.262909 0.524353 0.136566
0.327362 0.553802 0.162781
0.414795 0.572296 0.180084
0.515625 0.583557 0.191681
0.621674 0.591003 0.200775
0.729767 0.596283 0.208649
0.838501 0.599915 0.216339
0.947357 0.602509 0.224152
0.308350 0.637787 0.123413
0.367615 0.669434 0.150909
0.447968 0.690948 0.170288
0.542511 0.704926 0.183624
0.644348 0.714294 0.193604
0.749237 0.721069 0.202118
0.855499 0.726135 0.209686
0.962128 0.729950 0.216980
0.354248 0.753021 0.105743
0.409454 0.786499 0.133698
0.483673 0.810699 0.154785
0.572601 0.827118 0.169769
0.669830 0.838684 0.181000
0.771423 0.847046 0.189941
0.875061 0.853424 0.197693
0.979614 0.858429 0.204895
0.094299 0.000031 0.158600
0.199310 0.000977 0.244568
0.310120 0.008636 0.254547
0.424622 0.013855 0.260742
0.538452 0.018066 0.265656
0.650513 0.021851 0.269836
0.760712 0.025452 0.273743
0.869293 0.028931 0.277374
0.141754 0.076385 0.243683
0.229828 0.095093 0.266235
0.342529 0.102051 0.281555
0.464600 0.102295 0.297852
0.595795 0.094543 0.322632
0.722046 0.088104 0.344055
0.830780 0.092102 0.348053
0.938080 0.095917 0.351868
0.165985 0.186066 0.244965
0.247345 0.208221 0.268372
0.352814 0.218933 0.282440
0.466766 0.223999 0.293365
0.583710 0.225647 0.304657
0.701843 0.224701 0.317841
0.821869 0.220795 0.334473
0.945526 0.212616 0.356720
0.199219 0.296722 0.244843
0.273499 0.321869 0.270081
0.372253 0.335571 0.285339
0.481323 0.342957 0.296112
0.593689 0.347229 0.305695
0.707031 0.349365 0.315491
0.820770 0.349854 0.326355
0.935028 0.348633 0.338745
0.237244 0.408325 0.242157
0.305023 0.436188 0.269165
0.396606 0.452850 0.286407
0.500519 0.462585 0.298187
0.609192 0.468689 0.307709
0.719238 0.472748 0.316681
0.829834 0.475281 0.325867
0.940613 0.476410 0.335632
0.277954 0.520844 0.237030
0.340271 0.551025 0.265564
0.424957 0.570618 0.285004
0.523376 0.582764 0.298248
0.628021 0.590820 0.308533
0.735107 0.596375 0.317444
0.843079 0.600372 0.325989
0.951416 0.603058 0.334808
0.319824 0.634552 0.229584
0.377838 0.666626 0.259399
0.456268 0.688873 0.280792
0.549225 0.703491 0.295685
0.649689 0.713470 0.307068
0.753632 0.720581 0.316559
0.859222 0.725861 0.325165
0.965424 0.729767 0.333496
0.362610 0.749359 0.219696
0.417114 0.783051 0.250519
0.490173 0.807709 0.273560
0.577637 0.824738 0.290344
0.673920 0.836670 0.302887
0.774567 0.845367 0.313171
0.877625 0.851898 0.322144
0.981720 0.857025 0.330505
0.125580 0.000031 0.211243
0.222137 0.000031 0.322968
0.327728 0.006500 0.350281
0.437225 0.013123 0.358765
0.548157 0.018219 0.364960
0.658417 0.022583 0.370148
0.767517 0.026581 0.374756
0.875244 0.030304 0.378998
0.185577 0.064148 0.337830
0.262726 0.085632 0.365448
0.366119 0.095551 0.385132
0.484558 0.096466 0.405426
0.614563 0.088501 0.434296
0.729828 0.088867 0.447144
0.837402 0.093292 0.451874
0.943970 0.097473 0.456268
0.201752 0.176453 0.337860
0.274719 0.201111 0.365143
0.372070 0.214661 0.382599
0.481537 0.221283 0.395966
0.595581 0.224060 0.408875
0.712341 0.223450 0.423676
0.831543 0.219727 0.441742
0.955383 0.211060 0.466461
0.228760 0.289032 0.339294
0.297119 0.316071 0.367432
0.389526 0.332062 0.385681
0.494598 0.340973 0.398621
0.604309 0.346283 0.409637
0.716064 0.349030 0.420563
0.828796 0.349854 0.432373
0.942291 0.348907 0.445740
0.261505 0.402222 0.338837
0.325470 0.431427 0.368256
0.412292 0.449860 0.387970
0.512756 0.460938 0.401672
0.618988 0.468018 0.412567
0.727600 0.472626 0.422546
0.837128 0.475555 0.432526
0.947174 0.476959 0.443115
0.298126 0.516022 0.336212
0.357880 0.547058 0.366882
0.439056 0.567993 0.388428
0.534576 0.581299 0.403351
0.637115 0.590179 0.414856
0.742767 0.596344 0.424866
0.849854 0.600677 0.434296
0.957520 0.603668 0.443787
0.336670 0.630554 0.331787
0.392944 0.663239 0.363403
0.468811 0.686493 0.386658
0.559509 0.702026 0.403229
0.658142 0.712708 0.415741
0.760834 0.720398 0.426239
0.865479 0.726013 0.435669
0.971008 0.730225 0.444794
0.376678 0.745850 0.325378
0.429993 0.780029 0.357971
0.501160 0.805359 0.382751
0.586884 0.823120 0.400879
0.681549 0.835724 0.414703
0.781128 0.844879 0.425903
0.883331 0.851807 0.435822
0.986725 0.857147 0.444855
0.155670 0.000031 0.265961
0.245728 0.000031 0.392242
0.349060 0.003235 0.447693
0.452484 0.011414 0.458771
0.559906 0.017609 0.466705
0.667969 0.022705 0.472961
0.775574 0.027191 0.478394
0.882294 0.031311 0.483215
0.232361 0.049713 0.438599
0.301666 0.073029 0.470184
0.397797 0.084747 0.495056
0.513031 0.085785 0.521362
0.632904 0.083282 0.545654
0.739227 0.089020 0.552216
0.845398 0.093964 0.557709
0.950928 0.098480 0.562714
0.239502 0.165527 0.433990
0.305725 0.192230 0.464325
0.395782 0.208282 0.485352
0.500214 0.216705 0.501495
0.610931 0.220551 0.516418
0.725769 0.220673 0.532898
0.844208 0.216888 0.553070
0.968292 0.207611 0.580627
0.261383 0.279877 0.435669
0.324829 0.308502 0.466431
0.410980 0.326691 0.487762
0.510895 0.337616 0.502960
0.617798 0.343964 0.515839
0.727417 0.347595 0.528015
0.838715 0.348907 0.540894
0.951294 0.348297 0.555237
0.289642 0.394592 0.436646
0.350128 0.424866 0.468292
0.431824 0.445221 0.490601
0.528015 0.457977 0.506287
0.631317 0.466278 0.518738
0.738037 0.471619 0.529999
0.846161 0.475098 0.540924
0.955261 0.476929 0.552338
0.322235 0.509613 0.435974
0.379425 0.541565 0.468475
0.456757 0.563965 0.492065
0.548767 0.578705 0.508942
0.648773 0.588623 0.521942
0.752655 0.595520 0.533051
0.858429 0.600372 0.543365
0.965057 0.603821 0.553619
0.357300 0.625305 0.433563
0.411865 0.658600 0.466888
0.484924 0.682922 0.491943
0.572693 0.699646 0.510162
0.669098 0.711304 0.524078
0.770172 0.719604 0.535614
0.873505 0.725861 0.545929
0.978119 0.730408 0.555695
0.394531 0.741425 0.429474
0.446564 0.775970 0.463501
0.515503 0.802246 0.489990
0.599030 0.820923 0.509644
0.691803 0.834320 0.524719
0.789886 0.844086 0.536957
0.890930 0.851532 0.547729
0.993439 0.857300 0.557495
0.185028 0.000031 0.321899
0.270508 0.000031 0.458710
0.372101 0.000031 0.544189
0.470428 0.008820 0.560181
0.573822 0.016235 0.570068
0.679230 0.022125 0.577576
0.785095 0.027222 0.583954
0.890564 0.031799 0.589539
0.284241 0.032074 0.548065
0.348267 0.056000 0.583313
0.438110 0.069000 0.613495
0.545258 0.073242 0.640778
0.646606 0.081757 0.650879
0.750366 0.088379 0.658661
0.854797 0.094025 0.665192
0.959045 0.099030 0.670959
0.279083 0.153412 0.533295
0.340332 0.181488 0.566345
0.423553 0.199860 0.590698
0.522217 0.210358 0.609589
0.629700 0.215271 0.627014
0.742462 0.215942 0.645752
0.859772 0.212311 0.668121
0.984863 0.201752 0.699860
0.296417 0.269440 0.534363
0.355469 0.299377 0.567413
0.435608 0.319794 0.591553
0.530701 0.332520 0.609314
0.633759 0.340393 0.624023
0.741089 0.344879 0.637726
0.850891 0.346832 0.651947
0.962372 0.346497 0.667511
0.320557 0.385559 0.535980
0.377594 0.416992 0.569611
0.454376 0.439178 0.594360
0.546143 0.453674 0.612427
0.646240 0.463257 0.626678
0.750519 0.469604 0.639191
0.857178 0.473724 0.651215
0.965088 0.475952 0.663544
0.349335 0.501953 0.536682
0.404022 0.534698 0.570831
0.477570 0.558563 0.596619
0.565887 0.574768 0.615509
0.662811 0.585999 0.630096
0.764526 0.593781 0.642456
0.868652 0.599365 0.653748
0.974182 0.603210 0.664856
0.381317 0.618713 0.535858
0.433929 0.652618 0.570648
0.503998 0.678101 0.597534
0.588470 0.696198 0.617554
0.682281 0.708954 0.632965
0.781311 0.718170 0.645691
0.883301 0.724945 0.656921
0.986755 0.730011 0.667572
0.415619 0.735809 0.533508
0.466339 0.770782 0.568848
0.532898 0.798004 0.596954
0.613678 0.817810 0.618225
0.704193 0.832184 0.634674
0.800507 0.842773 0.648041
0.900208 0.850800 0.659637
1.000000 0.857422 0.673767
0.213684 0.000031 0.379395
0.295837 0.000031 0.524261
0.391815 0.000031 0.624634
0.490662 0.005554 0.662781
0.589844 0.014069 0.674622
0.692322 0.020905 0.683655
0.796021 0.026733 0.691223
0.899933 0.031799 0.697601
0.343353 0.010681 0.668579
0.400085 0.036163 0.703522
0.475342 0.055725 0.728149
0.564972 0.069397 0.745026
0.662292 0.079346 0.757141
0.763184 0.087067 0.766449
0.865601 0.093414 0.773987
0.968384 0.099060 0.780609
0.320435 0.140045 0.636230
0.377441 0.169250 0.671417
0.454773 0.189514 0.698822
0.548187 0.201813 0.720703
0.652069 0.207886 0.740875
0.762665 0.209137 0.762268
0.879608 0.204987 0.788208
1.000000 0.196899 0.820709
0.332611 0.258148 0.635254
0.388214 0.289124 0.670319
0.463196 0.311401 0.697113
0.553223 0.326019 0.717377
0.652679 0.335266 0.734192
0.757294 0.340759 0.749634
0.865082 0.343506 0.765198
0.975372 0.343567 0.782043
0.353302 0.375580 0.637115
0.407379 0.407959 0.672424
0.479767 0.431732 0.699524
0.567139 0.447968 0.719849
0.663574 0.459015 0.736023
0.765320 0.466431 0.750031
0.869995 0.471283 0.763275
0.976532 0.474121 0.776611
0.378845 0.493134 0.638580
0.431366 0.526581 0.674286
0.500885 0.551971 0.702148
0.585236 0.569794 0.723083
0.679138 0.582245 0.739471
0.778381 0.591064 0.753204
0.880676 0.597412 0.765594
0.984924 0.601837 0.777618
0.407715 0.610962 0.638977
0.458557 0.645508 0.675110
0.525452 0.672241 0.703796
0.606781 0.691589 0.725677
0.697662 0.705597 0.742706
0.794495 0.715759 0.756714
0.894745 0.723297 0.769012
0.996979 0.728882 0.780518
0.439301 0.729065 0.638000
0.488586 0.764557 0.674622
0.552856 0.792664 0.704315
0.630890 0.813599 0.727203
0.718811 0.829071 0.745087
0.813080 0.840546 0.759705
0.911163 0.849274 0.772278
1.000000 0.860809 0.796326
