dist/luts/MOIM Vaasa Plant Photoshoot - 6.CUBE
#Created by: Adobe Photoshop Export Color Lookup Plugin
TITLE "MOIM Vaasa Plant Photoshoot - 6.psd"
#LUT size
LUT_3D_SIZE 8
#data domain
#LUT data points
DOMAIN_MIN 0.000000 0.000000 0.000000
DOMAIN_MAX 0.903226 0.903226 0.903226
0.000000 0.000000 0.000000
0.163330 0.000000 0.000000
0.301575 0.000000 0.000000
0.431732 0.000000 0.000000
0.556946 0.000000 0.000000
0.678528 0.000000 0.000000
0.797333 0.000000 0.000000
0.913849 0.000000 0.000000
0.000000 0.097595 0.000000
0.163330 0.097595 0.000000
0.301575 0.097595 0.000000
0.431732 0.097595 0.000000
0.556946 0.097595 0.000000
0.678528 0.097595 0.000000
0.797333 0.097595 0.000000
0.913849 0.097595 0.000000
0.000000 0.214539 0.000000
0.163330 0.214539 0.000000
0.301575 0.214539 0.000000
0.431732 0.214539 0.000000
0.556946 0.214539 0.000000
0.678528 0.214539 0.000000
0.797333 0.214539 0.000000
0.913849 0.214539 0.000000
0.000000 0.340088 0.000000
0.163330 0.340088 0.000000
0.301575 0.340088 0.000000
0.431732 0.340088 0.000000
0.556946 0.340088 0.000000
0.678528 0.340088 0.000000
0.797333 0.340088 0.000000
0.913849 0.340088 0.000000
0.000000 0.471619 0.000000
0.163330 0.471619 0.000000
0.301575 0.471619 0.000000
0.431732 0.471619 0.000000
0.556946 0.471619 0.000000
0.678528 0.471619 0.000000
0.797333 0.471619 0.000000
0.913849 0.471619 0.000000
0.000000 0.607758 0.000000
0.163330 0.607758 0.000000
0.301575 0.607758 0.000000
0.431732 0.607758 0.000000
0.556946 0.607758 0.000000
0.678528 0.607758 0.000000
0.797333 0.607758 0.000000
0.913849 0.607758 0.000000
0.000000 0.747650 0.000000
0.163330 0.747650 0.000000
0.301575 0.747650 0.000000
0.431732 0.747650 0.000000
0.556946 0.747650 0.000000
0.678528 0.747650 0.000000
0.797333 0.747650 0.000000
0.913849 0.747650 0.000000
0.000000 0.890778 0.000000
0.163330 0.890778 0.000000
0.301575 0.890778 0.000000
0.431732 0.890778 0.000000
0.556946 0.890778 0.000000
0.678528 0.890778 0.000000
0.797333 0.890778 0.000000
0.913849 0.890778 0.000000
0.000000 0.000000 0.097595
0.163330 0.000000 0.097595
0.301575 0.000000 0.097595
0.431732 0.000000 0.097595
0.556946 0.000000 0.097595
0.678528 0.000000 0.097595
0.797333 0.000000 0.097595
0.913849 0.000000 0.097595
0.000000 0.097595 0.097595
0.163330 0.097595 0.097595
0.301575 0.097595 0.097595
0.431732 0.097595 0.097595
0.556946 0.097595 0.097595
0.678528 0.097595 0.097595
0.797333 0.097595 0.097595
0.913849 0.097595 0.097595
0.000000 0.214539 0.097595
0.163330 0.214539 0.097595
0.301575 0.214539 0.097595
0.431732 0.214539 0.097595
0.556946 0.214539 0.097595
0.678528 0.214539 0.097595
0.797333 0.214539 0.097595
0.913849 0.214539 0.097595
0.000000 0.340088 0.097595
0.163330 0.340088 0.097595
0.301575 0.340088 0.097595
0.431732 0.340088 0.097595
0.556946 0.340088 0.097595
0.678528 0.340088 0.097595
0.797333 0.340088 0.097595
0.913849 0.340088 0.097595
0.000000 0.471619 0.097595
0.163330 0.471619 0.097595
0.301575 0.471619 0.097595
0.431732 0.471619 0.097595
0.556946 0.471619 0.097595
0.678528 0.471619 0.097595
0.797333 0.471619 0.097595
0.913849 0.471619 0.097595
0.000000 0.607758 0.097595
0.163330 0.607758 0.097595
0.301575 0.607758 0.097595
0.431732 0.607758 0.097595
0.556946 0.607758 0.097595
0.678528 0.607758 0.097595
0.797333 0.607758 0.097595
0.913849 0.607758 0.097595
0.000000 0.747650 0.097595
0.163330 0.747650 0.097595
0.301575 0.747650 0.097595
0.431732 0.747650 0.097595
0.556946 0.747650 0.097595
0.678528 0.747650 0.097595
0.797333 0.747650 0.097595
0.913849 0.747650 0.097595
0.000000 0.890778 0.097595
0.163330 0.890778 0.097595
0.301575 0.890778 0.097595
0.431732 0.890778 0.097595
0.556946 0.890778 0.097595
0.678528 0.890778 0.097595
0.797333 0.890778 0.097595
0.913849 0.890778 0.097595
0.000000 0.000000 0.214539
0.163330 0.000000 0.214539
0.301575 0.000000 0.214539
0.431732 0.000000 0.214539
0.556946 0.000000 0.214539
0.678528 0.000000 0.214539
0.797333 0.000000 0.214539
0.913849 0.000000 0.214539
0.000000 0.097595 0.214539
0.163330 0.097595 0.214539
0.301575 0.097595 0.214539
0.431732 0.097595 0.214539
0.556946 0.097595 0.214539
0.678528 0.097595 0.214539
0.797333 0.097595 0.214539
0.913849 0.097595 0.214539
0.000000 0.214539 0.214539
0.163330 0.214539 0.214539
0.301575 0.214539 0.214539
0.431732 0.214539 0.214539
0.556946 0.214539 0.214539
0.678528 0.214539 0.214539
0.797333 0.214539 0.214539
0.913849 0.214539 0.214539
0.000000 0.340088 0.214539
0.163330 0.340088 0.214539
0.301575 0.340088 0.214539
0.431732 0.340088 0.214539
0.556946 0.340088 0.214539
0.678528 0.340088 0.214539
0.797333 0.340088 0.214539
0.913849 0.340088 0.214539
0.000000 0.471619 0.214539
0.163330 0.471619 0.214539
0.301575 0.471619 0.214539
0.431732 0.471619 0.214539
0.556946 0.471619 0.214539
0.678528 0.471619 0.214539
0.797333 0.471619 0.214539
0.913849 0.471619 0.214539
0.000000 0.607758 0.214539
0.163330 0.607758 0.214539
0.301575 0.607758 0.214539
0.431732 0.607758 0.214539
0.556946 0.607758 0.214539
0.678528 0.607758 0.214539
0.797333 0.607758 0.214539
0.913849 0.607758 0.214539
0.000000 0.747650 0.214539
0.163330 0.747650 0.214539
0.301575 0.747650 0.214539
0.431732 0.747650 0.214539
0.556946 0.747650 0.214539
0.678528 0.747650 0.214539
0.797333 0.747650 0.214539
0.913849 0.747650 0.214539
0.000000 0.890778 0.214539
0.163330 0.890778 0.214539
0.301575 0.890778 0.214539
0.431732 0.890778 0.214539
0.556946 0.890778 0.214539
0.678528 0.890778 0.214539
0.797333 0.890778 0.214539
0.913849 0.890778 0.214539
0.000000 0.000000 0.340088
0.163330 0.000000 0.340088
0.301575 0.000000 0.340088
0.431732 0.000000 0.340088
0.556946 0.000000 0.340088
0.678528 0.000000 0.340088
0.797333 0.000000 0.340088
0.913849 0.000000 0.340088
0.000000 0.097595 0.340088
0.163330 0.097595 0.340088
0.301575 0.097595 0.340088
0.431732 0.097595 0.340088
0.556946 0.097595 0.340088
0.678528 0.097595 0.340088
0.797333 0.097595 0.340088
0.913849 0.097595 0.340088
0.000000 0.214539 0.340088
0.163330 0.214539 0.340088
0.301575 0.214539 0.340088
0.431732 0.214539 0.340088
0.556946 0.214539 0.340088
0.678528 0.214539 0.340088
0.797333 0.214539 0.340088
0.913849 0.214539 0.340088
0.000000 0.340088 0.340088
0.163330 0.340088 0.340088
0.301575 0.340088 0.340088
0.431732 0.340088 0.340088
0.556946 0.340088 0.340088
0.678528 0.340088 0.340088
0.797333 0.340088 0.340088
0.913849 0.340088 0.340088
0.000000 0.471619 0.340088
0.163330 0.471619 0.340088
0.301575 0.471619 0.340088
0.431732 0.471619 0.340088
0.556946 0.471619 0.340088
0.678528 0.471619 0.340088
0.797333 0.471619 0.340088
0.913849 0.471619 0.340088
0.000000 0.607758 0.340088
0.163330 0.607758 0.340088
0.301575 0.607758 0.340088
0.431732 0.607758 0.340088
0.556946 0.607758 0.340088
0.678528 0.607758 0.340088
0.797333 0.607758 0.340088
0.913849 0.607758 0.340088
0.000000 0.747650 0.340088
0.163330 0.747650 0.340088
0.301575 0.747650 0.340088
0.431732 0.747650 0.340088
0.556946 0.747650 0.340088
0.678528 0.747650 0.340088
0.797333 0.747650 0.340088
0.913849 0.747650 0.340088
0.000000 0.890778 0.340088
0.163330 0.890778 0.340088
0.301575 0.890778 0.340088
0.431732 0.890778 0.340088
0.556946 0.890778 0.340088
0.678528 0.890778 0.340088
0.797333 0.890778 0.340088
0.913849 0.890778 0.340088
0.000000 0.000000 0.471619
0.163330 0.000000 0.471619
0.301575 0.000000 0.471619
0.431732 0.000000 0.471619
0.556946 0.000000 0.471619
0.678528 0.000000 0.471619
0.797333 0.000000 0.471619
0.913849 0.000000 0.471619
0.000000 0.097595 0.471619
0.163330 0.097595 0.471619
0.301575 0.097595 0.471619
0.431732 0.097595 0.471619
0.556946 0.097595 0.471619
0.678528 0.097595 0.471619
0.797333 0.097595 0.471619
0.913849 0.097595 0.471619
0.000000 0.214539 0.471619
0.163330 0.214539 0.471619
0.301575 0.214539 0.471619
0.431732 0.214539 0.471619
0.556946 0.214539 0.471619
0.678528 0.214539 0.471619
0.797333 0.214539 0.471619
0.913849 0.214539 0.471619
0.000000 0.340088 0.471619
0.163330 0.340088 0.471619
0.301575 0.340088 0.471619
0.431732 0.340088 0.471619
0.556946 0.340088 0.471619
0.678528 0.340088 0.471619
0.797333 0.340088 0.471619
0.913849 0.340088 0.471619
0.000000 0.471619 0.471619
0.163330 0.471619 0.471619
0.301575 0.471619 0.471619
0.431732 0.471619 0.471619
0.556946 0.471619 0.471619
0.678528 0.471619 0.471619
0.797333 0.471619 0.471619
0.913849 0.471619 0.471619
0.000000 0.607758 0.471619
0.163330 0.607758 0.471619
0.301575 0.607758 0.471619
0.431732 0.607758 0.471619
0.556946 0.607758 0.471619
0.678528 0.607758 0.471619
0.797333 0.607758 0.471619
0.913849 0.607758 0.471619
0.000000 0.747650 0.471619
0.163330 0.747650 0.471619
0.301575 0.747650 0.471619
0.431732 0.747650 0.471619
0.556946 0.747650 0.471619
0.678528 0.747650 0.471619
0.797333 0.747650 0.471619
0.913849 0.747650 0.471619
0.000000 0.890778 0.471619
0.163330 0.890778 0.471619
0.301575 0.890778 0.471619
0.431732 0.890778 0.471619
0.556946 0.890778 0.471619
0.678528 0.890778 0.471619
0.797333 0.890778 0.471619
0.913849 0.890778 0.471619
0.000000 0.000000 0.607758
0.163330 0.000000 0.607758
0.301575 0.000000 0.607758
0.431732 0.000000 0.607758
0.556946 0.000000 0.607758
0.678528 0.000000 0.607758
0.797333 0.000000 0.607758
0.913849 0.000000 0.607758
0.000000 0.097595 0.607758
0.163330 0.097595 0.607758
0.301575 0.097595 0.607758
0.431732 0.097595 0.607758
0.556946 0.097595 0.607758
0.678528 0.097595 0.607758
0.797333 0.097595 0.607758
0.913849 0.097595 0.607758
0.000000 0.214539 0.607758
0.163330 0.214539 0.607758
0.301575 0.214539 0.607758
0.431732 0.214539 0.607758
0.556946 0.214539 0.607758
0.678528 0.214539 0.607758
0.797333 0.214539 0.607758
0.913849 0.214539 0.607758
0.000000 0.340088 0.607758
0.163330 0.340088 0.607758
0.301575 0.340088 0.607758
0.431732 0.340088 0.607758
0.556946 0.340088 0.607758
0.678528 0.340088 0.607758
0.797333 0.340088 0.607758
0.913849 0.340088 0.607758
0.000000 0.471619 0.607758
0.163330 0.471619 0.607758
0.301575 0.471619 0.607758
0.431732 0.471619 0.607758
0.556946 0.471619 0.607758
0.678528 0.471619 0.607758
0.797333 0.471619 0.607758
0.913849 0.471619 0.607758
0.000000 0.607758 0.607758
0.163330 0.607758 0.607758
0.301575 0.607758 0.607758
0.431732 0.607758 0.607758
0.556946 0.607758 0.607758
0.678528 0.607758 0.607758
0.797333 0.607758 0.607758
0.913849 0.607758 0.607758
0.000000 0.747650 0.607758
0.163330 0.747650 0.607758
0.301575 0.747650 0.607758
0.431732 0.747650 0.607758
0.556946 0.747650 0.607758
0.678528 0.747650 0.607758
0.797333 0.747650 0.607758
0.913849 0.747650 0.607758
0.000000 0.890778 0.607758
0.163330 0.890778 0.607758
0.301575 0.890778 0.607758
0.431732 0.890778 0.607758
0.556946 0.890778 0.607758
0.678528 0.890778 0.607758
0.797333 0.890778 0.607758
0.913849 0.890778 0.607758
0.000000 0.000000 0.747650
0.163330 0.000000 0.747650
0.301575 0.000000 0.747650
0.431732 0.000000 0.747650
0.556946 0.000000 0.747650
0.678528 0.000000 0.747650
0.797333 0.000000 0.747650
0.913849 0.000000 0.747650
0.000000 0.097595 0.747650
0.163330 0.097595 0.747650
0.301575 0.097595 0.747650
0.431732 0.097595 0.747650
0.556946 0.097595 0.747650
0.678528 0.097595 0.747650
0.797333 0.097595 0.747650
0.913849 0.097595 0.747650
0.000000 0.214539 0.747650
0.163330 0.214539 0.747650
0.301575 0.214539 0.747650
0.431732 0.214539 0.747650
0.556946 0.214539 0.747650
0.678528 0.214539 0.747650
0.797333 0.214539 0.747650
0.913849 0.214539 0.747650
0.000000 0.340088 0.747650
0.163330 0.340088 0.747650
0.301575 0.340088 0.747650
0.431732 0.340088 0.747650
0.556946 0.340088 0.747650
0.678528 0.340088 0.747650
0.797333 0.340088 0.747650
0.913849 0.340088 0.747650
0.000000 0.471619 0.747650
0.163330 0.471619 0.747650
0.301575 0.471619 0.747650
0.431732 0.471619 0.747650
0.556946 0.471619 0.747650
0.678528 0.471619 0.747650
0.797333 0.471619 0.747650
0.913849 0.471619 0.747650
0.000000 0.607758 0.747650
0.163330 0.607758 0.747650
0.301575 0.607758 0.747650
0.431732 0.607758 0.747650
0.556946 0.607758 0.747650
0.678528 0.607758 0.747650
0.797333 0.607758 0.747650
0.913849 0.607758 0.747650
0.000000 0.747650 0.747650
0.163330 0.747650 0.747650
0.301575 0.747650 0.747650
0.431732 0.747650 0.747650
0.556946 0.747650 0.747650
0.678528 0.747650 0.747650
0.797333 0.747650 0.747650
0.913849 0.747650 0.747650
0.000000 0.890778 0.747650
0.163330 0.890778 0.747650
0.301575 0.890778 0.747650
0.431732 0.890778 0.747650
0.556946 0.890778 0.747650
0.678528 0.890778 0.747650
0.797333 0.890778 0.747650
0.913849 0.890778 0.747650
0.000000 0.000000 0.890778
0.163330 0.000000 0.890778
0.301575 0.000000 0.890778
0.431732 0.000000 0.890778
0.556946 0.000000 0.890778
0.678528 0.000000 0.890778
0.797333 0.000000 0.890778
0.913849 0.000000 0.890778
0.000000 0.097595 0.890778
0.163330 0.097595 0.890778
0.301575 0.097595 0.890778
0.431732 0.097595 0.890778
0.556946 0.097595 0.890778
0.678528 0.097595 0.890778
0.797333 0.097595 0.890778
0.913849 0.097595 0.890778
0.000000 0.214539 0.890778
0.163330 0.214539 0.890778
0.301575 0.214539 0.890778
0.431732 0.214539 0.890778
0.556946 0.214539 0.890778
0.678528 0.214539 0.890778
0.797333 0.214539 0.890778
0.913849 0.214539 0.890778
0.000000 0.340088 0.890778
0.163330 0.340088 0.890778
0.301575 0.340088 0.890778
0.431732 0.340088 0.890778
0.556946 0.340088 0.890778
0.678528 0.340088 0.890778
0.797333 0.340088 0.890778
0.913849 0.340088 0.890778
0.000000 0.471619 0.890778
0.163330 0.471619 0.890778
0.301575 0.471619 0.890778
0.431732 0.471619 0.890778
0.556946 0.471619 0.890778
0.678528 0.471619 0.890778
0.797333 0.471619 0.890778
0.913849 0.471619 0.890778
0.000000 0.607758 0.890778
0.163330 0.607758 0.890778
0.301575 0.607758 0.890778
0.431732 0.607758 0.890778
0.556946 0.607758 0.890778
0.678528 0.607758 0.890778
0.797333 0.607758 0.890778
0.913849 0.607758 0.890778
0.000000 0.747650 0.890778
0.163330 0.747650 0.890778
0.301575 0.747650 0.890778
0.431732 0.747650 0.890778
0.556946 0.747650 0.890778
0.678528 0.747650 0.890778
0.797333 0.747650 0.890778
0.913849 0.747650 0.890778
0.000000 0.890778 0.890778
0.163330 0.890778 0.890778
0.301575 0.890778 0.890778
0.431732 0.890778 0.890778
0.556946 0.890778 0.890778
0.678528 0.890778 0.890778
0.797333 0.890778 0.890778
0.913849 0.890778 0.890778
