dist/luts/SWIFTI CRB 1300 - 2-Large.CUBE
#Created by: Adobe Photoshop Export Color Lookup Plugin
TITLE "SWIFTI CRB 1300 - 2-Large.psd"
#LUT size
LUT_3D_SIZE 5
#data domain
#LUT data points
DOMAIN_MIN 0.000000 0.000000 0.000000
DOMAIN_MAX 0.903226 0.903226 0.903226
0.000000 0.000000 0.000000
0.151855 0.000000 0.000000
0.399231 0.000000 0.000000
0.618713 0.000000 0.000000
0.833344 0.000000 0.000000
0.000000 0.151855 0.000000
0.151855 0.151855 0.000000
0.399231 0.151855 0.000000
0.618713 0.151855 0.000000
0.833344 0.151855 0.000000
0.000000 0.399231 0.000000
0.151855 0.399231 0.000000
0.399231 0.399231 0.000000
0.618713 0.399231 0.000000
0.833344 0.399231 0.000000
0.000000 0.618713 0.000000
0.151855 0.618713 0.000000
0.399231 0.618713 0.000000
0.618713 0.618713 0.000000
0.833344 0.618713 0.000000
0.000000 0.833344 0.000000
0.151855 0.833344 0.000000
0.399231 0.833344 0.000000
0.618713 0.833344 0.000000
0.833344 0.833344 0.000000
0.000000 0.000000 0.151855
0.151855 0.000000 0.151855
0.399231 0.000000 0.151855
0.618713 0.000000 0.151855
0.833344 0.000000 0.151855
0.000000 0.151855 0.151855
0.151855 0.151855 0.151855
0.399231 0.151855 0.151855
0.618713 0.151855 0.151855
0.833344 0.151855 0.151855
0.000000 0.399231 0.151855
0.151855 0.399231 0.151855
0.399231 0.399231 0.151855
0.618713 0.399231 0.151855
0.833344 0.399231 0.151855
0.000000 0.618713 0.151855
0.151855 0.618713 0.151855
0.399231 0.618713 0.151855
0.618713 0.618713 0.151855
0.833344 0.618713 0.151855
0.000000 0.833344 0.151855
0.151855 0.833344 0.151855
0.399231 0.833344 0.151855
0.618713 0.833344 0.151855
0.833344 0.833344 0.151855
0.000000 0.000000 0.399231
0.151855 0.000000 0.399231
0.399231 0.000000 0.399231
0.618713 0.000000 0.399231
0.833344 0.000000 0.399231
0.000000 0.151855 0.399231
0.151855 0.151855 0.399231
0.399231 0.151855 0.399231
0.618713 0.151855 0.399231
0.833344 0.151855 0.399231
0.000000 0.399231 0.399231
0.151855 0.399231 0.399231
0.399231 0.399231 0.399231
0.618713 0.399231 0.399231
0.833344 0.399231 0.399231
0.000000 0.618713 0.399231
0.151855 0.618713 0.399231
0.399231 0.618713 0.399231
0.618713 0.618713 0.399231
0.833344 0.618713 0.399231
0.000000 0.833344 0.399231
0.151855 0.833344 0.399231
0.399231 0.833344 0.399231
0.618713 0.833344 0.399231
0.833344 0.833344 0.399231
0.000000 0.000000 0.618713
0.151855 0.000000 0.618713
0.399231 0.000000 0.618713
0.618713 0.000000 0.618713
0.833344 0.000000 0.618713
0.000000 0.151855 0.618713
0.151855 0.151855 0.618713
0.399231 0.151855 0.618713
0.618713 0.151855 0.618713
0.833344 0.151855 0.618713
0.000000 0.399231 0.618713
0.151855 0.399231 0.618713
0.399231 0.399231 0.618713
0.618713 0.399231 0.618713
0.833344 0.399231 0.618713
0.000000 0.618713 0.618713
0.151855 0.618713 0.618713
0.399231 0.618713 0.618713
0.618713 0.618713 0.618713
0.833344 0.618713 0.618713
0.000000 0.833344 0.618713
0.151855 0.833344 0.618713
0.399231 0.833344 0.618713
0.618713 0.833344 0.618713
0.833344 0.833344 0.618713
0.000000 0.000000 0.833344
0.151855 0.000000 0.833344
0.399231 0.000000 0.833344
0.618713 0.000000 0.833344
0.833344 0.000000 0.833344
0.000000 0.151855 0.833344
0.151855 0.151855 0.833344
0.399231 0.151855 0.833344
0.618713 0.151855 0.833344
0.833344 0.151855 0.833344
0.000000 0.399231 0.833344
0.151855 0.399231 0.833344
0.399231 0.399231 0.833344
0.618713 0.399231 0.833344
0.833344 0.399231 0.833344
0.000000 0.618713 0.833344
0.151855 0.618713 0.833344
0.399231 0.618713 0.833344
0.618713 0.618713 0.833344
0.833344 0.618713 0.833344
0.000000 0.833344 0.833344
0.151855 0.833344 0.833344
0.399231 0.833344 0.833344
0.618713 0.833344 0.833344
0.833344 0.833344 0.833344
