dist/luts/SWIFTI CRB 1300 - 2-Large.CUBE
#Created by: Adobe Photoshop Export Color Lookup Plugin
TITLE "SWIFTI CRB 1300 - 2-Large.psd"
#LUT size
LUT_3D_SIZE 32
#data domain
DOMAIN_MIN 0.0 0.0 0.0
DOMAIN_MAX 1.0 1.0 1.0
#LUT data points
0.000000 0.000000 0.000000
0.000000 0.000000 0.000000
0.000000 0.000000 0.000000
0.000000 0.000000 0.000000
0.000000 0.000000 0.000000
0.000000 0.000000 0.000000
0.101166 0.000000 0.000000
0.151855 0.000000 0.000000
0.193359 0.000000 0.000000
0.231018 0.000000 0.000000
0.266571 0.000000 0.000000
0.300812 0.000000 0.000000
0.334198 0.000000 0.000000
0.366943 0.000000 0.000000
0.399231 0.000000 0.000000
0.431183 0.000000 0.000000
0.462891 0.000000 0.000000
0.494354 0.000000 0.000000
0.525635 0.000000 0.000000
0.556763 0.000000 0.000000
0.587799 0.000000 0.000000
0.618713 0.000000 0.000000
0.649567 0.000000 0.000000
0.680328 0.000000 0.000000
0.711029 0.000000 0.000000
0.741669 0.000000 0.000000
0.772247 0.000000 0.000000
0.802826 0.000000 0.000000
0.833344 0.000000 0.000000
0.863831 0.000000 0.000000
0.894287 0.000000 0.000000
0.924713 0.000000 0.000000
0.000000 0.000000 0.000000
0.000000 0.000000 0.000000
0.000000 0.000000 0.000000
0.000000 0.000000 0.000000
0.000000 0.000000 0.000000
0.000000 0.000000 0.000000
0.101166 0.000000 0.000000
0.151855 0.000000 0.000000
0.193359 0.000000 0.000000
0.231018 0.000000 0.000000
0.266571 0.000000 0.000000
0.300812 0.000000 0.000000
0.334198 0.000000 0.000000
0.366943 0.000000 0.000000
0.399231 0.000000 0.000000
0.431183 0.000000 0.000000
0.462891 0.000000 0.000000
0.494354 0.000000 0.000000
0.525635 0.000000 0.000000
0.556763 0.000000 0.000000
0.587799 0.000000 0.000000
0.618713 0.000000 0.000000
0.649567 0.000000 0.000000
0.680328 0.000000 0.000000
0.711029 0.000000 0.000000
0.741669 0.000000 0.000000
0.772247 0.000000 0.000000
0.802826 0.000000 0.000000
0.833344 0.000000 0.000000
0.863831 0.000000 0.000000
0.894287 0.000000 0.000000
0.924713 0.000000 0.000000
0.000000 0.000000 0.000000
0.000000 0.000000 0.000000
0.000000 0.000000 0.000000
0.000000 0.000000 0.000000
0.000000 0.000000 0.000000
0.000000 0.000000 0.000000
0.101166 0.000000 0.000000
0.151855 0.000000 0.000000
0.193359 0.000000 0.000000
0.231018 0.000000 0.000000
0.266571 0.000000 0.000000
0.300812 0.000000 0.000000
0.334198 0.000000 0.000000
0.366943 0.000000 0.000000
0.399231 0.000000 0.000000
0.431183 0.000000 0.000000
0.462891 0.000000 0.000000
0.494354 0.000000 0.000000
0.525635 0.000000 0.000000
0.556763 0.000000 0.000000
0.587799 0.000000 0.000000
0.618713 0.000000 0.000000
0.649567 0.000000 0.000000
0.680328 0.000000 0.000000
0.711029 0.000000 0.000000
0.741669 0.000000 0.000000
0.772247 0.000000 0.000000
0.802826 0.000000 0.000000
0.833344 0.000000 0.000000
0.863831 0.000000 0.000000
0.894287 0.000000 0.000000
0.924713 0.000000 0.000000
0.000000 0.000000 0.000000
0.000000 0.000000 0.000000
0.000000 0.000000 0.000000
0.000000 0.000000 0.000000
0.000000 0.000000 0.000000
0.000000 0.000000 0.000000
0.101166 0.000000 0.000000
0.151855 0.000000 0.000000
0.193359 0.000000 0.000000
0.231018 0.000000 0.000000
0.266571 0.000000 0.000000
0.300812 0.000000 0.000000
0.334198 0.000000 0.000000
0.366943 0.000000 0.000000
0.399231 0.000000 0.000000
0.431183 0.000000 0.000000
0.462891 0.000000 0.000000
0.494354 0.000000 0.000000
0.525635 0.000000 0.000000
0.556763 0.000000 0.000000
0.587799 0.000000 0.000000
0.618713 0.000000 0.000000
0.649567 0.000000 0.000000
0.680328 0.000000 0.000000
0.711029 0.000000 0.000000
0.741669 0.000000 0.000000
0.772247 0.000000 0.000000
0.802826 0.000000 0.000000
0.833344 0.000000 0.000000
0.863831 0.000000 0.000000
0.894287 0.000000 0.000000
0.924713 0.000000 0.000000
0.000000 0.000000 0.000000
0.000000 0.000000 0.000000
0.000000 0.000000 0.000000
0.000000 0.000000 0.000000
0.000000 0.000000 0.000000
0.000000 0.000000 0.000000
0.101166 0.000000 0.000000
0.151855 0.000000 0.000000
0.193359 0.000000 0.000000
0.231018 0.000000 0.000000
0.266571 0.000000 0.000000
0.300812 0.000000 0.000000
0.334198 0.000000 0.000000
0.366943 0.000000 0.000000
0.399231 0.000000 0.000000
0.431183 0.000000 0.000000
0.462891 0.000000 0.000000
0.494354 0.000000 0.000000
0.525635 0.000000 0.000000
0.556763 0.000000 0.000000
0.587799 0.000000 0.000000
0.618713 0.000000 0.000000
0.649567 0.000000 0.000000
0.680328 0.000000 0.000000
0.711029 0.000000 0.000000
0.741669 0.000000 0.000000
0.772247 0.000000 0.000000
0.802826 0.000000 0.000000
0.833344 0.000000 0.000000
0.863831 0.000000 0.000000
0.894287 0.000000 0.000000
0.924713 0.000000 0.000000
0.000000 0.000000 0.000000
0.000000 0.000000 0.000000
0.000000 0.000000 0.000000
0.000000 0.000000 0.000000
0.000000 0.000000 0.000000
0.000000 0.000000 0.000000
0.101166 0.000000 0.000000
0.151855 0.000000 0.000000
0.193359 0.000000 0.000000
0.231018 0.000000 0.000000
0.266571 0.000000 0.000000
0.300812 0.000000 0.000000
0.334198 0.000000 0.000000
0.366943 0.000000 0.000000
0.399231 0.000000 0.000000
0.431183 0.000000 0.000000
0.462891 0.000000 0.000000
0.494354 0.000000 0.000000
0.525635 0.000000 0.000000
0.556763 0.000000 0.000000
0.587799 0.000000 0.000000
0.618713 0.000000 0.000000
0.649567 0.000000 0.000000
0.680328 0.000000 0.000000
0.711029 0.000000 0.000000
0.741669 0.000000 0.000000
0.772247 0.000000 0.000000
0.802826 0.000000 0.000000
0.833344 0.000000 0.000000
0.863831 0.000000 0.000000
0.894287 0.000000 0.000000
0.924713 0.000000 0.000000
0.000000 0.101166 0.000000
0.000000 0.101166 0.000000
0.000000 0.101166 0.000000
0.000000 0.101166 0.000000
0.000000 0.101166 0.000000
0.000000 0.101166 0.000000
0.101166 0.101166 0.000000
0.151855 0.101166 0.000000
0.193359 0.101166 0.000000
0.231018 0.101166 0.000000
0.266571 0.101166 0.000000
0.300812 0.101166 0.000000
0.334198 0.101166 0.000000
0.366943 0.101166 0.000000
0.399231 0.101166 0.000000
0.431183 0.101166 0.000000
0.462891 0.101166 0.000000
0.494354 0.101166 0.000000
0.525635 0.101166 0.000000
0.556763 0.101166 0.000000
0.587799 0.101166 0.000000
0.618713 0.101166 0.000000
0.649567 0.101166 0.000000
0.680328 0.101166 0.000000
0.711029 0.101166 0.000000
0.741669 0.101166 0.000000
0.772247 0.101166 0.000000
0.802826 0.101166 0.000000
0.833344 0.101166 0.000000
0.863831 0.101166 0.000000
0.894287 0.101166 0.000000
0.924713 0.101166 0.000000
0.000000 0.151855 0.000000
0.000000 0.151855 0.000000
0.000000 0.151855 0.000000
0.000000 0.151855 0.000000
0.000000 0.151855 0.000000
0.000000 0.151855 0.000000
0.101166 0.151855 0.000000
0.151855 0.151855 0.000000
0.193359 0.151855 0.000000
0.231018 0.151855 0.000000
0.266571 0.151855 0.000000
0.300812 0.151855 0.000000
0.334198 0.151855 0.000000
0.366943 0.151855 0.000000
0.399231 0.151855 0.000000
0.431183 0.151855 0.000000
0.462891 0.151855 0.000000
0.494354 0.151855 0.000000
0.525635 0.151855 0.000000
0.556763 0.151855 0.000000
0.587799 0.151855 0.000000
0.618713 0.151855 0.000000
0.649567 0.151855 0.000000
0.680328 0.151855 0.000000
0.711029 0.151855 0.000000
0.741669 0.151855 0.000000
0.772247 0.151855 0.000000
0.802826 0.151855 0.000000
0.833344 0.151855 0.000000
0.863831 0.151855 0.000000
0.894287 0.151855 0.000000
0.924713 0.151855 0.000000
0.000000 0.193359 0.000000
0.000000 0.193359 0.000000
0.000000 0.193359 0.000000
0.000000 0.193359 0.000000
0.000000 0.193359 0.000000
0.000000 0.193359 0.000000
0.101166 0.193359 0.000000
0.151855 0.193359 0.000000
0.193359 0.193359 0.000000
0.231018 0.193359 0.000000
0.266571 0.193359 0.000000
0.300812 0.193359 0.000000
0.334198 0.193359 0.000000
0.366943 0.193359 0.000000
0.399231 0.193359 0.000000
0.431183 0.193359 0.000000
0.462891 0.193359 0.000000
0.494354 0.193359 0.000000
0.525635 0.193359 0.000000
0.556763 0.193359 0.000000
0.587799 0.193359 0.000000
0.618713 0.193359 0.000000
0.649567 0.193359 0.000000
0.680328 0.193359 0.000000
0.711029 0.193359 0.000000
0.741669 0.193359 0.000000
0.772247 0.193359 0.000000
0.802826 0.193359 0.000000
0.833344 0.193359 0.000000
0.863831 0.193359 0.000000
0.894287 0.193359 0.000000
0.924713 0.193359 0.000000
0.000000 0.231018 0.000000
0.000000 0.231018 0.000000
0.000000 0.231018 0.000000
0.000000 0.231018 0.000000
0.000000 0.231018 0.000000
0.000000 0.231018 0.000000
0.101166 0.231018 0.000000
0.151855 0.231018 0.000000
0.193359 0.231018 0.000000
0.231018 0.231018 0.000000
0.266571 0.231018 0.000000
0.300812 0.231018 0.000000
0.334198 0.231018 0.000000
0.366943 0.231018 0.000000
0.399231 0.231018 0.000000
0.431183 0.231018 0.000000
0.462891 0.231018 0.000000
0.494354 0.231018 0.000000
0.525635 0.231018 0.000000
0.556763 0.231018 0.000000
0.587799 0.231018 0.000000
0.618713 0.231018 0.000000
0.649567 0.231018 0.000000
0.680328 0.231018 0.000000
0.711029 0.231018 0.000000
0.741669 0.231018 0.000000
0.772247 0.231018 0.000000
0.802826 0.231018 0.000000
0.833344 0.231018 0.000000
0.863831 0.231018 0.000000
0.894287 0.231018 0.000000
0.924713 0.231018 0.000000
0.000000 0.266571 0.000000
0.000000 0.266571 0.000000
0.000000 0.266571 0.000000
0.000000 0.266571 0.000000
0.000000 0.266571 0.000000
0.000000 0.266571 0.000000
0.101166 0.266571 0.000000
0.151855 0.266571 0.000000
0.193359 0.266571 0.000000
0.231018 0.266571 0.000000
0.266571 0.266571 0.000000
0.300812 0.266571 0.000000
0.334198 0.266571 0.000000
0.366943 0.266571 0.000000
0.399231 0.266571 0.000000
0.431183 0.266571 0.000000
0.462891 0.266571 0.000000
0.494354 0.266571 0.000000
0.525635 0.266571 0.000000
0.556763 0.266571 0.000000
0.587799 0.266571 0.000000
0.618713 0.266571 0.000000
0.649567 0.266571 0.000000
0.680328 0.266571 0.000000
0.711029 0.266571 0.000000
0.741669 0.266571 0.000000
0.772247 0.266571 0.000000
0.802826 0.266571 0.000000
0.833344 0.266571 0.000000
0.863831 0.266571 0.000000
0.894287 0.266571 0.000000
0.924713 0.266571 0.000000
0.000000 0.300812 0.000000
0.000000 0.300812 0.000000
0.000000 0.300812 0.000000
0.000000 0.300812 0.000000
0.000000 0.300812 0.000000
0.000000 0.300812 0.000000
0.101166 0.300812 0.000000
0.151855 0.300812 0.000000
0.193359 0.300812 0.000000
0.231018 0.300812 0.000000
0.266571 0.300812 0.000000
0.300812 0.300812 0.000000
0.334198 0.300812 0.000000
0.366943 0.300812 0.000000
0.399231 0.300812 0.000000
0.431183 0.300812 0.000000
0.462891 0.300812 0.000000
0.494354 0.300812 0.000000
0.525635 0.300812 0.000000
0.556763 0.300812 0.000000
0.587799 0.300812 0.000000
0.618713 0.300812 0.000000
0.649567 0.300812 0.000000
0.680328 0.300812 0.000000
0.711029 0.300812 0.000000
0.741669 0.300812 0.000000
0.772247 0.300812 0.000000
0.802826 0.300812 0.000000
0.833344 0.300812 0.000000
0.863831 0.300812 0.000000
0.894287 0.300812 0.000000
0.924713 0.300812 0.000000
0.000000 0.334198 0.000000
0.000000 0.334198 0.000000
0.000000 0.334198 0.000000
0.000000 0.334198 0.000000
0.000000 0.334198 0.000000
0.000000 0.334198 0.000000
0.101166 0.334198 0.000000
0.151855 0.334198 0.000000
0.193359 0.334198 0.000000
0.231018 0.334198 0.000000
0.266571 0.334198 0.000000
0.300812 0.334198 0.000000
0.334198 0.334198 0.000000
0.366943 0.334198 0.000000
0.399231 0.334198 0.000000
0.431183 0.334198 0.000000
0.462891 0.334198 0.000000
0.494354 0.334198 0.000000
0.525635 0.334198 0.000000
0.556763 0.334198 0.000000
0.587799 0.334198 0.000000
0.618713 0.334198 0.000000
0.649567 0.334198 0.000000
0.680328 0.334198 0.000000
0.711029 0.334198 0.000000
0.741669 0.334198 0.000000
0.772247 0.334198 0.000000
0.802826 0.334198 0.000000
0.833344 0.334198 0.000000
0.863831 0.334198 0.000000
0.894287 0.334198 0.000000
0.924713 0.334198 0.000000
0.000000 0.366943 0.000000
0.000000 0.366943 0.000000
0.000000 0.366943 0.000000
0.000000 0.366943 0.000000
0.000000 0.366943 0.000000
0.000000 0.366943 0.000000
0.101166 0.366943 0.000000
0.151855 0.366943 0.000000
0.193359 0.366943 0.000000
0.231018 0.366943 0.000000
0.266571 0.366943 0.000000
0.300812 0.366943 0.000000
0.334198 0.366943 0.000000
0.366943 0.366943 0.000000
0.399231 0.366943 0.000000
0.431183 0.366943 0.000000
0.462891 0.366943 0.000000
0.494354 0.366943 0.000000
0.525635 0.366943 0.000000
0.556763 0.366943 0.000000
0.587799 0.366943 0.000000
0.618713 0.366943 0.000000
0.649567 0.366943 0.000000
0.680328 0.366943 0.000000
0.711029 0.366943 0.000000
0.741669 0.366943 0.000000
0.772247 0.366943 0.000000
0.802826 0.366943 0.000000
0.833344 0.366943 0.000000
0.863831 0.366943 0.000000
0.894287 0.366943 0.000000
0.924713 0.366943 0.000000
0.000000 0.399231 0.000000
0.000000 0.399231 0.000000
0.000000 0.399231 0.000000
0.000000 0.399231 0.000000
0.000000 0.399231 0.000000
0.000000 0.399231 0.000000
0.101166 0.399231 0.000000
0.151855 0.399231 0.000000
0.193359 0.399231 0.000000
0.231018 0.399231 0.000000
0.266571 0.399231 0.000000
0.300812 0.399231 0.000000
0.334198 0.399231 0.000000
0.366943 0.399231 0.000000
0.399231 0.399231 0.000000
0.431183 0.399231 0.000000
0.462891 0.399231 0.000000
0.494354 0.399231 0.000000
0.525635 0.399231 0.000000
0.556763 0.399231 0.000000
0.587799 0.399231 0.000000
0.618713 0.399231 0.000000
0.649567 0.399231 0.000000
0.680328 0.399231 0.000000
0.711029 0.399231 0.000000
0.741669 0.399231 0.000000
0.772247 0.399231 0.000000
0.802826 0.399231 0.000000
0.833344 0.399231 0.000000
0.863831 0.399231 0.000000
0.894287 0.399231 0.000000
0.924713 0.399231 0.000000
0.000000 0.431183 0.000000
0.000000 0.431183 0.000000
0.000000 0.431183 0.000000
0.000000 0.431183 0.000000
0.000000 0.431183 0.000000
0.000000 0.431183 0.000000
0.101166 0.431183 0.000000
0.151855 0.431183 0.000000
0.193359 0.431183 0.000000
0.231018 0.431183 0.000000
0.266571 0.431183 0.000000
0.300812 0.431183 0.000000
0.334198 0.431183 0.000000
0.366943 0.431183 0.000000
0.399231 0.431183 0.000000
0.431183 0.431183 0.000000
0.462891 0.431183 0.000000
0.494354 0.431183 0.000000
0.525635 0.431183 0.000000
0.556763 0.431183 0.000000
0.587799 0.431183 0.000000
0.618713 0.431183 0.000000
0.649567 0.431183 0.000000
0.680328 0.431183 0.000000
0.711029 0.431183 0.000000
0.741669 0.431183 0.000000
0.772247 0.431183 0.000000
0.802826 0.431183 0.000000
0.833344 0.431183 0.000000
0.863831 0.431183 0.000000
0.894287 0.431183 0.000000
0.924713 0.431183 0.000000
0.000000 0.462891 0.000000
0.000000 0.462891 0.000000
0.000000 0.462891 0.000000
0.000000 0.462891 0.000000
0.000000 0.462891 0.000000
0.000000 0.462891 0.000000
0.101166 0.462891 0.000000
0.151855 0.462891 0.000000
0.193359 0.462891 0.000000
0.231018 0.462891 0.000000
0.266571 0.462891 0.000000
0.300812 0.462891 0.000000
0.334198 0.462891 0.000000
0.366943 0.462891 0.000000
0.399231 0.462891 0.000000
0.431183 0.462891 0.000000
0.462891 0.462891 0.000000
0.494354 0.462891 0.000000
0.525635 0.462891 0.000000
0.556763 0.462891 0.000000
0.587799 0.462891 0.000000
0.618713 0.462891 0.000000
0.649567 0.462891 0.000000
0.680328 0.462891 0.000000
0.711029 0.462891 0.000000
0.741669 0.462891 0.000000
0.772247 0.462891 0.000000
0.802826 0.462891 0.000000
0.833344 0.462891 0.000000
0.863831 0.462891 0.000000
0.894287 0.462891 0.000000
0.924713 0.462891 0.000000
0.000000 0.494354 0.000000
0.000000 0.494354 0.000000
0.000000 0.494354 0.000000
0.000000 0.494354 0.000000
0.000000 0.494354 0.000000
0.000000 0.494354 0.000000
0.101166 0.494354 0.000000
0.151855 0.494354 0.000000
0.193359 0.494354 0.000000
0.231018 0.494354 0.000000
0.266571 0.494354 0.000000
0.300812 0.494354 0.000000
0.334198 0.494354 0.000000
0.366943 0.494354 0.000000
0.399231 0.494354 0.000000
0.431183 0.494354 0.000000
0.462891 0.494354 0.000000
0.494354 0.494354 0.000000
0.525635 0.494354 0.000000
0.556763 0.494354 0.000000
0.587799 0.494354 0.000000
0.618713 0.494354 0.000000
0.649567 0.494354 0.000000
0.680328 0.494354 0.000000
0.711029 0.494354 0.000000
0.741669 0.494354 0.000000
0.772247 0.494354 0.000000
0.802826 0.494354 0.000000
0.833344 0.494354 0.000000
0.863831 0.494354 0.000000
0.894287 0.494354 0.000000
0.924713 0.494354 0.000000
0.000000 0.525635 0.000000
0.000000 0.525635 0.000000
0.000000 0.525635 0.000000
0.000000 0.525635 0.000000
0.000000 0.525635 0.000000
0.000000 0.525635 0.000000
0.101166 0.525635 0.000000
0.151855 0.525635 0.000000
0.193359 0.525635 0.000000
0.231018 0.525635 0.000000
0.266571 0.525635 0.000000
0.300812 0.525635 0.000000
0.334198 0.525635 0.000000
0.366943 0.525635 0.000000
0.399231 0.525635 0.000000
0.431183 0.525635 0.000000
0.462891 0.525635 0.000000
0.494354 0.525635 0.000000
0.525635 0.525635 0.000000
0.556763 0.525635 0.000000
0.587799 0.525635 0.000000
0.618713 0.525635 0.000000
0.649567 0.525635 0.000000
0.680328 0.525635 0.000000
0.711029 0.525635 0.000000
0.741669 0.525635 0.000000
0.772247 0.525635 0.000000
0.802826 0.525635 0.000000
0.833344 0.525635 0.000000
0.863831 0.525635 0.000000
0.894287 0.525635 0.000000
0.924713 0.525635 0.000000
0.000000 0.556763 0.000000
0.000000 0.556763 0.000000
0.000000 0.556763 0.000000
0.000000 0.556763 0.000000
0.000000 0.556763 0.000000
0.000000 0.556763 0.000000
0.101166 0.556763 0.000000
0.151855 0.556763 0.000000
0.193359 0.556763 0.000000
0.231018 0.556763 0.000000
0.266571 0.556763 0.000000
0.300812 0.556763 0.000000
0.334198 0.556763 0.000000
0.366943 0.556763 0.000000
0.399231 0.556763 0.000000
0.431183 0.556763 0.000000
0.462891 0.556763 0.000000
0.494354 0.556763 0.000000
0.525635 0.556763 0.000000
0.556763 0.556763 0.000000
0.587799 0.556763 0.000000
0.618713 0.556763 0.000000
0.649567 0.556763 0.000000
0.680328 0.556763 0.000000
0.711029 0.556763 0.000000
0.741669 0.556763 0.000000
0.772247 0.556763 0.000000
0.802826 0.556763 0.000000
0.833344 0.556763 0.000000
0.863831 0.556763 0.000000
0.894287 0.556763 0.000000
0.924713 0.556763 0.000000
0.000000 0.587799 0.000000
0.000000 0.587799 0.000000
0.000000 0.587799 0.000000
0.000000 0.587799 0.000000
0.000000 0.587799 0.000000
0.000000 0.587799 0.000000
0.101166 0.587799 0.000000
0.151855 0.587799 0.000000
0.193359 0.587799 0.000000
0.231018 0.587799 0.000000
0.266571 0.587799 0.000000
0.300812 0.587799 0.000000
0.334198 0.587799 0.000000
0.366943 0.587799 0.000000
0.399231 0.587799 0.000000
0.431183 0.587799 0.000000
0.462891 0.587799 0.000000
0.494354 0.587799 0.000000
0.525635 0.587799 0.000000
0.556763 0.587799 0.000000
0.587799 0.587799 0.000000
0.618713 0.587799 0.000000
0.649567 0.587799 0.000000
0.680328 0.587799 0.000000
0.711029 0.587799 0.000000
0.741669 0.587799 0.000000
0.772247 0.587799 0.000000
0.802826 0.587799 0.000000
0.833344 0.587799 0.000000
0.863831 0.587799 0.000000
0.894287 0.587799 0.000000
0.924713 0.587799 0.000000
0.000000 0.618713 0.000000
0.000000 0.618713 0.000000
0.000000 0.618713 0.000000
0.000000 0.618713 0.000000
0.000000 0.618713 0.000000
0.000000 0.618713 0.000000
0.101166 0.618713 0.000000
0.151855 0.618713 0.000000
0.193359 0.618713 0.000000
0.231018 0.618713 0.000000
0.266571 0.618713 0.000000
0.300812 0.618713 0.000000
0.334198 0.618713 0.000000
0.366943 0.618713 0.000000
0.399231 0.618713 0.000000
0.431183 0.618713 0.000000
0.462891 0.618713 0.000000
0.494354 0.618713 0.000000
0.525635 0.618713 0.000000
0.556763 0.618713 0.000000
0.587799 0.618713 0.000000
0.618713 0.618713 0.000000
0.649567 0.618713 0.000000
0.680328 0.618713 0.000000
0.711029 0.618713 0.000000
0.741669 0.618713 0.000000
0.772247 0.618713 0.000000
0.802826 0.618713 0.000000
0.833344 0.618713 0.000000
0.863831 0.618713 0.000000
0.894287 0.618713 0.000000
0.924713 0.618713 0.000000
0.000000 0.649567 0.000000
0.000000 0.649567 0.000000
0.000000 0.649567 0.000000
0.000000 0.649567 0.000000
0.000000 0.649567 0.000000
0.000000 0.649567 0.000000
0.101166 0.649567 0.000000
0.151855 0.649567 0.000000
0.193359 0.649567 0.000000
0.231018 0.649567 0.000000
0.266571 0.649567 0.000000
0.300812 0.649567 0.000000
0.334198 0.649567 0.000000
0.366943 0.649567 0.000000
0.399231 0.649567 0.000000
0.431183 0.649567 0.000000
0.462891 0.649567 0.000000
0.494354 0.649567 0.000000
0.525635 0.649567 0.000000
0.556763 0.649567 0.000000
0.587799 0.649567 0.000000
0.618713 0.649567 0.000000
0.649567 0.649567 0.000000
0.680328 0.649567 0.000000
0.711029 0.649567 0.000000
0.741669 0.649567 0.000000
0.772247 0.649567 0.000000
0.802826 0.649567 0.000000
0.833344 0.649567 0.000000
0.863831 0.649567 0.000000
0.894287 0.649567 0.000000
0.924713 0.649567 0.000000
0.000000 0.680328 0.000000
0.000000 0.680328 0.000000
0.000000 0.680328 0.000000
0.000000 0.680328 0.000000
0.000000 0.680328 0.000000
0.000000 0.680328 0.000000
0.101166 0.680328 0.000000
0.151855 0.680328 0.000000
0.193359 0.680328 0.000000
0.231018 0.680328 0.000000
0.266571 0.680328 0.000000
0.300812 0.680328 0.000000
0.334198 0.680328 0.000000
0.366943 0.680328 0.000000
0.399231 0.680328 0.000000
0.431183 0.680328 0.000000
0.462891 0.680328 0.000000
0.494354 0.680328 0.000000
0.525635 0.680328 0.000000
0.556763 0.680328 0.000000
0.587799 0.680328 0.000000
0.618713 0.680328 0.000000
0.649567 0.680328 0.000000
0.680328 0.680328 0.000000
0.711029 0.680328 0.000000
0.741669 0.680328 0.000000
0.772247 0.680328 0.000000
0.802826 0.680328 0.000000
0.833344 0.680328 0.000000
0.863831 0.680328 0.000000
0.894287 0.680328 0.000000
0.924713 0.680328 0.000000
0.000000 0.711029 0.000000
0.000000 0.711029 0.000000
0.000000 0.711029 0.000000
0.000000 0.711029 0.000000
0.000000 0.711029 0.000000
0.000000 0.711029 0.000000
0.101166 0.711029 0.000000
0.151855 0.711029 0.000000
0.193359 0.711029 0.000000
0.231018 0.711029 0.000000
0.266571 0.711029 0.000000
0.300812 0.711029 0.000000
0.334198 0.711029 0.000000
0.366943 0.711029 0.000000
0.399231 0.711029 0.000000
0.431183 0.711029 0.000000
0.462891 0.711029 0.000000
0.494354 0.711029 0.000000
0.525635 0.711029 0.000000
0.556763 0.711029 0.000000
0.587799 0.711029 0.000000
0.618713 0.711029 0.000000
0.649567 0.711029 0.000000
0.680328 0.711029 0.000000
0.711029 0.711029 0.000000
0.741669 0.711029 0.000000
0.772247 0.711029 0.000000
0.802826 0.711029 0.000000
0.833344 0.711029 0.000000
0.863831 0.711029 0.000000
0.894287 0.711029 0.000000
0.924713 0.711029 0.000000
0.000000 0.741669 0.000000
0.000000 0.741669 0.000000
0.000000 0.741669 0.000000
0.000000 0.741669 0.000000
0.000000 0.741669 0.000000
0.000000 0.741669 0.000000
0.101166 0.741669 0.000000
0.151855 0.741669 0.000000
0.193359 0.741669 0.000000
0.231018 0.741669 0.000000
0.266571 0.741669 0.000000
0.300812 0.741669 0.000000
0.334198 0.741669 0.000000
0.366943 0.741669 0.000000
0.399231 0.741669 0.000000
0.431183 0.741669 0.000000
0.462891 0.741669 0.000000
0.494354 0.741669 0.000000
0.525635 0.741669 0.000000
0.556763 0.741669 0.000000
0.587799 0.741669 0.000000
0.618713 0.741669 0.000000
0.649567 0.741669 0.000000
0.680328 0.741669 0.000000
0.711029 0.741669 0.000000
0.741669 0.741669 0.000000
0.772247 0.741669 0.000000
0.802826 0.741669 0.000000
0.833344 0.741669 0.000000
0.863831 0.741669 0.000000
0.894287 0.741669 0.000000
0.924713 0.741669 0.000000
0.000000 0.772247 0.000000
0.000000 0.772247 0.000000
0.000000 0.772247 0.000000
0.000000 0.772247 0.000000
0.000000 0.772247 0.000000
0.000000 0.772247 0.000000
0.101166 0.772247 0.000000
0.151855 0.772247 0.000000
0.193359 0.772247 0.000000
0.231018 0.772247 0.000000
0.266571 0.772247 0.000000
0.300812 0.772247 0.000000
0.334198 0.772247 0.000000
0.366943 0.772247 0.000000
0.399231 0.772247 0.000000
0.431183 0.772247 0.000000
0.462891 0.772247 0.000000
0.494354 0.772247 0.000000
0.525635 0.772247 0.000000
0.556763 0.772247 0.000000
0.587799 0.772247 0.000000
0.618713 0.772247 0.000000
0.649567 0.772247 0.000000
0.680328 0.772247 0.000000
0.711029 0.772247 0.000000
0.741669 0.772247 0.000000
0.772247 0.772247 0.000000
0.802826 0.772247 0.000000
0.833344 0.772247 0.000000
0.863831 0.772247 0.000000
0.894287 0.772247 0.000000
0.924713 0.772247 0.000000
0.000000 0.802826 0.000000
0.000000 0.802826 0.000000
0.000000 0.802826 0.000000
0.000000 0.802826 0.000000
0.000000 0.802826 0.000000
0.000000 0.802826 0.000000
0.101166 0.802826 0.000000
0.151855 0.802826 0.000000
0.193359 0.802826 0.000000
0.231018 0.802826 0.000000
0.266571 0.802826 0.000000
0.300812 0.802826 0.000000
0.334198 0.802826 0.000000
0.366943 0.802826 0.000000
0.399231 0.802826 0.000000
0.431183 0.802826 0.000000
0.462891 0.802826 0.000000
