dist/luts/SWIFTI CRB 1300 - 2-Large.CUBE
#Created by: Adobe Photoshop Export Color Lookup Plugin
TITLE "SWIFTI CRB 1300 - 2-Large.psd"
#LUT size
LUT_3D_SIZE 8
#data domain
#LUT data points
DOMAIN_MIN 0.000000 0.000000 0.000000
DOMAIN_MAX 0.903226 0.903226 0.903226
0.000000 0.000000 0.000000
0.000000 0.000000 0.000000
0.193359 0.000000 0.000000
0.334198 0.000000 0.000000
0.462891 0.000000 0.000000
0.587799 0.000000 0.000000
0.711029 0.000000 0.000000
0.833344 0.000000 0.000000
0.000000 0.000000 0.000000
0.000000 0.000000 0.000000
0.193359 0.000000 0.000000
0.334198 0.000000 0.000000
0.462891 0.000000 0.000000
0.587799 0.000000 0.000000
0.711029 0.000000 0.000000
0.833344 0.000000 0.000000
0.000000 0.193359 0.000000
0.000000 0.193359 0.000000
0.193359 0.193359 0.000000
0.334198 0.193359 0.000000
0.462891 0.193359 0.000000
0.587799 0.193359 0.000000
0.711029 0.193359 0.000000
0.833344 0.193359 0.000000
0.000000 0.334198 0.000000
0.000000 0.334198 0.000000
0.193359 0.334198 0.000000
0.334198 0.334198 0.000000
0.462891 0.334198 0.000000
0.587799 0.334198 0.000000
0.711029 0.334198 0.000000
0.833344 0.334198 0.000000
0.000000 0.462891 0.000000
0.000000 0.462891 0.000000
0.193359 0.462891 0.000000
0.334198 0.462891 0.000000
0.462891 0.462891 0.000000
0.587799 0.462891 0.000000
0.711029 0.462891 0.000000
0.833344 0.462891 0.000000
0.000000 0.587799 0.000000
0.000000 0.587799 0.000000
0.193359 0.587799 0.000000
0.334198 0.587799 0.000000
0.462891 0.587799 0.000000
0.587799 0.587799 0.000000
0.711029 0.587799 0.000000
0.833344 0.587799 0.000000
0.000000 0.711029 0.000000
0.000000 0.711029 0.000000
0.193359 0.711029 0.000000
0.334198 0.711029 0.000000
0.462891 0.711029 0.000000
0.587799 0.711029 0.000000
0.711029 0.711029 0.000000
0.833344 0.711029 0.000000
0.000000 0.833344 0.000000
0.000000 0.833344 0.000000
0.193359 0.833344 0.000000
0.334198 0.833344 0.000000
0.462891 0.833344 0.000000
0.587799 0.833344 0.000000
0.711029 0.833344 0.000000
0.833344 0.833344 0.000000
0.000000 0.000000 0.000000
0.000000 0.000000 0.000000
0.193359 0.000000 0.000000
0.334198 0.000000 0.000000
0.462891 0.000000 0.000000
0.587799 0.000000 0.000000
0.711029 0.000000 0.000000
0.833344 0.000000 0.000000
0.000000 0.000000 0.000000
0.000000 0.000000 0.000000
0.193359 0.000000 0.000000
0.334198 0.000000 0.000000
0.462891 0.000000 0.000000
0.587799 0.000000 0.000000
0.711029 0.000000 0.000000
0.833344 0.000000 0.000000
0.000000 0.193359 0.000000
0.000000 0.193359 0.000000
0.193359 0.193359 0.000000
0.334198 0.193359 0.000000
0.462891 0.193359 0.000000
0.587799 0.193359 0.000000
0.711029 0.193359 0.000000
0.833344 0.193359 0.000000
0.000000 0.334198 0.000000
0.000000 0.334198 0.000000
0.193359 0.334198 0.000000
0.334198 0.334198 0.000000
0.462891 0.334198 0.000000
0.587799 0.334198 0.000000
0.711029 0.334198 0.000000
0.833344 0.334198 0.000000
0.000000 0.462891 0.000000
0.000000 0.462891 0.000000
0.193359 0.462891 0.000000
0.334198 0.462891 0.000000
0.462891 0.462891 0.000000
0.587799 0.462891 0.000000
0.711029 0.462891 0.000000
0.833344 0.462891 0.000000
0.000000 0.587799 0.000000
0.000000 0.587799 0.000000
0.193359 0.587799 0.000000
0.334198 0.587799 0.000000
0.462891 0.587799 0.000000
0.587799 0.587799 0.000000
0.711029 0.587799 0.000000
0.833344 0.587799 0.000000
0.000000 0.711029 0.000000
0.000000 0.711029 0.000000
0.193359 0.711029 0.000000
0.334198 0.711029 0.000000
0.462891 0.711029 0.000000
0.587799 0.711029 0.000000
0.711029 0.711029 0.000000
0.833344 0.711029 0.000000
0.000000 0.833344 0.000000
0.000000 0.833344 0.000000
0.193359 0.833344 0.000000
0.334198 0.833344 0.000000
0.462891 0.833344 0.000000
0.587799 0.833344 0.000000
0.711029 0.833344 0.000000
0.833344 0.833344 0.000000
0.000000 0.000000 0.193359
0.000000 0.000000 0.193359
0.193359 0.000000 0.193359
0.334198 0.000000 0.193359
0.462891 0.000000 0.193359
0.587799 0.000000 0.193359
0.711029 0.000000 0.193359
0.833344 0.000000 0.193359
0.000000 0.000000 0.193359
0.000000 0.000000 0.193359
0.193359 0.000000 0.193359
0.334198 0.000000 0.193359
0.462891 0.000000 0.193359
0.587799 0.000000 0.193359
0.711029 0.000000 0.193359
0.833344 0.000000 0.193359
0.000000 0.193359 0.193359
0.000000 0.193359 0.193359
0.193359 0.193359 0.193359
0.334198 0.193359 0.193359
0.462891 0.193359 0.193359
0.587799 0.193359 0.193359
0.711029 0.193359 0.193359
0.833344 0.193359 0.193359
0.000000 0.334198 0.193359
0.000000 0.334198 0.193359
0.193359 0.334198 0.193359
0.334198 0.334198 0.193359
0.462891 0.334198 0.193359
0.587799 0.334198 0.193359
0.711029 0.334198 0.193359
0.833344 0.334198 0.193359
0.000000 0.462891 0.193359
0.000000 0.462891 0.193359
0.193359 0.462891 0.193359
0.334198 0.462891 0.193359
0.462891 0.462891 0.193359
0.587799 0.462891 0.193359
0.711029 0.462891 0.193359
0.833344 0.462891 0.193359
0.000000 0.587799 0.193359
0.000000 0.587799 0.193359
0.193359 0.587799 0.193359
0.334198 0.587799 0.193359
0.462891 0.587799 0.193359
0.587799 0.587799 0.193359
0.711029 0.587799 0.193359
0.833344 0.587799 0.193359
0.000000 0.711029 0.193359
0.000000 0.711029 0.193359
0.193359 0.711029 0.193359
0.334198 0.711029 0.193359
0.462891 0.711029 0.193359
0.587799 0.711029 0.193359
0.711029 0.711029 0.193359
0.833344 0.711029 0.193359
0.000000 0.833344 0.193359
0.000000 0.833344 0.193359
0.193359 0.833344 0.193359
0.334198 0.833344 0.193359
0.462891 0.833344 0.193359
0.587799 0.833344 0.193359
0.711029 0.833344 0.193359
0.833344 0.833344 0.193359
0.000000 0.000000 0.334198
0.000000 0.000000 0.334198
0.193359 0.000000 0.334198
0.334198 0.000000 0.334198
0.462891 0.000000 0.334198
0.587799 0.000000 0.334198
0.711029 0.000000 0.334198
0.833344 0.000000 0.334198
0.000000 0.000000 0.334198
0.000000 0.000000 0.334198
0.193359 0.000000 0.334198
0.334198 0.000000 0.334198
0.462891 0.000000 0.334198
0.587799 0.000000 0.334198
0.711029 0.000000 0.334198
0.833344 0.000000 0.334198
0.000000 0.193359 0.334198
0.000000 0.193359 0.334198
0.193359 0.193359 0.334198
0.334198 0.193359 0.334198
0.462891 0.193359 0.334198
0.587799 0.193359 0.334198
0.711029 0.193359 0.334198
0.833344 0.193359 0.334198
0.000000 0.334198 0.334198
0.000000 0.334198 0.334198
0.193359 0.334198 0.334198
0.334198 0.334198 0.334198
0.462891 0.334198 0.334198
0.587799 0.334198 0.334198
0.711029 0.334198 0.334198
0.833344 0.334198 0.334198
0.000000 0.462891 0.334198
0.000000 0.462891 0.334198
0.193359 0.462891 0.334198
0.334198 0.462891 0.334198
0.462891 0.462891 0.334198
0.587799 0.462891 0.334198
0.711029 0.462891 0.334198
0.833344 0.462891 0.334198
0.000000 0.587799 0.334198
0.000000 0.587799 0.334198
0.193359 0.587799 0.334198
0.334198 0.587799 0.334198
0.462891 0.587799 0.334198
0.587799 0.587799 0.334198
0.711029 0.587799 0.334198
0.833344 0.587799 0.334198
0.000000 0.711029 0.334198
0.000000 0.711029 0.334198
0.193359 0.711029 0.334198
0.334198 0.711029 0.334198
0.462891 0.711029 0.334198
0.587799 0.711029 0.334198
0.711029 0.711029 0.334198
0.833344 0.711029 0.334198
0.000000 0.833344 0.334198
0.000000 0.833344 0.334198
0.193359 0.833344 0.334198
0.334198 0.833344 0.334198
0.462891 0.833344 0.334198
0.587799 0.833344 0.334198
0.711029 0.833344 0.334198
0.833344 0.833344 0.334198
0.000000 0.000000 0.462891
0.000000 0.000000 0.462891
0.193359 0.000000 0.462891
0.334198 0.000000 0.462891
0.462891 0.000000 0.462891
0.587799 0.000000 0.462891
0.711029 0.000000 0.462891
0.833344 0.000000 0.462891
0.000000 0.000000 0.462891
0.000000 0.000000 0.462891
0.193359 0.000000 0.462891
0.334198 0.000000 0.462891
0.462891 0.000000 0.462891
0.587799 0.000000 0.462891
0.711029 0.000000 0.462891
0.833344 0.000000 0.462891
0.000000 0.193359 0.462891
0.000000 0.193359 0.462891
0.193359 0.193359 0.462891
0.334198 0.193359 0.462891
0.462891 0.193359 0.462891
0.587799 0.193359 0.462891
0.711029 0.193359 0.462891
0.833344 0.193359 0.462891
0.000000 0.334198 0.462891
0.000000 0.334198 0.462891
0.193359 0.334198 0.462891
0.334198 0.334198 0.462891
0.462891 0.334198 0.462891
0.587799 0.334198 0.462891
0.711029 0.334198 0.462891
0.833344 0.334198 0.462891
0.000000 0.462891 0.462891
0.000000 0.462891 0.462891
0.193359 0.462891 0.462891
0.334198 0.462891 0.462891
0.462891 0.462891 0.462891
0.587799 0.462891 0.462891
0.711029 0.462891 0.462891
0.833344 0.462891 0.462891
0.000000 0.587799 0.462891
0.000000 0.587799 0.462891
0.193359 0.587799 0.462891
0.334198 0.587799 0.462891
0.462891 0.587799 0.462891
0.587799 0.587799 0.462891
0.711029 0.587799 0.462891
0.833344 0.587799 0.462891
0.000000 0.711029 0.462891
0.000000 0.711029 0.462891
0.193359 0.711029 0.462891
0.334198 0.711029 0.462891
0.462891 0.711029 0.462891
0.587799 0.711029 0.462891
0.711029 0.711029 0.462891
0.833344 0.711029 0.462891
0.000000 0.833344 0.462891
0.000000 0.833344 0.462891
0.193359 0.833344 0.462891
0.334198 0.833344 0.462891
0.462891 0.833344 0.462891
0.587799 0.833344 0.462891
0.711029 0.833344 0.462891
0.833344 0.833344 0.462891
0.000000 0.000000 0.587799
0.000000 0.000000 0.587799
0.193359 0.000000 0.587799
0.334198 0.000000 0.587799
0.462891 0.000000 0.587799
0.587799 0.000000 0.587799
0.711029 0.000000 0.587799
0.833344 0.000000 0.587799
0.000000 0.000000 0.587799
0.000000 0.000000 0.587799
0.193359 0.000000 0.587799
0.334198 0.000000 0.587799
0.462891 0.000000 0.587799
0.587799 0.000000 0.587799
0.711029 0.000000 0.587799
0.833344 0.000000 0.587799
0.000000 0.193359 0.587799
0.000000 0.193359 0.587799
0.193359 0.193359 0.587799
0.334198 0.193359 0.587799
0.462891 0.193359 0.587799
0.587799 0.193359 0.587799
0.711029 0.193359 0.587799
0.833344 0.193359 0.587799
0.000000 0.334198 0.587799
0.000000 0.334198 0.587799
0.193359 0.334198 0.587799
0.334198 0.334198 0.587799
0.462891 0.334198 0.587799
0.587799 0.334198 0.587799
0.711029 0.334198 0.587799
0.833344 0.334198 0.587799
0.000000 0.462891 0.587799
0.000000 0.462891 0.587799
0.193359 0.462891 0.587799
0.334198 0.462891 0.587799
0.462891 0.462891 0.587799
0.587799 0.462891 0.587799
0.711029 0.462891 0.587799
0.833344 0.462891 0.587799
0.000000 0.587799 0.587799
0.000000 0.587799 0.587799
0.193359 0.587799 0.587799
0.334198 0.587799 0.587799
0.462891 0.587799 0.587799
0.587799 0.587799 0.587799
0.711029 0.587799 0.587799
0.833344 0.587799 0.587799
0.000000 0.711029 0.587799
0.000000 0.711029 0.587799
0.193359 0.711029 0.587799
0.334198 0.711029 0.587799
0.462891 0.711029 0.587799
0.587799 0.711029 0.587799
0.711029 0.711029 0.587799
0.833344 0.711029 0.587799
0.000000 0.833344 0.587799
0.000000 0.833344 0.587799
0.193359 0.833344 0.587799
0.334198 0.833344 0.587799
0.462891 0.833344 0.587799
0.587799 0.833344 0.587799
0.711029 0.833344 0.587799
0.833344 0.833344 0.587799
0.000000 0.000000 0.711029
0.000000 0.000000 0.711029
0.193359 0.000000 0.711029
0.334198 0.000000 0.711029
0.462891 0.000000 0.711029
0.587799 0.000000 0.711029
0.711029 0.000000 0.711029
0.833344 0.000000 0.711029
0.000000 0.000000 0.711029
0.000000 0.000000 0.711029
0.193359 0.000000 0.711029
0.334198 0.000000 0.711029
0.462891 0.000000 0.711029
0.587799 0.000000 0.711029
0.711029 0.000000 0.711029
0.833344 0.000000 0.711029
0.000000 0.193359 0.711029
0.000000 0.193359 0.711029
0.193359 0.193359 0.711029
0.334198 0.193359 0.711029
0.462891 0.193359 0.711029
0.587799 0.193359 0.711029
0.711029 0.193359 0.711029
0.833344 0.193359 0.711029
0.000000 0.334198 0.711029
0.000000 0.334198 0.711029
0.193359 0.334198 0.711029
0.334198 0.334198 0.711029
0.462891 0.334198 0.711029
0.587799 0.334198 0.711029
0.711029 0.334198 0.711029
0.833344 0.334198 0.711029
0.000000 0.462891 0.711029
0.000000 0.462891 0.711029
0.193359 0.462891 0.711029
0.334198 0.462891 0.711029
0.462891 0.462891 0.711029
0.587799 0.462891 0.711029
0.711029 0.462891 0.711029
0.833344 0.462891 0.711029
0.000000 0.587799 0.711029
0.000000 0.587799 0.711029
0.193359 0.587799 0.711029
0.334198 0.587799 0.711029
0.462891 0.587799 0.711029
0.587799 0.587799 0.711029
0.711029 0.587799 0.711029
0.833344 0.587799 0.711029
0.000000 0.711029 0.711029
0.000000 0.711029 0.711029
0.193359 0.711029 0.711029
0.334198 0.711029 0.711029
0.462891 0.711029 0.711029
0.587799 0.711029 0.711029
0.711029 0.711029 0.711029
0.833344 0.711029 0.711029
0.000000 0.833344 0.711029
0.000000 0.833344 0.711029
0.193359 0.833344 0.711029
0.334198 0.833344 0.711029
0.462891 0.833344 0.711029
0.587799 0.833344 0.711029
0.711029 0.833344 0.711029
0.833344 0.833344 0.711029
0.000000 0.000000 0.833344
0.000000 0.000000 0.833344
0.193359 0.000000 0.833344
0.334198 0.000000 0.833344
0.462891 0.000000 0.833344
0.587799 0.000000 0.833344
0.711029 0.000000 0.833344
0.833344 0.000000 0.833344
0.000000 0.000000 0.833344
0.000000 0.000000 0.833344
0.193359 0.000000 0.833344
0.334198 0.000000 0.833344
0.462891 0.000000 0.833344
0.587799 0.000000 0.833344
0.711029 0.000000 0.833344
0.833344 0.000000 0.833344
0.000000 0.193359 0.833344
0.000000 0.193359 0.833344
0.193359 0.193359 0.833344
0.334198 0.193359 0.833344
0.462891 0.193359 0.833344
0.587799 0.193359 0.833344
0.711029 0.193359 0.833344
0.833344 0.193359 0.833344
0.000000 0.334198 0.833344
0.000000 0.334198 0.833344
0.193359 0.334198 0.833344
0.334198 0.334198 0.833344
0.462891 0.334198 0.833344
0.587799 0.334198 0.833344
0.711029 0.334198 0.833344
0.833344 0.334198 0.833344
0.000000 0.462891 0.833344
0.000000 0.462891 0.833344
0.193359 0.462891 0.833344
0.334198 0.462891 0.833344
0.462891 0.462891 0.833344
0.587799 0.462891 0.833344
0.711029 0.462891 0.833344
0.833344 0.462891 0.833344
0.000000 0.587799 0.833344
0.000000 0.587799 0.833344
0.193359 0.587799 0.833344
0.334198 0.587799 0.833344
0.462891 0.587799 0.833344
0.587799 0.587799 0.833344
0.711029 0.587799 0.833344
0.833344 0.587799 0.833344
0.000000 0.711029 0.833344
0.000000 0.711029 0.833344
0.193359 0.711029 0.833344
0.334198 0.711029 0.833344
0.462891 0.711029 0.833344
0.587799 0.711029 0.833344
0.711029 0.711029 0.833344
0.833344 0.711029 0.833344
0.000000 0.833344 0.833344
0.000000 0.833344 0.833344
0.193359 0.833344 0.833344
0.334198 0.833344 0.833344
0.462891 0.833344 0.833344
0.587799 0.833344 0.833344
0.711029 0.833344 0.833344
0.833344 0.833344 0.833344
