public/luts/ABB EB CLAIRE R&D 10-1.CUBE
#Created by: Adobe Photoshop Export Color Lookup Plugin
TITLE "ABB EB CLAIRE R&D 10-1.psd"
#LUT size
LUT_3D_SIZE 8
#data domain
#LUT data points
DOMAIN_MIN 0.000000 0.000000 0.000000
DOMAIN_MAX 0.903226 0.903226 0.903226
0.000000 0.000000 0.000000
0.144897 0.000000 0.000000
0.278625 0.000000 0.000000
0.408447 0.000000 0.000000
0.535828 0.000000 0.000000
0.661377 0.000000 0.000000
0.785492 0.000000 0.000000
0.908447 0.000000 0.000000
0.000000 0.113220 0.000000
0.144897 0.113220 0.000000
0.278625 0.113220 0.000000
0.408447 0.113220 0.000000
0.535828 0.113220 0.000000
0.661377 0.113220 0.000000
0.785492 0.113220 0.000000
0.908447 0.113220 0.000000
0.000000 0.236694 0.000000
0.144897 0.236694 0.000000
0.278625 0.236694 0.000000
0.408447 0.236694 0.000000
0.535828 0.236694 0.000000
0.661377 0.236694 0.000000
0.785492 0.236694 0.000000
0.908447 0.236694 0.000000
0.000000 0.364319 0.000000
0.144897 0.364319 0.000000
0.278625 0.364319 0.000000
0.408447 0.364319 0.000000
0.535828 0.364319 0.000000
0.661377 0.364319 0.000000
0.785492 0.364319 0.000000
0.908447 0.364319 0.000000
0.000000 0.494812 0.000000
0.144897 0.494812 0.000000
0.278625 0.494812 0.000000
0.408447 0.494812 0.000000
0.535828 0.494812 0.000000
0.661377 0.494812 0.000000
0.785492 0.494812 0.000000
0.908447 0.494812 0.000000
0.000000 0.627380 0.000000
0.144897 0.627380 0.000000
0.278625 0.627380 0.000000
0.408447 0.627380 0.000000
0.535828 0.627380 0.000000
0.661377 0.627380 0.000000
0.785492 0.627380 0.000000
0.908447 0.627380 0.000000
0.000000 0.761658 0.000000
0.144897 0.761658 0.000000
0.278625 0.761658 0.000000
0.408447 0.761658 0.000000
0.535828 0.761658 0.000000
0.661377 0.761658 0.000000
0.785492 0.761658 0.000000
0.908447 0.761658 0.000000
0.000000 0.897400 0.000000
0.144897 0.897400 0.000000
0.278625 0.897400 0.000000
0.408447 0.897400 0.000000
0.535828 0.897400 0.000000
0.661377 0.897400 0.000000
0.785492 0.897400 0.000000
0.908447 0.897400 0.000000
0.000000 0.000000 0.131683
0.144897 0.000000 0.131683
0.278625 0.000000 0.131683
0.408447 0.000000 0.131683
0.535828 0.000000 0.131683
0.661377 0.000000 0.131683
0.785492 0.000000 0.131683
0.908447 0.000000 0.131683
0.000000 0.113220 0.131683
0.144897 0.113220 0.131683
0.278625 0.113220 0.131683
0.408447 0.113220 0.131683
0.535828 0.113220 0.131683
0.661377 0.113220 0.131683
0.785492 0.113220 0.131683
0.908447 0.113220 0.131683
0.000000 0.236694 0.131683
0.144897 0.236694 0.131683
0.278625 0.236694 0.131683
0.408447 0.236694 0.131683
0.535828 0.236694 0.131683
0.661377 0.236694 0.131683
0.785492 0.236694 0.131683
0.908447 0.236694 0.131683
0.000000 0.364319 0.131683
0.144897 0.364319 0.131683
0.278625 0.364319 0.131683
0.408447 0.364319 0.131683
0.535828 0.364319 0.131683
0.661377 0.364319 0.131683
0.785492 0.364319 0.131683
0.908447 0.364319 0.131683
0.000000 0.494812 0.131683
0.144897 0.494812 0.131683
0.278625 0.494812 0.131683
0.408447 0.494812 0.131683
0.535828 0.494812 0.131683
0.661377 0.494812 0.131683
0.785492 0.494812 0.131683
0.908447 0.494812 0.131683
0.000000 0.627380 0.131683
0.144897 0.627380 0.131683
0.278625 0.627380 0.131683
0.408447 0.627380 0.131683
0.535828 0.627380 0.131683
0.661377 0.627380 0.131683
0.785492 0.627380 0.131683
0.908447 0.627380 0.131683
0.000000 0.761658 0.131683
0.144897 0.761658 0.131683
0.278625 0.761658 0.131683
0.408447 0.761658 0.131683
0.535828 0.761658 0.131683
0.661377 0.761658 0.131683
0.785492 0.761658 0.131683
0.908447 0.761658 0.131683
0.000000 0.897400 0.131683
0.144897 0.897400 0.131683
0.278625 0.897400 0.131683
0.408447 0.897400 0.131683
0.535828 0.897400 0.131683
0.661377 0.897400 0.131683
0.785492 0.897400 0.131683
0.908447 0.897400 0.131683
0.000000 0.000000 0.261536
0.144897 0.000000 0.261536
0.278625 0.000000 0.261536
0.408447 0.000000 0.261536
0.535828 0.000000 0.261536
0.661377 0.000000 0.261536
0.785492 0.000000 0.261536
0.908447 0.000000 0.261536
0.000000 0.113220 0.261536
0.144897 0.113220 0.261536
0.278625 0.113220 0.261536
0.408447 0.113220 0.261536
0.535828 0.113220 0.261536
0.661377 0.113220 0.261536
0.785492 0.113220 0.261536
0.908447 0.113220 0.261536
0.000000 0.236694 0.261536
0.144897 0.236694 0.261536
0.278625 0.236694 0.261536
0.408447 0.236694 0.261536
0.535828 0.236694 0.261536
0.661377 0.236694 0.261536
0.785492 0.236694 0.261536
0.908447 0.236694 0.261536
0.000000 0.364319 0.261536
0.144897 0.364319 0.261536
0.278625 0.364319 0.261536
0.408447 0.364319 0.261536
0.535828 0.364319 0.261536
0.661377 0.364319 0.261536
0.785492 0.364319 0.261536
0.908447 0.364319 0.261536
0.000000 0.494812 0.261536
0.144897 0.494812 0.261536
0.278625 0.494812 0.261536
0.408447 0.494812 0.261536
0.535828 0.494812 0.261536
0.661377 0.494812 0.261536
0.785492 0.494812 0.261536
0.908447 0.494812 0.261536
0.000000 0.627380 0.261536
0.144897 0.627380 0.261536
0.278625 0.627380 0.261536
0.408447 0.627380 0.261536
0.535828 0.627380 0.261536
0.661377 0.627380 0.261536
0.785492 0.627380 0.261536
0.908447 0.627380 0.261536
0.000000 0.761658 0.261536
0.144897 0.761658 0.261536
0.278625 0.761658 0.261536
0.408447 0.761658 0.261536
0.535828 0.761658 0.261536
0.661377 0.761658 0.261536
0.785492 0.761658 0.261536
0.908447 0.761658 0.261536
0.000000 0.897400 0.261536
0.144897 0.897400 0.261536
0.278625 0.897400 0.261536
0.408447 0.897400 0.261536
0.535828 0.897400 0.261536
0.661377 0.897400 0.261536
0.785492 0.897400 0.261536
0.908447 0.897400 0.261536
0.000000 0.000000 0.390747
0.144897 0.000000 0.390747
0.278625 0.000000 0.390747
0.408447 0.000000 0.390747
0.535828 0.000000 0.390747
0.661377 0.000000 0.390747
0.785492 0.000000 0.390747
0.908447 0.000000 0.390747
0.000000 0.113220 0.390747
0.144897 0.113220 0.390747
0.278625 0.113220 0.390747
0.408447 0.113220 0.390747
0.535828 0.113220 0.390747
0.661377 0.113220 0.390747
0.785492 0.113220 0.390747
0.908447 0.113220 0.390747
0.000000 0.236694 0.390747
0.144897 0.236694 0.390747
0.278625 0.236694 0.390747
0.408447 0.236694 0.390747
0.535828 0.236694 0.390747
0.661377 0.236694 0.390747
0.785492 0.236694 0.390747
0.908447 0.236694 0.390747
0.000000 0.364319 0.390747
0.144897 0.364319 0.390747
0.278625 0.364319 0.390747
0.408447 0.364319 0.390747
0.535828 0.364319 0.390747
0.661377 0.364319 0.390747
0.785492 0.364319 0.390747
0.908447 0.364319 0.390747
0.000000 0.494812 0.390747
0.144897 0.494812 0.390747
0.278625 0.494812 0.390747
0.408447 0.494812 0.390747
0.535828 0.494812 0.390747
0.661377 0.494812 0.390747
0.785492 0.494812 0.390747
0.908447 0.494812 0.390747
0.000000 0.627380 0.390747
0.144897 0.627380 0.390747
0.278625 0.627380 0.390747
0.408447 0.627380 0.390747
0.535828 0.627380 0.390747
0.661377 0.627380 0.390747
0.785492 0.627380 0.390747
0.908447 0.627380 0.390747
0.000000 0.761658 0.390747
0.144897 0.761658 0.390747
0.278625 0.761658 0.390747
0.408447 0.761658 0.390747
0.535828 0.761658 0.390747
0.661377 0.761658 0.390747
0.785492 0.761658 0.390747
0.908447 0.761658 0.390747
0.000000 0.897400 0.390747
0.144897 0.897400 0.390747
0.278625 0.897400 0.390747
0.408447 0.897400 0.390747
0.535828 0.897400 0.390747
0.661377 0.897400 0.390747
0.785492 0.897400 0.390747
0.908447 0.897400 0.390747
0.000000 0.000000 0.519531
0.144897 0.000000 0.519531
0.278625 0.000000 0.519531
0.408447 0.000000 0.519531
0.535828 0.000000 0.519531
0.661377 0.000000 0.519531
0.785492 0.000000 0.519531
0.908447 0.000000 0.519531
0.000000 0.113220 0.519531
0.144897 0.113220 0.519531
0.278625 0.113220 0.519531
0.408447 0.113220 0.519531
0.535828 0.113220 0.519531
0.661377 0.113220 0.519531
0.785492 0.113220 0.519531
0.908447 0.113220 0.519531
0.000000 0.236694 0.519531
0.144897 0.236694 0.519531
0.278625 0.236694 0.519531
0.408447 0.236694 0.519531
0.535828 0.236694 0.519531
0.661377 0.236694 0.519531
0.785492 0.236694 0.519531
0.908447 0.236694 0.519531
0.000000 0.364319 0.519531
0.144897 0.364319 0.519531
0.278625 0.364319 0.519531
0.408447 0.364319 0.519531
0.535828 0.364319 0.519531
0.661377 0.364319 0.519531
0.785492 0.364319 0.519531
0.908447 0.364319 0.519531
0.000000 0.494812 0.519531
0.144897 0.494812 0.519531
0.278625 0.494812 0.519531
0.408447 0.494812 0.519531
0.535828 0.494812 0.519531
0.661377 0.494812 0.519531
0.785492 0.494812 0.519531
0.908447 0.494812 0.519531
0.000000 0.627380 0.519531
0.144897 0.627380 0.519531
0.278625 0.627380 0.519531
0.408447 0.627380 0.519531
0.535828 0.627380 0.519531
0.661377 0.627380 0.519531
0.785492 0.627380 0.519531
0.908447 0.627380 0.519531
0.000000 0.761658 0.519531
0.144897 0.761658 0.519531
0.278625 0.761658 0.519531
0.408447 0.761658 0.519531
0.535828 0.761658 0.519531
0.661377 0.761658 0.519531
0.785492 0.761658 0.519531
0.908447 0.761658 0.519531
0.000000 0.897400 0.519531
0.144897 0.897400 0.519531
0.278625 0.897400 0.519531
0.408447 0.897400 0.519531
0.535828 0.897400 0.519531
0.661377 0.897400 0.519531
0.785492 0.897400 0.519531
0.908447 0.897400 0.519531
0.000000 0.000000 0.647980
0.144897 0.000000 0.647980
0.278625 0.000000 0.647980
0.408447 0.000000 0.647980
0.535828 0.000000 0.647980
0.661377 0.000000 0.647980
0.785492 0.000000 0.647980
0.908447 0.000000 0.647980
0.000000 0.113220 0.647980
0.144897 0.113220 0.647980
0.278625 0.113220 0.647980
0.408447 0.113220 0.647980
0.535828 0.113220 0.647980
0.661377 0.113220 0.647980
0.785492 0.113220 0.647980
0.908447 0.113220 0.647980
0.000000 0.236694 0.647980
0.144897 0.236694 0.647980
0.278625 0.236694 0.647980
0.408447 0.236694 0.647980
0.535828 0.236694 0.647980
0.661377 0.236694 0.647980
0.785492 0.236694 0.647980
0.908447 0.236694 0.647980
0.000000 0.364319 0.647980
0.144897 0.364319 0.647980
0.278625 0.364319 0.647980
0.408447 0.364319 0.647980
0.535828 0.364319 0.647980
0.661377 0.364319 0.647980
0.785492 0.364319 0.647980
0.908447 0.364319 0.647980
0.000000 0.494812 0.647980
0.144897 0.494812 0.647980
0.278625 0.494812 0.647980
0.408447 0.494812 0.647980
0.535828 0.494812 0.647980
0.661377 0.494812 0.647980
0.785492 0.494812 0.647980
0.908447 0.494812 0.647980
0.000000 0.627380 0.647980
0.144897 0.627380 0.647980
0.278625 0.627380 0.647980
0.408447 0.627380 0.647980
0.535828 0.627380 0.647980
0.661377 0.627380 0.647980
0.785492 0.627380 0.647980
0.908447 0.627380 0.647980
0.000000 0.761658 0.647980
0.144897 0.761658 0.647980
0.278625 0.761658 0.647980
0.408447 0.761658 0.647980
0.535828 0.761658 0.647980
0.661377 0.761658 0.647980
0.785492 0.761658 0.647980
0.908447 0.761658 0.647980
0.000000 0.897400 0.647980
0.144897 0.897400 0.647980
0.278625 0.897400 0.647980
0.408447 0.897400 0.647980
0.535828 0.897400 0.647980
0.661377 0.897400 0.647980
0.785492 0.897400 0.647980
0.908447 0.897400 0.647980
0.000000 0.000000 0.776154
0.144897 0.000000 0.776154
0.278625 0.000000 0.776154
0.408447 0.000000 0.776154
0.535828 0.000000 0.776154
0.661377 0.000000 0.776154
0.785492 0.000000 0.776154
0.908447 0.000000 0.776154
0.000000 0.113220 0.776154
0.144897 0.113220 0.776154
0.278625 0.113220 0.776154
0.408447 0.113220 0.776154
0.535828 0.113220 0.776154
0.661377 0.113220 0.776154
0.785492 0.113220 0.776154
0.908447 0.113220 0.776154
0.000000 0.236694 0.776154
0.144897 0.236694 0.776154
0.278625 0.236694 0.776154
0.408447 0.236694 0.776154
0.535828 0.236694 0.776154
0.661377 0.236694 0.776154
0.785492 0.236694 0.776154
0.908447 0.236694 0.776154
0.000000 0.364319 0.776154
0.144897 0.364319 0.776154
0.278625 0.364319 0.776154
0.408447 0.364319 0.776154
0.535828 0.364319 0.776154
0.661377 0.364319 0.776154
0.785492 0.364319 0.776154
0.908447 0.364319 0.776154
0.000000 0.494812 0.776154
0.144897 0.494812 0.776154
0.278625 0.494812 0.776154
0.408447 0.494812 0.776154
0.535828 0.494812 0.776154
0.661377 0.494812 0.776154
0.785492 0.494812 0.776154
0.908447 0.494812 0.776154
0.000000 0.627380 0.776154
0.144897 0.627380 0.776154
0.278625 0.627380 0.776154
0.408447 0.627380 0.776154
0.535828 0.627380 0.776154
0.661377 0.627380 0.776154
0.785492 0.627380 0.776154
0.908447 0.627380 0.776154
0.000000 0.761658 0.776154
0.144897 0.761658 0.776154
0.278625 0.761658 0.776154
0.408447 0.761658 0.776154
0.535828 0.761658 0.776154
0.661377 0.761658 0.776154
0.785492 0.761658 0.776154
0.908447 0.761658 0.776154
0.000000 0.897400 0.776154
0.144897 0.897400 0.776154
0.278625 0.897400 0.776154
0.408447 0.897400 0.776154
0.535828 0.897400 0.776154
0.661377 0.897400 0.776154
0.785492 0.897400 0.776154
0.908447 0.897400 0.776154
0.000000 0.000000 0.904144
0.144897 0.000000 0.904144
0.278625 0.000000 0.904144
0.408447 0.000000 0.904144
0.535828 0.000000 0.904144
0.661377 0.000000 0.904144
0.785492 0.000000 0.904144
0.908447 0.000000 0.904144
0.000000 0.113220 0.904144
0.144897 0.113220 0.904144
0.278625 0.113220 0.904144
0.408447 0.113220 0.904144
0.535828 0.113220 0.904144
0.661377 0.113220 0.904144
0.785492 0.113220 0.904144
0.908447 0.113220 0.904144
0.000000 0.236694 0.904144
0.144897 0.236694 0.904144
0.278625 0.236694 0.904144
0.408447 0.236694 0.904144
0.535828 0.236694 0.904144
0.661377 0.236694 0.904144
0.785492 0.236694 0.904144
0.908447 0.236694 0.904144
0.000000 0.364319 0.904144
0.144897 0.364319 0.904144
0.278625 0.364319 0.904144
0.408447 0.364319 0.904144
0.535828 0.364319 0.904144
0.661377 0.364319 0.904144
0.785492 0.364319 0.904144
0.908447 0.364319 0.904144
0.000000 0.494812 0.904144
0.144897 0.494812 0.904144
0.278625 0.494812 0.904144
0.408447 0.494812 0.904144
0.535828 0.494812 0.904144
0.661377 0.494812 0.904144
0.785492 0.494812 0.904144
0.908447 0.494812 0.904144
0.000000 0.627380 0.904144
0.144897 0.627380 0.904144
0.278625 0.627380 0.904144
0.408447 0.627380 0.904144
0.535828 0.627380 0.904144
0.661377 0.627380 0.904144
0.785492 0.627380 0.904144
0.908447 0.627380 0.904144
0.000000 0.761658 0.904144
0.144897 0.761658 0.904144
0.278625 0.761658 0.904144
0.408447 0.761658 0.904144
0.535828 0.761658 0.904144
0.661377 0.761658 0.904144
0.785492 0.761658 0.904144
0.908447 0.761658 0.904144
0.000000 0.897400 0.904144
0.144897 0.897400 0.904144
0.278625 0.897400 0.904144
0.408447 0.897400 0.904144
0.535828 0.897400 0.904144
0.661377 0.897400 0.904144
0.785492 0.897400 0.904144
0.908447 0.897400 0.904144
