public/luts/ABB CRB 15000 New GoFa - 9-Large.CUBE
#Created by: Adobe Photoshop Export Color Lookup Plugin
TITLE "ABB CRB 15000 New GoFa - 9-Large.psd"
#LUT size
LUT_3D_SIZE 32
#data domain
DOMAIN_MIN 0.0 0.0 0.0
DOMAIN_MAX 1.0 1.0 1.0
#LUT data points
0.000000 0.000000 0.000000
0.020203 0.000000 0.000000
0.044403 0.000000 0.000000
0.070374 0.000000 0.000000
0.097595 0.000000 0.000000
0.125763 0.000000 0.000000
0.154694 0.000000 0.000000
0.184326 0.000000 0.000000
0.214539 0.000000 0.000000
0.245270 0.000000 0.000000
0.276459 0.000000 0.000000
0.308075 0.000000 0.000000
0.340088 0.000000 0.000000
0.372467 0.000000 0.000000
0.405212 0.000000 0.000000
0.438263 0.000000 0.000000
0.471619 0.000000 0.000000
0.505249 0.000000 0.000000
0.539154 0.000000 0.000000
0.573334 0.000000 0.000000
0.607758 0.000000 0.000000
0.642395 0.000000 0.000000
0.677277 0.000000 0.000000
0.712341 0.000000 0.000000
0.747650 0.000000 0.000000
0.783142 0.000000 0.000000
0.818817 0.000000 0.000000
0.854736 0.000000 0.000000
0.890778 0.000000 0.000000
0.927032 0.000000 0.000000
0.963440 0.000000 0.000000
1.000000 0.000000 0.000000
0.000000 0.031158 0.000000
0.020203 0.031158 0.000000
0.044403 0.031158 0.000000
0.070374 0.031158 0.000000
0.097595 0.031158 0.000000
0.125763 0.031158 0.000000
0.154694 0.031158 0.000000
0.184326 0.031158 0.000000
0.214539 0.031158 0.000000
0.245270 0.031158 0.000000
0.276459 0.031158 0.000000
0.308075 0.031158 0.000000
0.340088 0.031158 0.000000
0.372467 0.031158 0.000000
0.405212 0.031158 0.000000
0.438263 0.031158 0.000000
0.471619 0.031158 0.000000
0.505249 0.031158 0.000000
0.539154 0.031158 0.000000
0.573334 0.031158 0.000000
0.607758 0.031158 0.000000
0.642395 0.031158 0.000000
0.677277 0.031158 0.000000
0.712341 0.031158 0.000000
0.747650 0.031158 0.000000
0.783142 0.031158 0.000000
0.818817 0.031158 0.000000
0.854736 0.031158 0.000000
0.890778 0.031158 0.000000
0.927032 0.031158 0.000000
0.963440 0.031158 0.000000
1.000000 0.031158 0.000000
0.000000 0.062744 0.000000
0.020203 0.062744 0.000000
0.044403 0.062744 0.000000
0.070374 0.062744 0.000000
0.097595 0.062744 0.000000
0.125763 0.062744 0.000000
0.154694 0.062744 0.000000
0.184326 0.062744 0.000000
0.214539 0.062744 0.000000
0.245270 0.062744 0.000000
0.276459 0.062744 0.000000
0.308075 0.062744 0.000000
0.340088 0.062744 0.000000
0.372467 0.062744 0.000000
0.405212 0.062744 0.000000
0.438263 0.062744 0.000000
0.471619 0.062744 0.000000
0.505249 0.062744 0.000000
0.539154 0.062744 0.000000
0.573334 0.062744 0.000000
0.607758 0.062744 0.000000
0.642395 0.062744 0.000000
0.677277 0.062744 0.000000
0.712341 0.062744 0.000000
0.747650 0.062744 0.000000
0.783142 0.062744 0.000000
0.818817 0.062744 0.000000
0.854736 0.062744 0.000000
0.890778 0.062744 0.000000
0.927032 0.062744 0.000000
0.963440 0.062744 0.000000
1.000000 0.062744 0.000000
0.000000 0.094513 0.000000
0.020203 0.094513 0.000000
0.044403 0.094513 0.000000
0.070374 0.094513 0.000000
0.097595 0.094513 0.000000
0.125763 0.094513 0.000000
0.154694 0.094513 0.000000
0.184326 0.094513 0.000000
0.214539 0.094513 0.000000
0.245270 0.094513 0.000000
0.276459 0.094513 0.000000
0.308075 0.094513 0.000000
0.340088 0.094513 0.000000
0.372467 0.094513 0.000000
0.405212 0.094513 0.000000
0.438263 0.094513 0.000000
0.471619 0.094513 0.000000
0.505249 0.094513 0.000000
0.539154 0.094513 0.000000
0.573334 0.094513 0.000000
0.607758 0.094513 0.000000
0.642395 0.094513 0.000000
0.677277 0.094513 0.000000
0.712341 0.094513 0.000000
0.747650 0.094513 0.000000
0.783142 0.094513 0.000000
0.818817 0.094513 0.000000
0.854736 0.094513 0.000000
0.890778 0.094513 0.000000
0.927032 0.094513 0.000000
0.963440 0.094513 0.000000
1.000000 0.094513 0.000000
0.000000 0.126373 0.000000
0.020203 0.126373 0.000000
0.044403 0.126373 0.000000
0.070374 0.126373 0.000000
0.097595 0.126373 0.000000
0.125763 0.126373 0.000000
0.154694 0.126373 0.000000
0.184326 0.126373 0.000000
0.214539 0.126373 0.000000
0.245270 0.126373 0.000000
0.276459 0.126373 0.000000
0.308075 0.126373 0.000000
0.340088 0.126373 0.000000
0.372467 0.126373 0.000000
0.405212 0.126373 0.000000
0.438263 0.126373 0.000000
0.471619 0.126373 0.000000
0.505249 0.126373 0.000000
0.539154 0.126373 0.000000
0.573334 0.126373 0.000000
0.607758 0.126373 0.000000
0.642395 0.126373 0.000000
0.677277 0.126373 0.000000
0.712341 0.126373 0.000000
0.747650 0.126373 0.000000
0.783142 0.126373 0.000000
0.818817 0.126373 0.000000
0.854736 0.126373 0.000000
0.890778 0.126373 0.000000
0.927032 0.126373 0.000000
0.963440 0.126373 0.000000
1.000000 0.126373 0.000000
0.000000 0.158325 0.000000
0.020203 0.158325 0.000000
0.044403 0.158325 0.000000
0.070374 0.158325 0.000000
0.097595 0.158325 0.000000
0.125763 0.158325 0.000000
0.154694 0.158325 0.000000
0.184326 0.158325 0.000000
0.214539 0.158325 0.000000
0.245270 0.158325 0.000000
0.276459 0.158325 0.000000
0.308075 0.158325 0.000000
0.340088 0.158325 0.000000
0.372467 0.158325 0.000000
0.405212 0.158325 0.000000
0.438263 0.158325 0.000000
0.471619 0.158325 0.000000
0.505249 0.158325 0.000000
0.539154 0.158325 0.000000
0.573334 0.158325 0.000000
0.607758 0.158325 0.000000
0.642395 0.158325 0.000000
0.677277 0.158325 0.000000
0.712341 0.158325 0.000000
0.747650 0.158325 0.000000
0.783142 0.158325 0.000000
0.818817 0.158325 0.000000
0.854736 0.158325 0.000000
0.890778 0.158325 0.000000
0.927032 0.158325 0.000000
0.963440 0.158325 0.000000
1.000000 0.158325 0.000000
0.000000 0.190369 0.000000
0.020203 0.190369 0.000000
0.044403 0.190369 0.000000
0.070374 0.190369 0.000000
0.097595 0.190369 0.000000
0.125763 0.190369 0.000000
0.154694 0.190369 0.000000
0.184326 0.190369 0.000000
0.214539 0.190369 0.000000
0.245270 0.190369 0.000000
0.276459 0.190369 0.000000
0.308075 0.190369 0.000000
0.340088 0.190369 0.000000
0.372467 0.190369 0.000000
0.405212 0.190369 0.000000
0.438263 0.190369 0.000000
0.471619 0.190369 0.000000
0.505249 0.190369 0.000000
0.539154 0.190369 0.000000
0.573334 0.190369 0.000000
0.607758 0.190369 0.000000
0.642395 0.190369 0.000000
0.677277 0.190369 0.000000
0.712341 0.190369 0.000000
0.747650 0.190369 0.000000
0.783142 0.190369 0.000000
0.818817 0.190369 0.000000
0.854736 0.190369 0.000000
0.890778 0.190369 0.000000
0.927032 0.190369 0.000000
0.963440 0.190369 0.000000
1.000000 0.190369 0.000000
0.000000 0.222443 0.000000
0.020203 0.222443 0.000000
0.044403 0.222443 0.000000
0.070374 0.222443 0.000000
0.097595 0.222443 0.000000
0.125763 0.222443 0.000000
0.154694 0.222443 0.000000
0.184326 0.222443 0.000000
0.214539 0.222443 0.000000
0.245270 0.222443 0.000000
0.276459 0.222443 0.000000
0.308075 0.222443 0.000000
0.340088 0.222443 0.000000
0.372467 0.222443 0.000000
0.405212 0.222443 0.000000
0.438263 0.222443 0.000000
0.471619 0.222443 0.000000
0.505249 0.222443 0.000000
0.539154 0.222443 0.000000
0.573334 0.222443 0.000000
0.607758 0.222443 0.000000
0.642395 0.222443 0.000000
0.677277 0.222443 0.000000
0.712341 0.222443 0.000000
0.747650 0.222443 0.000000
0.783142 0.222443 0.000000
0.818817 0.222443 0.000000
0.854736 0.222443 0.000000
0.890778 0.222443 0.000000
0.927032 0.222443 0.000000
0.963440 0.222443 0.000000
1.000000 0.222443 0.000000
0.000000 0.254547 0.000000
0.020203 0.254547 0.000000
0.044403 0.254547 0.000000
0.070374 0.254547 0.000000
0.097595 0.254547 0.000000
0.125763 0.254547 0.000000
0.154694 0.254547 0.000000
0.184326 0.254547 0.000000
0.214539 0.254547 0.000000
0.245270 0.254547 0.000000
0.276459 0.254547 0.000000
0.308075 0.254547 0.000000
0.340088 0.254547 0.000000
0.372467 0.254547 0.000000
0.405212 0.254547 0.000000
0.438263 0.254547 0.000000
0.471619 0.254547 0.000000
0.505249 0.254547 0.000000
0.539154 0.254547 0.000000
0.573334 0.254547 0.000000
0.607758 0.254547 0.000000
0.642395 0.254547 0.000000
0.677277 0.254547 0.000000
0.712341 0.254547 0.000000
0.747650 0.254547 0.000000
0.783142 0.254547 0.000000
0.818817 0.254547 0.000000
0.854736 0.254547 0.000000
0.890778 0.254547 0.000000
0.927032 0.254547 0.000000
0.963440 0.254547 0.000000
1.000000 0.254547 0.000000
0.000000 0.286713 0.000000
0.020203 0.286713 0.000000
0.044403 0.286713 0.000000
0.070374 0.286713 0.000000
0.097595 0.286713 0.000000
0.125763 0.286713 0.000000
0.154694 0.286713 0.000000
0.184326 0.286713 0.000000
0.214539 0.286713 0.000000
0.245270 0.286713 0.000000
0.276459 0.286713 0.000000
0.308075 0.286713 0.000000
0.340088 0.286713 0.000000
0.372467 0.286713 0.000000
0.405212 0.286713 0.000000
0.438263 0.286713 0.000000
0.471619 0.286713 0.000000
0.505249 0.286713 0.000000
0.539154 0.286713 0.000000
0.573334 0.286713 0.000000
0.607758 0.286713 0.000000
0.642395 0.286713 0.000000
0.677277 0.286713 0.000000
0.712341 0.286713 0.000000
0.747650 0.286713 0.000000
0.783142 0.286713 0.000000
0.818817 0.286713 0.000000
0.854736 0.286713 0.000000
0.890778 0.286713 0.000000
0.927032 0.286713 0.000000
0.963440 0.286713 0.000000
1.000000 0.286713 0.000000
0.000000 0.318909 0.000000
0.020203 0.318909 0.000000
0.044403 0.318909 0.000000
0.070374 0.318909 0.000000
0.097595 0.318909 0.000000
0.125763 0.318909 0.000000
0.154694 0.318909 0.000000
0.184326 0.318909 0.000000
0.214539 0.318909 0.000000
0.245270 0.318909 0.000000
0.276459 0.318909 0.000000
0.308075 0.318909 0.000000
0.340088 0.318909 0.000000
0.372467 0.318909 0.000000
0.405212 0.318909 0.000000
0.438263 0.318909 0.000000
0.471619 0.318909 0.000000
0.505249 0.318909 0.000000
0.539154 0.318909 0.000000
0.573334 0.318909 0.000000
0.607758 0.318909 0.000000
0.642395 0.318909 0.000000
0.677277 0.318909 0.000000
0.712341 0.318909 0.000000
0.747650 0.318909 0.000000
0.783142 0.318909 0.000000
0.818817 0.318909 0.000000
0.854736 0.318909 0.000000
0.890778 0.318909 0.000000
0.927032 0.318909 0.000000
0.963440 0.318909 0.000000
1.000000 0.318909 0.000000
0.000000 0.351135 0.000000
0.020203 0.351135 0.000000
0.044403 0.351135 0.000000
0.070374 0.351135 0.000000
0.097595 0.351135 0.000000
0.125763 0.351135 0.000000
0.154694 0.351135 0.000000
0.184326 0.351135 0.000000
0.214539 0.351135 0.000000
0.245270 0.351135 0.000000
0.276459 0.351135 0.000000
0.308075 0.351135 0.000000
0.340088 0.351135 0.000000
0.372467 0.351135 0.000000
0.405212 0.351135 0.000000
0.438263 0.351135 0.000000
0.471619 0.351135 0.000000
0.505249 0.351135 0.000000
0.539154 0.351135 0.000000
0.573334 0.351135 0.000000
0.607758 0.351135 0.000000
0.642395 0.351135 0.000000
0.677277 0.351135 0.000000
0.712341 0.351135 0.000000
0.747650 0.351135 0.000000
0.783142 0.351135 0.000000
0.818817 0.351135 0.000000
0.854736 0.351135 0.000000
0.890778 0.351135 0.000000
0.927032 0.351135 0.000000
0.963440 0.351135 0.000000
1.000000 0.351135 0.000000
0.000000 0.383392 0.000000
0.020203 0.383392 0.000000
0.044403 0.383392 0.000000
0.070374 0.383392 0.000000
0.097595 0.383392 0.000000
0.125763 0.383392 0.000000
0.154694 0.383392 0.000000
0.184326 0.383392 0.000000
0.214539 0.383392 0.000000
0.245270 0.383392 0.000000
0.276459 0.383392 0.000000
0.308075 0.383392 0.000000
0.340088 0.383392 0.000000
0.372467 0.383392 0.000000
0.405212 0.383392 0.000000
0.438263 0.383392 0.000000
0.471619 0.383392 0.000000
0.505249 0.383392 0.000000
0.539154 0.383392 0.000000
0.573334 0.383392 0.000000
0.607758 0.383392 0.000000
0.642395 0.383392 0.000000
0.677277 0.383392 0.000000
0.712341 0.383392 0.000000
0.747650 0.383392 0.000000
0.783142 0.383392 0.000000
0.818817 0.383392 0.000000
0.854736 0.383392 0.000000
0.890778 0.383392 0.000000
0.927032 0.383392 0.000000
0.963440 0.383392 0.000000
1.000000 0.383392 0.000000
0.000000 0.415680 0.000000
0.020203 0.415680 0.000000
0.044403 0.415680 0.000000
0.070374 0.415680 0.000000
0.097595 0.415680 0.000000
0.125763 0.415680 0.000000
0.154694 0.415680 0.000000
0.184326 0.415680 0.000000
0.214539 0.415680 0.000000
0.245270 0.415680 0.000000
0.276459 0.415680 0.000000
0.308075 0.415680 0.000000
0.340088 0.415680 0.000000
0.372467 0.415680 0.000000
0.405212 0.415680 0.000000
0.438263 0.415680 0.000000
0.471619 0.415680 0.000000
0.505249 0.415680 0.000000
0.539154 0.415680 0.000000
0.573334 0.415680 0.000000
0.607758 0.415680 0.000000
0.642395 0.415680 0.000000
0.677277 0.415680 0.000000
0.712341 0.415680 0.000000
0.747650 0.415680 0.000000
0.783142 0.415680 0.000000
0.818817 0.415680 0.000000
0.854736 0.415680 0.000000
0.890778 0.415680 0.000000
0.927032 0.415680 0.000000
0.963440 0.415680 0.000000
1.000000 0.415680 0.000000
0.000000 0.447998 0.000000
0.020203 0.447998 0.000000
0.044403 0.447998 0.000000
0.070374 0.447998 0.000000
0.097595 0.447998 0.000000
0.125763 0.447998 0.000000
0.154694 0.447998 0.000000
0.184326 0.447998 0.000000
0.214539 0.447998 0.000000
0.245270 0.447998 0.000000
0.276459 0.447998 0.000000
0.308075 0.447998 0.000000
0.340088 0.447998 0.000000
0.372467 0.447998 0.000000
0.405212 0.447998 0.000000
0.438263 0.447998 0.000000
0.471619 0.447998 0.000000
0.505249 0.447998 0.000000
0.539154 0.447998 0.000000
0.573334 0.447998 0.000000
0.607758 0.447998 0.000000
0.642395 0.447998 0.000000
0.677277 0.447998 0.000000
0.712341 0.447998 0.000000
0.747650 0.447998 0.000000
0.783142 0.447998 0.000000
0.818817 0.447998 0.000000
0.854736 0.447998 0.000000
0.890778 0.447998 0.000000
0.927032 0.447998 0.000000
0.963440 0.447998 0.000000
1.000000 0.447998 0.000000
0.000000 0.480316 0.000000
0.020203 0.480316 0.000000
0.044403 0.480316 0.000000
0.070374 0.480316 0.000000
0.097595 0.480316 0.000000
0.125763 0.480316 0.000000
0.154694 0.480316 0.000000
0.184326 0.480316 0.000000
0.214539 0.480316 0.000000
0.245270 0.480316 0.000000
0.276459 0.480316 0.000000
0.308075 0.480316 0.000000
0.340088 0.480316 0.000000
0.372467 0.480316 0.000000
0.405212 0.480316 0.000000
0.438263 0.480316 0.000000
0.471619 0.480316 0.000000
0.505249 0.480316 0.000000
0.539154 0.480316 0.000000
0.573334 0.480316 0.000000
0.607758 0.480316 0.000000
0.642395 0.480316 0.000000
0.677277 0.480316 0.000000
0.712341 0.480316 0.000000
0.747650 0.480316 0.000000
0.783142 0.480316 0.000000
0.818817 0.480316 0.000000
0.854736 0.480316 0.000000
0.890778 0.480316 0.000000
0.927032 0.480316 0.000000
0.963440 0.480316 0.000000
1.000000 0.480316 0.000000
0.000000 0.512695 0.000000
0.020203 0.512695 0.000000
0.044403 0.512695 0.000000
0.070374 0.512695 0.000000
0.097595 0.512695 0.000000
0.125763 0.512695 0.000000
0.154694 0.512695 0.000000
0.184326 0.512695 0.000000
0.214539 0.512695 0.000000
0.245270 0.512695 0.000000
0.276459 0.512695 0.000000
0.308075 0.512695 0.000000
0.340088 0.512695 0.000000
0.372467 0.512695 0.000000
0.405212 0.512695 0.000000
0.438263 0.512695 0.000000
0.471619 0.512695 0.000000
0.505249 0.512695 0.000000
0.539154 0.512695 0.000000
0.573334 0.512695 0.000000
0.607758 0.512695 0.000000
0.642395 0.512695 0.000000
0.677277 0.512695 0.000000
0.712341 0.512695 0.000000
0.747650 0.512695 0.000000
0.783142 0.512695 0.000000
0.818817 0.512695 0.000000
0.854736 0.512695 0.000000
0.890778 0.512695 0.000000
0.927032 0.512695 0.000000
0.963440 0.512695 0.000000
1.000000 0.512695 0.000000
0.000000 0.545074 0.000000
0.020203 0.545074 0.000000
0.044403 0.545074 0.000000
0.070374 0.545074 0.000000
0.097595 0.545074 0.000000
0.125763 0.545074 0.000000
0.154694 0.545074 0.000000
0.184326 0.545074 0.000000
0.214539 0.545074 0.000000
0.245270 0.545074 0.000000
0.276459 0.545074 0.000000
0.308075 0.545074 0.000000
0.340088 0.545074 0.000000
0.372467 0.545074 0.000000
0.405212 0.545074 0.000000
0.438263 0.545074 0.000000
0.471619 0.545074 0.000000
0.505249 0.545074 0.000000
0.539154 0.545074 0.000000
0.573334 0.545074 0.000000
0.607758 0.545074 0.000000
0.642395 0.545074 0.000000
0.677277 0.545074 0.000000
0.712341 0.545074 0.000000
0.747650 0.545074 0.000000
0.783142 0.545074 0.000000
0.818817 0.545074 0.000000
0.854736 0.545074 0.000000
0.890778 0.545074 0.000000
0.927032 0.545074 0.000000
0.963440 0.545074 0.000000
1.000000 0.545074 0.000000
0.000000 0.577484 0.000000
0.020203 0.577484 0.000000
0.044403 0.577484 0.000000
0.070374 0.577484 0.000000
0.097595 0.577484 0.000000
0.125763 0.577484 0.000000
0.154694 0.577484 0.000000
0.184326 0.577484 0.000000
0.214539 0.577484 0.000000
0.245270 0.577484 0.000000
0.276459 0.577484 0.000000
0.308075 0.577484 0.000000
0.340088 0.577484 0.000000
0.372467 0.577484 0.000000
0.405212 0.577484 0.000000
0.438263 0.577484 0.000000
0.471619 0.577484 0.000000
0.505249 0.577484 0.000000
0.539154 0.577484 0.000000
0.573334 0.577484 0.000000
0.607758 0.577484 0.000000
0.642395 0.577484 0.000000
0.677277 0.577484 0.000000
0.712341 0.577484 0.000000
0.747650 0.577484 0.000000
0.783142 0.577484 0.000000
0.818817 0.577484 0.000000
0.854736 0.577484 0.000000
0.890778 0.577484 0.000000
0.927032 0.577484 0.000000
0.963440 0.577484 0.000000
1.000000 0.577484 0.000000
0.000000 0.609894 0.000000
0.020203 0.609894 0.000000
0.044403 0.609894 0.000000
0.070374 0.609894 0.000000
0.097595 0.609894 0.000000
0.125763 0.609894 0.000000
0.154694 0.609894 0.000000
0.184326 0.609894 0.000000
0.214539 0.609894 0.000000
0.245270 0.609894 0.000000
0.276459 0.609894 0.000000
0.308075 0.609894 0.000000
0.340088 0.609894 0.000000
0.372467 0.609894 0.000000
0.405212 0.609894 0.000000
0.438263 0.609894 0.000000
0.471619 0.609894 0.000000
0.505249 0.609894 0.000000
0.539154 0.609894 0.000000
0.573334 0.609894 0.000000
0.607758 0.609894 0.000000
0.642395 0.609894 0.000000
0.677277 0.609894 0.000000
0.712341 0.609894 0.000000
0.747650 0.609894 0.000000
0.783142 0.609894 0.000000
0.818817 0.609894 0.000000
0.854736 0.609894 0.000000
0.890778 0.609894 0.000000
0.927032 0.609894 0.000000
0.963440 0.609894 0.000000
1.000000 0.609894 0.000000
0.000000 0.642334 0.000000
0.020203 0.642334 0.000000
0.044403 0.642334 0.000000
0.070374 0.642334 0.000000
0.097595 0.642334 0.000000
0.125763 0.642334 0.000000
0.154694 0.642334 0.000000
0.184326 0.642334 0.000000
0.214539 0.642334 0.000000
0.245270 0.642334 0.000000
0.276459 0.642334 0.000000
0.308075 0.642334 0.000000
0.340088 0.642334 0.000000
0.372467 0.642334 0.000000
0.405212 0.642334 0.000000
0.438263 0.642334 0.000000
0.471619 0.642334 0.000000
0.505249 0.642334 0.000000
0.539154 0.642334 0.000000
0.573334 0.642334 0.000000
0.607758 0.642334 0.000000
0.642395 0.642334 0.000000
0.677277 0.642334 0.000000
0.712341 0.642334 0.000000
0.747650 0.642334 0.000000
0.783142 0.642334 0.000000
0.818817 0.642334 0.000000
0.854736 0.642334 0.000000
0.890778 0.642334 0.000000
0.927032 0.642334 0.000000
0.963440 0.642334 0.000000
1.000000 0.642334 0.000000
0.000000 0.674774 0.000000
0.020203 0.674774 0.000000
0.044403 0.674774 0.000000
0.070374 0.674774 0.000000
0.097595 0.674774 0.000000
0.125763 0.674774 0.000000
0.154694 0.674774 0.000000
0.184326 0.674774 0.000000
0.214539 0.674774 0.000000
0.245270 0.674774 0.000000
0.276459 0.674774 0.000000
0.308075 0.674774 0.000000
0.340088 0.674774 0.000000
0.372467 0.674774 0.000000
0.405212 0.674774 0.000000
0.438263 0.674774 0.000000
0.471619 0.674774 0.000000
0.505249 0.674774 0.000000
0.539154 0.674774 0.000000
0.573334 0.674774 0.000000
0.607758 0.674774 0.000000
0.642395 0.674774 0.000000
0.677277 0.674774 0.000000
0.712341 0.674774 0.000000
0.747650 0.674774 0.000000
0.783142 0.674774 0.000000
0.818817 0.674774 0.000000
0.854736 0.674774 0.000000
0.890778 0.674774 0.000000
0.927032 0.674774 0.000000
0.963440 0.674774 0.000000
1.000000 0.674774 0.000000
0.000000 0.707245 0.000000
0.020203 0.707245 0.000000
0.044403 0.707245 0.000000
0.070374 0.707245 0.000000
0.097595 0.707245 0.000000
0.125763 0.707245 0.000000
0.154694 0.707245 0.000000
0.184326 0.707245 0.000000
0.214539 0.707245 0.000000
0.245270 0.707245 0.000000
0.276459 0.707245 0.000000
0.308075 0.707245 0.000000
0.340088 0.707245 0.000000
0.372467 0.707245 0.000000
0.405212 0.707245 0.000000
0.438263 0.707245 0.000000
0.471619 0.707245 0.000000
0.505249 0.707245 0.000000
0.539154 0.707245 0.000000
0.573334 0.707245 0.000000
0.607758 0.707245 0.000000
0.642395 0.707245 0.000000
0.677277 0.707245 0.000000
0.712341 0.707245 0.000000
0.747650 0.707245 0.000000
0.783142 0.707245 0.000000
0.818817 0.707245 0.000000
0.854736 0.707245 0.000000
0.890778 0.707245 0.000000
0.927032 0.707245 0.000000
0.963440 0.707245 0.000000
1.000000 0.707245 0.000000
0.000000 0.739716 0.000000
0.020203 0.739716 0.000000
0.044403 0.739716 0.000000
0.070374 0.739716 0.000000
0.097595 0.739716 0.000000
0.125763 0.739716 0.000000
0.154694 0.739716 0.000000
0.184326 0.739716 0.000000
0.214539 0.739716 0.000000
0.245270 0.739716 0.000000
0.276459 0.739716 0.000000
0.308075 0.739716 0.000000
0.340088 0.739716 0.000000
0.372467 0.739716 0.000000
0.405212 0.739716 0.000000
0.438263 0.739716 0.000000
0.471619 0.739716 0.000000
0.505249 0.739716 0.000000
0.539154 0.739716 0.000000
0.573334 0.739716 0.000000
0.607758 0.739716 0.000000
0.642395 0.739716 0.000000
0.677277 0.739716 0.000000
0.712341 0.739716 0.000000
0.747650 0.739716 0.000000
0.783142 0.739716 0.000000
0.818817 0.739716 0.000000
0.854736 0.739716 0.000000
0.890778 0.739716 0.000000
0.927032 0.739716 0.000000
0.963440 0.739716 0.000000
1.000000 0.739716 0.000000
0.000000 0.772186 0.000000
0.020203 0.772186 0.000000
0.044403 0.772186 0.000000
0.070374 0.772186 0.000000
0.097595 0.772186 0.000000
0.125763 0.772186 0.000000
0.154694 0.772186 0.000000
0.184326 0.772186 0.000000
0.214539 0.772186 0.000000
0.245270 0.772186 0.000000
0.276459 0.772186 0.000000
0.308075 0.772186 0.000000
0.340088 0.772186 0.000000
0.372467 0.772186 0.000000
0.405212 0.772186 0.000000
0.438263 0.772186 0.000000
0.471619 0.772186 0.000000
0.505249 0.772186 0.000000
0.539154 0.772186 0.000000
0.573334 0.772186 0.000000
0.607758 0.772186 0.000000
0.642395 0.772186 0.000000
0.677277 0.772186 0.000000
0.712341 0.772186 0.000000
0.747650 0.772186 0.000000
0.783142 0.772186 0.000000
0.818817 0.772186 0.000000
0.854736 0.772186 0.000000
0.890778 0.772186 0.000000
0.927032 0.772186 0.000000
0.963440 0.772186 0.000000
1.000000 0.772186 0.000000
0.000000 0.804718 0.000000
0.020203 0.804718 0.000000
0.044403 0.804718 0.000000
0.070374 0.804718 0.000000
0.097595 0.804718 0.000000
0.125763 0.804718 0.000000
0.154694 0.804718 0.000000
0.184326 0.804718 0.000000
0.214539 0.804718 0.000000
0.245270 0.804718 0.000000
0.276459 0.804718 0.000000
0.308075 0.804718 0.000000
0.340088 0.804718 0.000000
0.372467 0.804718 0.000000
0.405212 0.804718 0.000000
0.438263 0.804718 0.000000
0.471619 0.804718 0.000000
0.505249 0.804718 0.000000
0.539154 0.804718 0.000000
0.573334 0.804718 0.000000
0.607758 0.804718 0.000000
0.642395 0.804718 0.000000
0.677277 0.804718 0.000000
0.712341 0.804718 0.000000
0.747650 0.804718 0.000000
0.783142 0.804718 0.000000
0.818817 0.804718 0.000000
0.854736 0.804718 0.000000
0.890778 0.804718 0.000000
0.927032 0.804718 0.000000
0.963440 0.804718 0.000000
1.000000 0.804718 0.000000
0.000000 0.837219 0.000000
0.020203 0.837219 0.000000
0.044403 0.837219 0.000000
0.070374 0.837219 0.000000
0.097595 0.837219 0.000000
0.125763 0.837219 0.000000
0.154694 0.837219 0.000000
0.184326 0.837219 0.000000
0.214539 0.837219 0.000000
0.245270 0.837219 0.000000
0.276459 0.837219 0.000000
0.308075 0.837219 0.000000
0.340088 0.837219 0.000000
0.372467 0.837219 0.000000
0.405212 0.837219 0.000000
0.438263 0.837219 0.000000
0.471619 0.837219 0.000000
0.505249 0.837219 0.000000
0.539154 0.837219 0.000000
0.573334 0.837219 0.000000
0.607758 0.837219 0.000000
0.642395 0.837219 0.000000
0.677277 0.837219 0.000000
0.712341 0.837219 0.000000
0.747650 0.837219 0.000000
0.783142 0.837219 0.000000
0.818817 0.837219 0.000000
0.854736 0.837219 0.000000
0.890778 0.837219 0.000000
0.927032 0.837219 0.000000
0.963440 0.837219 0.000000
1.000000 0.837219 0.000000
0.000000 0.869751 0.000000
0.020203 0.869751 0.000000
0.044403 0.869751 0.000000
0.070374 0.869751 0.000000
0.097595 0.869751 0.000000
0.125763 0.869751 0.000000
0.154694 0.869751 0.000000
0.184326 0.869751 0.000000
0.214539 0.869751 0.000000
0.245270 0.869751 0.000000
0.276459 0.869751 0.000000
0.308075 0.869751 0.000000
0.340088 0.869751 0.000000
0.372467 0.869751 0.000000
0.405212 0.869751 0.000000
0.438263 0.869751 0.000000
0.471619 0.869751 0.000000
