public/luts/ABB CRB 15000 New GoFa - 9-Large.CUBE
#Created by: Adobe Photoshop Export Color Lookup Plugin
TITLE "ABB CRB 15000 New GoFa - 9-Large.psd"
#LUT size
LUT_3D_SIZE 8
#data domain
#LUT data points
DOMAIN_MIN 0.000000 0.000000 0.000000
DOMAIN_MAX 0.903226 0.903226 0.903226
0.000000 0.000000 0.000000
0.097595 0.000000 0.000000
0.214539 0.000000 0.000000
0.340088 0.000000 0.000000
0.471619 0.000000 0.000000
0.607758 0.000000 0.000000
0.747650 0.000000 0.000000
0.890778 0.000000 0.000000
0.000000 0.126373 0.000000
0.097595 0.126373 0.000000
0.214539 0.126373 0.000000
0.340088 0.126373 0.000000
0.471619 0.126373 0.000000
0.607758 0.126373 0.000000
0.747650 0.126373 0.000000
0.890778 0.126373 0.000000
0.000000 0.254547 0.000000
0.097595 0.254547 0.000000
0.214539 0.254547 0.000000
0.340088 0.254547 0.000000
0.471619 0.254547 0.000000
0.607758 0.254547 0.000000
0.747650 0.254547 0.000000
0.890778 0.254547 0.000000
0.000000 0.383392 0.000000
0.097595 0.383392 0.000000
0.214539 0.383392 0.000000
0.340088 0.383392 0.000000
0.471619 0.383392 0.000000
0.607758 0.383392 0.000000
0.747650 0.383392 0.000000
0.890778 0.383392 0.000000
0.000000 0.512695 0.000000
0.097595 0.512695 0.000000
0.214539 0.512695 0.000000
0.340088 0.512695 0.000000
0.471619 0.512695 0.000000
0.607758 0.512695 0.000000
0.747650 0.512695 0.000000
0.890778 0.512695 0.000000
0.000000 0.642334 0.000000
0.097595 0.642334 0.000000
0.214539 0.642334 0.000000
0.340088 0.642334 0.000000
0.471619 0.642334 0.000000
0.607758 0.642334 0.000000
0.747650 0.642334 0.000000
0.890778 0.642334 0.000000
0.000000 0.772186 0.000000
0.097595 0.772186 0.000000
0.214539 0.772186 0.000000
0.340088 0.772186 0.000000
0.471619 0.772186 0.000000
0.607758 0.772186 0.000000
0.747650 0.772186 0.000000
0.890778 0.772186 0.000000
0.000000 0.902313 0.000000
0.097595 0.902313 0.000000
0.214539 0.902313 0.000000
0.340088 0.902313 0.000000
0.471619 0.902313 0.000000
0.607758 0.902313 0.000000
0.747650 0.902313 0.000000
0.890778 0.902313 0.000000
0.000000 0.000000 0.165924
0.097595 0.000000 0.165924
0.214539 0.000000 0.165924
0.340088 0.000000 0.165924
0.471619 0.000000 0.165924
0.607758 0.000000 0.165924
0.747650 0.000000 0.165924
0.890778 0.000000 0.165924
0.000000 0.126373 0.165924
0.097595 0.126373 0.165924
0.214539 0.126373 0.165924
0.340088 0.126373 0.165924
0.471619 0.126373 0.165924
0.607758 0.126373 0.165924
0.747650 0.126373 0.165924
0.890778 0.126373 0.165924
0.000000 0.254547 0.165924
0.097595 0.254547 0.165924
0.214539 0.254547 0.165924
0.340088 0.254547 0.165924
0.471619 0.254547 0.165924
0.607758 0.254547 0.165924
0.747650 0.254547 0.165924
0.890778 0.254547 0.165924
0.000000 0.383392 0.165924
0.097595 0.383392 0.165924
0.214539 0.383392 0.165924
0.340088 0.383392 0.165924
0.471619 0.383392 0.165924
0.607758 0.383392 0.165924
0.747650 0.383392 0.165924
0.890778 0.383392 0.165924
0.000000 0.512695 0.165924
0.097595 0.512695 0.165924
0.214539 0.512695 0.165924
0.340088 0.512695 0.165924
0.471619 0.512695 0.165924
0.607758 0.512695 0.165924
0.747650 0.512695 0.165924
0.890778 0.512695 0.165924
0.000000 0.642334 0.165924
0.097595 0.642334 0.165924
0.214539 0.642334 0.165924
0.340088 0.642334 0.165924
0.471619 0.642334 0.165924
0.607758 0.642334 0.165924
0.747650 0.642334 0.165924
0.890778 0.642334 0.165924
0.000000 0.772186 0.165924
0.097595 0.772186 0.165924
0.214539 0.772186 0.165924
0.340088 0.772186 0.165924
0.471619 0.772186 0.165924
0.607758 0.772186 0.165924
0.747650 0.772186 0.165924
0.890778 0.772186 0.165924
0.000000 0.902313 0.165924
0.097595 0.902313 0.165924
0.214539 0.902313 0.165924
0.340088 0.902313 0.165924
0.471619 0.902313 0.165924
0.607758 0.902313 0.165924
0.747650 0.902313 0.165924
0.890778 0.902313 0.165924
0.000000 0.000000 0.304749
0.097595 0.000000 0.304749
0.214539 0.000000 0.304749
0.340088 0.000000 0.304749
0.471619 0.000000 0.304749
0.607758 0.000000 0.304749
0.747650 0.000000 0.304749
0.890778 0.000000 0.304749
0.000000 0.126373 0.304749
0.097595 0.126373 0.304749
0.214539 0.126373 0.304749
0.340088 0.126373 0.304749
0.471619 0.126373 0.304749
0.607758 0.126373 0.304749
0.747650 0.126373 0.304749
0.890778 0.126373 0.304749
0.000000 0.254547 0.304749
0.097595 0.254547 0.304749
0.214539 0.254547 0.304749
0.340088 0.254547 0.304749
0.471619 0.254547 0.304749
0.607758 0.254547 0.304749
0.747650 0.254547 0.304749
0.890778 0.254547 0.304749
0.000000 0.383392 0.304749
0.097595 0.383392 0.304749
0.214539 0.383392 0.304749
0.340088 0.383392 0.304749
0.471619 0.383392 0.304749
0.607758 0.383392 0.304749
0.747650 0.383392 0.304749
0.890778 0.383392 0.304749
0.000000 0.512695 0.304749
0.097595 0.512695 0.304749
0.214539 0.512695 0.304749
0.340088 0.512695 0.304749
0.471619 0.512695 0.304749
0.607758 0.512695 0.304749
0.747650 0.512695 0.304749
0.890778 0.512695 0.304749
0.000000 0.642334 0.304749
0.097595 0.642334 0.304749
0.214539 0.642334 0.304749
0.340088 0.642334 0.304749
0.471619 0.642334 0.304749
0.607758 0.642334 0.304749
0.747650 0.642334 0.304749
0.890778 0.642334 0.304749
0.000000 0.772186 0.304749
0.097595 0.772186 0.304749
0.214539 0.772186 0.304749
0.340088 0.772186 0.304749
0.471619 0.772186 0.304749
0.607758 0.772186 0.304749
0.747650 0.772186 0.304749
0.890778 0.772186 0.304749
0.000000 0.902313 0.304749
0.097595 0.902313 0.304749
0.214539 0.902313 0.304749
0.340088 0.902313 0.304749
0.471619 0.902313 0.304749
0.607758 0.902313 0.304749
0.747650 0.902313 0.304749
0.890778 0.902313 0.304749
0.000000 0.000000 0.434937
0.097595 0.000000 0.434937
0.214539 0.000000 0.434937
0.340088 0.000000 0.434937
0.471619 0.000000 0.434937
0.607758 0.000000 0.434937
0.747650 0.000000 0.434937
0.890778 0.000000 0.434937
0.000000 0.126373 0.434937
0.097595 0.126373 0.434937
0.214539 0.126373 0.434937
0.340088 0.126373 0.434937
0.471619 0.126373 0.434937
0.607758 0.126373 0.434937
0.747650 0.126373 0.434937
0.890778 0.126373 0.434937
0.000000 0.254547 0.434937
0.097595 0.254547 0.434937
0.214539 0.254547 0.434937
0.340088 0.254547 0.434937
0.471619 0.254547 0.434937
0.607758 0.254547 0.434937
0.747650 0.254547 0.434937
0.890778 0.254547 0.434937
0.000000 0.383392 0.434937
0.097595 0.383392 0.434937
0.214539 0.383392 0.434937
0.340088 0.383392 0.434937
0.471619 0.383392 0.434937
0.607758 0.383392 0.434937
0.747650 0.383392 0.434937
0.890778 0.383392 0.434937
0.000000 0.512695 0.434937
0.097595 0.512695 0.434937
0.214539 0.512695 0.434937
0.340088 0.512695 0.434937
0.471619 0.512695 0.434937
0.607758 0.512695 0.434937
0.747650 0.512695 0.434937
0.890778 0.512695 0.434937
0.000000 0.642334 0.434937
0.097595 0.642334 0.434937
0.214539 0.642334 0.434937
0.340088 0.642334 0.434937
0.471619 0.642334 0.434937
0.607758 0.642334 0.434937
0.747650 0.642334 0.434937
0.890778 0.642334 0.434937
0.000000 0.772186 0.434937
0.097595 0.772186 0.434937
0.214539 0.772186 0.434937
0.340088 0.772186 0.434937
0.471619 0.772186 0.434937
0.607758 0.772186 0.434937
0.747650 0.772186 0.434937
0.890778 0.772186 0.434937
0.000000 0.902313 0.434937
0.097595 0.902313 0.434937
0.214539 0.902313 0.434937
0.340088 0.902313 0.434937
0.471619 0.902313 0.434937
0.607758 0.902313 0.434937
0.747650 0.902313 0.434937
0.890778 0.902313 0.434937
0.000000 0.000000 0.559814
0.097595 0.000000 0.559814
0.214539 0.000000 0.559814
0.340088 0.000000 0.559814
0.471619 0.000000 0.559814
0.607758 0.000000 0.559814
0.747650 0.000000 0.559814
0.890778 0.000000 0.559814
0.000000 0.126373 0.559814
0.097595 0.126373 0.559814
0.214539 0.126373 0.559814
0.340088 0.126373 0.559814
0.471619 0.126373 0.559814
0.607758 0.126373 0.559814
0.747650 0.126373 0.559814
0.890778 0.126373 0.559814
0.000000 0.254547 0.559814
0.097595 0.254547 0.559814
0.214539 0.254547 0.559814
0.340088 0.254547 0.559814
0.471619 0.254547 0.559814
0.607758 0.254547 0.559814
0.747650 0.254547 0.559814
0.890778 0.254547 0.559814
0.000000 0.383392 0.559814
0.097595 0.383392 0.559814
0.214539 0.383392 0.559814
0.340088 0.383392 0.559814
0.471619 0.383392 0.559814
0.607758 0.383392 0.559814
0.747650 0.383392 0.559814
0.890778 0.383392 0.559814
0.000000 0.512695 0.559814
0.097595 0.512695 0.559814
0.214539 0.512695 0.559814
0.340088 0.512695 0.559814
0.471619 0.512695 0.559814
0.607758 0.512695 0.559814
0.747650 0.512695 0.559814
0.890778 0.512695 0.559814
0.000000 0.642334 0.559814
0.097595 0.642334 0.559814
0.214539 0.642334 0.559814
0.340088 0.642334 0.559814
0.471619 0.642334 0.559814
0.607758 0.642334 0.559814
0.747650 0.642334 0.559814
0.890778 0.642334 0.559814
0.000000 0.772186 0.559814
0.097595 0.772186 0.559814
0.214539 0.772186 0.559814
0.340088 0.772186 0.559814
0.471619 0.772186 0.559814
0.607758 0.772186 0.559814
0.747650 0.772186 0.559814
0.890778 0.772186 0.559814
0.000000 0.902313 0.559814
0.097595 0.902313 0.559814
0.214539 0.902313 0.559814
0.340088 0.902313 0.559814
0.471619 0.902313 0.559814
0.607758 0.902313 0.559814
0.747650 0.902313 0.559814
0.890778 0.902313 0.559814
0.000000 0.000000 0.680847
0.097595 0.000000 0.680847
0.214539 0.000000 0.680847
0.340088 0.000000 0.680847
0.471619 0.000000 0.680847
0.607758 0.000000 0.680847
0.747650 0.000000 0.680847
0.890778 0.000000 0.680847
0.000000 0.126373 0.680847
0.097595 0.126373 0.680847
0.214539 0.126373 0.680847
0.340088 0.126373 0.680847
0.471619 0.126373 0.680847
0.607758 0.126373 0.680847
0.747650 0.126373 0.680847
0.890778 0.126373 0.680847
0.000000 0.254547 0.680847
0.097595 0.254547 0.680847
0.214539 0.254547 0.680847
0.340088 0.254547 0.680847
0.471619 0.254547 0.680847
0.607758 0.254547 0.680847
0.747650 0.254547 0.680847
0.890778 0.254547 0.680847
0.000000 0.383392 0.680847
0.097595 0.383392 0.680847
0.214539 0.383392 0.680847
0.340088 0.383392 0.680847
0.471619 0.383392 0.680847
0.607758 0.383392 0.680847
0.747650 0.383392 0.680847
0.890778 0.383392 0.680847
0.000000 0.512695 0.680847
0.097595 0.512695 0.680847
0.214539 0.512695 0.680847
0.340088 0.512695 0.680847
0.471619 0.512695 0.680847
0.607758 0.512695 0.680847
0.747650 0.512695 0.680847
0.890778 0.512695 0.680847
0.000000 0.642334 0.680847
0.097595 0.642334 0.680847
0.214539 0.642334 0.680847
0.340088 0.642334 0.680847
0.471619 0.642334 0.680847
0.607758 0.642334 0.680847
0.747650 0.642334 0.680847
0.890778 0.642334 0.680847
0.000000 0.772186 0.680847
0.097595 0.772186 0.680847
0.214539 0.772186 0.680847
0.340088 0.772186 0.680847
0.471619 0.772186 0.680847
0.607758 0.772186 0.680847
0.747650 0.772186 0.680847
0.890778 0.772186 0.680847
0.000000 0.902313 0.680847
0.097595 0.902313 0.680847
0.214539 0.902313 0.680847
0.340088 0.902313 0.680847
0.471619 0.902313 0.680847
0.607758 0.902313 0.680847
0.747650 0.902313 0.680847
0.890778 0.902313 0.680847
0.000000 0.000000 0.798920
0.097595 0.000000 0.798920
0.214539 0.000000 0.798920
0.340088 0.000000 0.798920
0.471619 0.000000 0.798920
0.607758 0.000000 0.798920
0.747650 0.000000 0.798920
0.890778 0.000000 0.798920
0.000000 0.126373 0.798920
0.097595 0.126373 0.798920
0.214539 0.126373 0.798920
0.340088 0.126373 0.798920
0.471619 0.126373 0.798920
0.607758 0.126373 0.798920
0.747650 0.126373 0.798920
0.890778 0.126373 0.798920
0.000000 0.254547 0.798920
0.097595 0.254547 0.798920
0.214539 0.254547 0.798920
0.340088 0.254547 0.798920
0.471619 0.254547 0.798920
0.607758 0.254547 0.798920
0.747650 0.254547 0.798920
0.890778 0.254547 0.798920
0.000000 0.383392 0.798920
0.097595 0.383392 0.798920
0.214539 0.383392 0.798920
0.340088 0.383392 0.798920
0.471619 0.383392 0.798920
0.607758 0.383392 0.798920
0.747650 0.383392 0.798920
0.890778 0.383392 0.798920
0.000000 0.512695 0.798920
0.097595 0.512695 0.798920
0.214539 0.512695 0.798920
0.340088 0.512695 0.798920
0.471619 0.512695 0.798920
0.607758 0.512695 0.798920
0.747650 0.512695 0.798920
0.890778 0.512695 0.798920
0.000000 0.642334 0.798920
0.097595 0.642334 0.798920
0.214539 0.642334 0.798920
0.340088 0.642334 0.798920
0.471619 0.642334 0.798920
0.607758 0.642334 0.798920
0.747650 0.642334 0.798920
0.890778 0.642334 0.798920
0.000000 0.772186 0.798920
0.097595 0.772186 0.798920
0.214539 0.772186 0.798920
0.340088 0.772186 0.798920
0.471619 0.772186 0.798920
0.607758 0.772186 0.798920
0.747650 0.772186 0.798920
0.890778 0.772186 0.798920
0.000000 0.902313 0.798920
0.097595 0.902313 0.798920
0.214539 0.902313 0.798920
0.340088 0.902313 0.798920
0.471619 0.902313 0.798920
0.607758 0.902313 0.798920
0.747650 0.902313 0.798920
0.890778 0.902313 0.798920
0.000000 0.000000 0.914581
0.097595 0.000000 0.914581
0.214539 0.000000 0.914581
0.340088 0.000000 0.914581
0.471619 0.000000 0.914581
0.607758 0.000000 0.914581
0.747650 0.000000 0.914581
0.890778 0.000000 0.914581
0.000000 0.126373 0.914581
0.097595 0.126373 0.914581
0.214539 0.126373 0.914581
0.340088 0.126373 0.914581
0.471619 0.126373 0.914581
0.607758 0.126373 0.914581
0.747650 0.126373 0.914581
0.890778 0.126373 0.914581
0.000000 0.254547 0.914581
0.097595 0.254547 0.914581
0.214539 0.254547 0.914581
0.340088 0.254547 0.914581
0.471619 0.254547 0.914581
0.607758 0.254547 0.914581
0.747650 0.254547 0.914581
0.890778 0.254547 0.914581
0.000000 0.383392 0.914581
0.097595 0.383392 0.914581
0.214539 0.383392 0.914581
0.340088 0.383392 0.914581
0.471619 0.383392 0.914581
0.607758 0.383392 0.914581
0.747650 0.383392 0.914581
0.890778 0.383392 0.914581
0.000000 0.512695 0.914581
0.097595 0.512695 0.914581
0.214539 0.512695 0.914581
0.340088 0.512695 0.914581
0.471619 0.512695 0.914581
0.607758 0.512695 0.914581
0.747650 0.512695 0.914581
0.890778 0.512695 0.914581
0.000000 0.642334 0.914581
0.097595 0.642334 0.914581
0.214539 0.642334 0.914581
0.340088 0.642334 0.914581
0.471619 0.642334 0.914581
0.607758 0.642334 0.914581
0.747650 0.642334 0.914581
0.890778 0.642334 0.914581
0.000000 0.772186 0.914581
0.097595 0.772186 0.914581
0.214539 0.772186 0.914581
0.340088 0.772186 0.914581
0.471619 0.772186 0.914581
0.607758 0.772186 0.914581
0.747650 0.772186 0.914581
0.890778 0.772186 0.914581
0.000000 0.902313 0.914581
0.097595 0.902313 0.914581
0.214539 0.902313 0.914581
0.340088 0.902313 0.914581
0.471619 0.902313 0.914581
0.607758 0.902313 0.914581
0.747650 0.902313 0.914581
0.890778 0.902313 0.914581
