public/luts/ABB CRB 15000 New GoFa - 9-Large.CUBE
#Created by: Adobe Photoshop Export Color Lookup Plugin
TITLE "ABB CRB 15000 New GoFa - 9-Large.psd"
#LUT size
LUT_3D_SIZE 5
#data domain
#LUT data points
DOMAIN_MIN 0.000000 0.000000 0.000000
DOMAIN_MAX 0.903226 0.903226 0.903226
0.000000 0.000000 0.000000
0.184326 0.000000 0.000000
0.405212 0.000000 0.000000
0.642395 0.000000 0.000000
0.890778 0.000000 0.000000
0.000000 0.222443 0.000000
0.184326 0.222443 0.000000
0.405212 0.222443 0.000000
0.642395 0.222443 0.000000
0.890778 0.222443 0.000000
0.000000 0.447998 0.000000
0.184326 0.447998 0.000000
0.405212 0.447998 0.000000
0.642395 0.447998 0.000000
0.890778 0.447998 0.000000
0.000000 0.674774 0.000000
0.184326 0.674774 0.000000
0.405212 0.674774 0.000000
0.642395 0.674774 0.000000
0.890778 0.674774 0.000000
0.000000 0.902313 0.000000
0.184326 0.902313 0.000000
0.405212 0.902313 0.000000
0.642395 0.902313 0.000000
0.890778 0.902313 0.000000
0.000000 0.000000 0.271088
0.184326 0.000000 0.271088
0.405212 0.000000 0.271088
0.642395 0.000000 0.271088
0.890778 0.000000 0.271088
0.000000 0.222443 0.271088
0.184326 0.222443 0.271088
0.405212 0.222443 0.271088
0.642395 0.222443 0.271088
0.890778 0.222443 0.271088
0.000000 0.447998 0.271088
0.184326 0.447998 0.271088
0.405212 0.447998 0.271088
0.642395 0.447998 0.271088
0.890778 0.447998 0.271088
0.000000 0.674774 0.271088
0.184326 0.674774 0.271088
0.405212 0.674774 0.271088
0.642395 0.674774 0.271088
0.890778 0.674774 0.271088
0.000000 0.902313 0.271088
0.184326 0.902313 0.271088
0.405212 0.902313 0.271088
0.642395 0.902313 0.271088
0.890778 0.902313 0.271088
0.000000 0.000000 0.497894
0.184326 0.000000 0.497894
0.405212 0.000000 0.497894
0.642395 0.000000 0.497894
0.890778 0.000000 0.497894
0.000000 0.222443 0.497894
0.184326 0.222443 0.497894
0.405212 0.222443 0.497894
0.642395 0.222443 0.497894
0.890778 0.222443 0.497894
0.000000 0.447998 0.497894
0.184326 0.447998 0.497894
0.405212 0.447998 0.497894
0.642395 0.447998 0.497894
0.890778 0.447998 0.497894
0.000000 0.674774 0.497894
0.184326 0.674774 0.497894
0.405212 0.674774 0.497894
0.642395 0.674774 0.497894
0.890778 0.674774 0.497894
0.000000 0.902313 0.497894
0.184326 0.902313 0.497894
0.405212 0.902313 0.497894
0.642395 0.902313 0.497894
0.890778 0.902313 0.497894
0.000000 0.000000 0.710602
0.184326 0.000000 0.710602
0.405212 0.000000 0.710602
0.642395 0.000000 0.710602
0.890778 0.000000 0.710602
0.000000 0.222443 0.710602
0.184326 0.222443 0.710602
0.405212 0.222443 0.710602
0.642395 0.222443 0.710602
0.890778 0.222443 0.710602
0.000000 0.447998 0.710602
0.184326 0.447998 0.710602
0.405212 0.447998 0.710602
0.642395 0.447998 0.710602
0.890778 0.447998 0.710602
0.000000 0.674774 0.710602
0.184326 0.674774 0.710602
0.405212 0.674774 0.710602
0.642395 0.674774 0.710602
0.890778 0.674774 0.710602
0.000000 0.902313 0.710602
0.184326 0.902313 0.710602
0.405212 0.902313 0.710602
0.642395 0.902313 0.710602
0.890778 0.902313 0.710602
0.000000 0.000000 0.914581
0.184326 0.000000 0.914581
0.405212 0.000000 0.914581
0.642395 0.000000 0.914581
0.890778 0.000000 0.914581
0.000000 0.222443 0.914581
0.184326 0.222443 0.914581
0.405212 0.222443 0.914581
0.642395 0.222443 0.914581
0.890778 0.222443 0.914581
0.000000 0.447998 0.914581
0.184326 0.447998 0.914581
0.405212 0.447998 0.914581
0.642395 0.447998 0.914581
0.890778 0.447998 0.914581
0.000000 0.674774 0.914581
0.184326 0.674774 0.914581
0.405212 0.674774 0.914581
0.642395 0.674774 0.914581
0.890778 0.674774 0.914581
0.000000 0.902313 0.914581
0.184326 0.902313 0.914581
0.405212 0.902313 0.914581
0.642395 0.902313 0.914581
0.890778 0.902313 0.914581
