public/luts/ABB EB CLAIRE R&D 10-1.CUBE
#Created by: Adobe Photoshop Export Color Lookup Plugin
TITLE "ABB EB CLAIRE R&D 10-1.psd"
#LUT size
LUT_3D_SIZE 5
#data domain
#LUT data points
DOMAIN_MIN 0.000000 0.000000 0.000000
DOMAIN_MAX 0.903226 0.903226 0.903226
0.000000 0.000000 0.000000
0.245636 0.000000 0.000000
0.472382 0.000000 0.000000
0.692535 0.000000 0.000000
0.908447 0.000000 0.000000
0.000000 0.205353 0.000000
0.245636 0.205353 0.000000
0.472382 0.205353 0.000000
0.692535 0.205353 0.000000
0.908447 0.205353 0.000000
0.000000 0.429260 0.000000
0.245636 0.429260 0.000000
0.472382 0.429260 0.000000
0.692535 0.429260 0.000000
0.908447 0.429260 0.000000
0.000000 0.660797 0.000000
0.245636 0.660797 0.000000
0.472382 0.660797 0.000000
0.692535 0.660797 0.000000
0.908447 0.660797 0.000000
0.000000 0.897400 0.000000
0.245636 0.897400 0.000000
0.472382 0.897400 0.000000
0.692535 0.897400 0.000000
0.908447 0.897400 0.000000
0.000000 0.000000 0.229156
0.245636 0.000000 0.229156
0.472382 0.000000 0.229156
0.692535 0.000000 0.229156
0.908447 0.000000 0.229156
0.000000 0.205353 0.229156
0.245636 0.205353 0.229156
0.472382 0.205353 0.229156
0.692535 0.205353 0.229156
0.908447 0.205353 0.229156
0.000000 0.429260 0.229156
0.245636 0.429260 0.229156
0.472382 0.429260 0.229156
0.692535 0.429260 0.229156
0.908447 0.429260 0.229156
0.000000 0.660797 0.229156
0.245636 0.660797 0.229156
0.472382 0.660797 0.229156
0.692535 0.660797 0.229156
0.908447 0.660797 0.229156
0.000000 0.897400 0.229156
0.245636 0.897400 0.229156
0.472382 0.897400 0.229156
0.692535 0.897400 0.229156
0.908447 0.897400 0.229156
0.000000 0.000000 0.455170
0.245636 0.000000 0.455170
0.472382 0.000000 0.455170
0.692535 0.000000 0.455170
0.908447 0.000000 0.455170
0.000000 0.205353 0.455170
0.245636 0.205353 0.455170
0.472382 0.205353 0.455170
0.692535 0.205353 0.455170
0.908447 0.205353 0.455170
0.000000 0.429260 0.455170
0.245636 0.429260 0.455170
0.472382 0.429260 0.455170
0.692535 0.429260 0.455170
0.908447 0.429260 0.455170
0.000000 0.660797 0.455170
0.245636 0.660797 0.455170
0.472382 0.660797 0.455170
0.692535 0.660797 0.455170
0.908447 0.660797 0.455170
0.000000 0.897400 0.455170
0.245636 0.897400 0.455170
0.472382 0.897400 0.455170
0.692535 0.897400 0.455170
0.908447 0.897400 0.455170
0.000000 0.000000 0.680054
0.245636 0.000000 0.680054
0.472382 0.000000 0.680054
0.692535 0.000000 0.680054
0.908447 0.000000 0.680054
0.000000 0.205353 0.680054
0.245636 0.205353 0.680054
0.472382 0.205353 0.680054
0.692535 0.205353 0.680054
0.908447 0.205353 0.680054
0.000000 0.429260 0.680054
0.245636 0.429260 0.680054
0.472382 0.429260 0.680054
0.692535 0.429260 0.680054
0.908447 0.429260 0.680054
0.000000 0.660797 0.680054
0.245636 0.660797 0.680054
0.472382 0.660797 0.680054
0.692535 0.660797 0.680054
0.908447 0.660797 0.680054
0.000000 0.897400 0.680054
0.245636 0.897400 0.680054
0.472382 0.897400 0.680054
0.692535 0.897400 0.680054
0.908447 0.897400 0.680054
0.000000 0.000000 0.904144
0.245636 0.000000 0.904144
0.472382 0.000000 0.904144
0.692535 0.000000 0.904144
0.908447 0.000000 0.904144
0.000000 0.205353 0.904144
0.245636 0.205353 0.904144
0.472382 0.205353 0.904144
0.692535 0.205353 0.904144
0.908447 0.205353 0.904144
0.000000 0.429260 0.904144
0.245636 0.429260 0.904144
0.472382 0.429260 0.904144
0.692535 0.429260 0.904144
0.908447 0.429260 0.904144
0.000000 0.660797 0.904144
0.245636 0.660797 0.904144
0.472382 0.660797 0.904144
0.692535 0.660797 0.904144
0.908447 0.660797 0.904144
0.000000 0.897400 0.904144
0.245636 0.897400 0.904144
0.472382 0.897400 0.904144
0.692535 0.897400 0.904144
0.908447 0.897400 0.904144
