public/luts/ABB EB CLAIRE R&D 10-1.CUBE
#Created by: Adobe Photoshop Export Color Lookup Plugin
TITLE "ABB EB CLAIRE R&D 10-1.psd"
#LUT size
LUT_3D_SIZE 32
#data domain
DOMAIN_MIN 0.0 0.0 0.0
DOMAIN_MAX 1.0 1.0 1.0
#LUT data points
0.000000 0.000000 0.000000
0.039185 0.000000 0.000000
0.075348 0.000000 0.000000
0.110443 0.000000 0.000000
0.144897 0.000000 0.000000
0.178833 0.000000 0.000000
0.212402 0.000000 0.000000
0.245636 0.000000 0.000000
0.278625 0.000000 0.000000
0.311371 0.000000 0.000000
0.343903 0.000000 0.000000
0.376251 0.000000 0.000000
0.408447 0.000000 0.000000
0.440491 0.000000 0.000000
0.472382 0.000000 0.000000
0.504150 0.000000 0.000000
0.535828 0.000000 0.000000
0.567383 0.000000 0.000000
0.598816 0.000000 0.000000
0.630127 0.000000 0.000000
0.661377 0.000000 0.000000
0.692535 0.000000 0.000000
0.723602 0.000000 0.000000
0.754578 0.000000 0.000000
0.785492 0.000000 0.000000
0.816345 0.000000 0.000000
0.847107 0.000000 0.000000
0.877808 0.000000 0.000000
0.908447 0.000000 0.000000
0.939026 0.000000 0.000000
0.969543 0.000000 0.000000
1.000000 0.000000 0.000000
0.000000 0.025909 0.000000
0.039185 0.025909 0.000000
0.075348 0.025909 0.000000
0.110443 0.025909 0.000000
0.144897 0.025909 0.000000
0.178833 0.025909 0.000000
0.212402 0.025909 0.000000
0.245636 0.025909 0.000000
0.278625 0.025909 0.000000
0.311371 0.025909 0.000000
0.343903 0.025909 0.000000
0.376251 0.025909 0.000000
0.408447 0.025909 0.000000
0.440491 0.025909 0.000000
0.472382 0.025909 0.000000
0.504150 0.025909 0.000000
0.535828 0.025909 0.000000
0.567383 0.025909 0.000000
0.598816 0.025909 0.000000
0.630127 0.025909 0.000000
0.661377 0.025909 0.000000
0.692535 0.025909 0.000000
0.723602 0.025909 0.000000
0.754578 0.025909 0.000000
0.785492 0.025909 0.000000
0.816345 0.025909 0.000000
0.847107 0.025909 0.000000
0.877808 0.025909 0.000000
0.908447 0.025909 0.000000
0.939026 0.025909 0.000000
0.969543 0.025909 0.000000
1.000000 0.025909 0.000000
0.000000 0.054169 0.000000
0.039185 0.054169 0.000000
0.075348 0.054169 0.000000
0.110443 0.054169 0.000000
0.144897 0.054169 0.000000
0.178833 0.054169 0.000000
0.212402 0.054169 0.000000
0.245636 0.054169 0.000000
0.278625 0.054169 0.000000
0.311371 0.054169 0.000000
0.343903 0.054169 0.000000
0.376251 0.054169 0.000000
0.408447 0.054169 0.000000
0.440491 0.054169 0.000000
0.472382 0.054169 0.000000
0.504150 0.054169 0.000000
0.535828 0.054169 0.000000
0.567383 0.054169 0.000000
0.598816 0.054169 0.000000
0.630127 0.054169 0.000000
0.661377 0.054169 0.000000
0.692535 0.054169 0.000000
0.723602 0.054169 0.000000
0.754578 0.054169 0.000000
0.785492 0.054169 0.000000
0.816345 0.054169 0.000000
0.847107 0.054169 0.000000
0.877808 0.054169 0.000000
0.908447 0.054169 0.000000
0.939026 0.054169 0.000000
0.969543 0.054169 0.000000
1.000000 0.054169 0.000000
0.000000 0.083374 0.000000
0.039185 0.083374 0.000000
0.075348 0.083374 0.000000
0.110443 0.083374 0.000000
0.144897 0.083374 0.000000
0.178833 0.083374 0.000000
0.212402 0.083374 0.000000
0.245636 0.083374 0.000000
0.278625 0.083374 0.000000
0.311371 0.083374 0.000000
0.343903 0.083374 0.000000
0.376251 0.083374 0.000000
0.408447 0.083374 0.000000
0.440491 0.083374 0.000000
0.472382 0.083374 0.000000
0.504150 0.083374 0.000000
0.535828 0.083374 0.000000
0.567383 0.083374 0.000000
0.598816 0.083374 0.000000
0.630127 0.083374 0.000000
0.661377 0.083374 0.000000
0.692535 0.083374 0.000000
0.723602 0.083374 0.000000
0.754578 0.083374 0.000000
0.785492 0.083374 0.000000
0.816345 0.083374 0.000000
0.847107 0.083374 0.000000
0.877808 0.083374 0.000000
0.908447 0.083374 0.000000
0.939026 0.083374 0.000000
0.969543 0.083374 0.000000
1.000000 0.083374 0.000000
0.000000 0.113220 0.000000
0.039185 0.113220 0.000000
0.075348 0.113220 0.000000
0.110443 0.113220 0.000000
0.144897 0.113220 0.000000
0.178833 0.113220 0.000000
0.212402 0.113220 0.000000
0.245636 0.113220 0.000000
0.278625 0.113220 0.000000
0.311371 0.113220 0.000000
0.343903 0.113220 0.000000
0.376251 0.113220 0.000000
0.408447 0.113220 0.000000
0.440491 0.113220 0.000000
0.472382 0.113220 0.000000
0.504150 0.113220 0.000000
0.535828 0.113220 0.000000
0.567383 0.113220 0.000000
0.598816 0.113220 0.000000
0.630127 0.113220 0.000000
0.661377 0.113220 0.000000
0.692535 0.113220 0.000000
0.723602 0.113220 0.000000
0.754578 0.113220 0.000000
0.785492 0.113220 0.000000
0.816345 0.113220 0.000000
0.847107 0.113220 0.000000
0.877808 0.113220 0.000000
0.908447 0.113220 0.000000
0.939026 0.113220 0.000000
0.969543 0.113220 0.000000
1.000000 0.113220 0.000000
0.000000 0.143555 0.000000
0.039185 0.143555 0.000000
0.075348 0.143555 0.000000
0.110443 0.143555 0.000000
0.144897 0.143555 0.000000
0.178833 0.143555 0.000000
0.212402 0.143555 0.000000
0.245636 0.143555 0.000000
0.278625 0.143555 0.000000
0.311371 0.143555 0.000000
0.343903 0.143555 0.000000
0.376251 0.143555 0.000000
0.408447 0.143555 0.000000
0.440491 0.143555 0.000000
0.472382 0.143555 0.000000
0.504150 0.143555 0.000000
0.535828 0.143555 0.000000
0.567383 0.143555 0.000000
0.598816 0.143555 0.000000
0.630127 0.143555 0.000000
0.661377 0.143555 0.000000
0.692535 0.143555 0.000000
0.723602 0.143555 0.000000
0.754578 0.143555 0.000000
0.785492 0.143555 0.000000
0.816345 0.143555 0.000000
0.847107 0.143555 0.000000
0.877808 0.143555 0.000000
0.908447 0.143555 0.000000
0.939026 0.143555 0.000000
0.969543 0.143555 0.000000
1.000000 0.143555 0.000000
0.000000 0.174286 0.000000
0.039185 0.174286 0.000000
0.075348 0.174286 0.000000
0.110443 0.174286 0.000000
0.144897 0.174286 0.000000
0.178833 0.174286 0.000000
0.212402 0.174286 0.000000
0.245636 0.174286 0.000000
0.278625 0.174286 0.000000
0.311371 0.174286 0.000000
0.343903 0.174286 0.000000
0.376251 0.174286 0.000000
0.408447 0.174286 0.000000
0.440491 0.174286 0.000000
0.472382 0.174286 0.000000
0.504150 0.174286 0.000000
0.535828 0.174286 0.000000
0.567383 0.174286 0.000000
0.598816 0.174286 0.000000
0.630127 0.174286 0.000000
0.661377 0.174286 0.000000
0.692535 0.174286 0.000000
0.723602 0.174286 0.000000
0.754578 0.174286 0.000000
0.785492 0.174286 0.000000
0.816345 0.174286 0.000000
0.847107 0.174286 0.000000
0.877808 0.174286 0.000000
0.908447 0.174286 0.000000
0.939026 0.174286 0.000000
0.969543 0.174286 0.000000
1.000000 0.174286 0.000000
0.000000 0.205353 0.000000
0.039185 0.205353 0.000000
0.075348 0.205353 0.000000
0.110443 0.205353 0.000000
0.144897 0.205353 0.000000
0.178833 0.205353 0.000000
0.212402 0.205353 0.000000
0.245636 0.205353 0.000000
0.278625 0.205353 0.000000
0.311371 0.205353 0.000000
0.343903 0.205353 0.000000
0.376251 0.205353 0.000000
0.408447 0.205353 0.000000
0.440491 0.205353 0.000000
0.472382 0.205353 0.000000
0.504150 0.205353 0.000000
0.535828 0.205353 0.000000
0.567383 0.205353 0.000000
0.598816 0.205353 0.000000
0.630127 0.205353 0.000000
0.661377 0.205353 0.000000
0.692535 0.205353 0.000000
0.723602 0.205353 0.000000
0.754578 0.205353 0.000000
0.785492 0.205353 0.000000
0.816345 0.205353 0.000000
0.847107 0.205353 0.000000
0.877808 0.205353 0.000000
0.908447 0.205353 0.000000
0.939026 0.205353 0.000000
0.969543 0.205353 0.000000
1.000000 0.205353 0.000000
0.000000 0.236694 0.000000
0.039185 0.236694 0.000000
0.075348 0.236694 0.000000
0.110443 0.236694 0.000000
0.144897 0.236694 0.000000
0.178833 0.236694 0.000000
0.212402 0.236694 0.000000
0.245636 0.236694 0.000000
0.278625 0.236694 0.000000
0.311371 0.236694 0.000000
0.343903 0.236694 0.000000
0.376251 0.236694 0.000000
0.408447 0.236694 0.000000
0.440491 0.236694 0.000000
0.472382 0.236694 0.000000
0.504150 0.236694 0.000000
0.535828 0.236694 0.000000
0.567383 0.236694 0.000000
0.598816 0.236694 0.000000
0.630127 0.236694 0.000000
0.661377 0.236694 0.000000
0.692535 0.236694 0.000000
0.723602 0.236694 0.000000
0.754578 0.236694 0.000000
0.785492 0.236694 0.000000
0.816345 0.236694 0.000000
0.847107 0.236694 0.000000
0.877808 0.236694 0.000000
0.908447 0.236694 0.000000
0.939026 0.236694 0.000000
0.969543 0.236694 0.000000
1.000000 0.236694 0.000000
0.000000 0.268280 0.000000
0.039185 0.268280 0.000000
0.075348 0.268280 0.000000
0.110443 0.268280 0.000000
0.144897 0.268280 0.000000
0.178833 0.268280 0.000000
0.212402 0.268280 0.000000
0.245636 0.268280 0.000000
0.278625 0.268280 0.000000
0.311371 0.268280 0.000000
0.343903 0.268280 0.000000
0.376251 0.268280 0.000000
0.408447 0.268280 0.000000
0.440491 0.268280 0.000000
0.472382 0.268280 0.000000
0.504150 0.268280 0.000000
0.535828 0.268280 0.000000
0.567383 0.268280 0.000000
0.598816 0.268280 0.000000
0.630127 0.268280 0.000000
0.661377 0.268280 0.000000
0.692535 0.268280 0.000000
0.723602 0.268280 0.000000
0.754578 0.268280 0.000000
0.785492 0.268280 0.000000
0.816345 0.268280 0.000000
0.847107 0.268280 0.000000
0.877808 0.268280 0.000000
0.908447 0.268280 0.000000
0.939026 0.268280 0.000000
0.969543 0.268280 0.000000
1.000000 0.268280 0.000000
0.000000 0.300110 0.000000
0.039185 0.300110 0.000000
0.075348 0.300110 0.000000
0.110443 0.300110 0.000000
0.144897 0.300110 0.000000
0.178833 0.300110 0.000000
0.212402 0.300110 0.000000
0.245636 0.300110 0.000000
0.278625 0.300110 0.000000
0.311371 0.300110 0.000000
0.343903 0.300110 0.000000
0.376251 0.300110 0.000000
0.408447 0.300110 0.000000
0.440491 0.300110 0.000000
0.472382 0.300110 0.000000
0.504150 0.300110 0.000000
0.535828 0.300110 0.000000
0.567383 0.300110 0.000000
0.598816 0.300110 0.000000
0.630127 0.300110 0.000000
0.661377 0.300110 0.000000
0.692535 0.300110 0.000000
0.723602 0.300110 0.000000
0.754578 0.300110 0.000000
0.785492 0.300110 0.000000
0.816345 0.300110 0.000000
0.847107 0.300110 0.000000
0.877808 0.300110 0.000000
0.908447 0.300110 0.000000
0.939026 0.300110 0.000000
0.969543 0.300110 0.000000
1.000000 0.300110 0.000000
0.000000 0.332123 0.000000
0.039185 0.332123 0.000000
0.075348 0.332123 0.000000
0.110443 0.332123 0.000000
0.144897 0.332123 0.000000
0.178833 0.332123 0.000000
0.212402 0.332123 0.000000
0.245636 0.332123 0.000000
0.278625 0.332123 0.000000
0.311371 0.332123 0.000000
0.343903 0.332123 0.000000
0.376251 0.332123 0.000000
0.408447 0.332123 0.000000
0.440491 0.332123 0.000000
0.472382 0.332123 0.000000
0.504150 0.332123 0.000000
0.535828 0.332123 0.000000
0.567383 0.332123 0.000000
0.598816 0.332123 0.000000
0.630127 0.332123 0.000000
0.661377 0.332123 0.000000
0.692535 0.332123 0.000000
0.723602 0.332123 0.000000
0.754578 0.332123 0.000000
0.785492 0.332123 0.000000
0.816345 0.332123 0.000000
0.847107 0.332123 0.000000
0.877808 0.332123 0.000000
0.908447 0.332123 0.000000
0.939026 0.332123 0.000000
0.969543 0.332123 0.000000
1.000000 0.332123 0.000000
0.000000 0.364319 0.000000
0.039185 0.364319 0.000000
0.075348 0.364319 0.000000
0.110443 0.364319 0.000000
0.144897 0.364319 0.000000
0.178833 0.364319 0.000000
0.212402 0.364319 0.000000
0.245636 0.364319 0.000000
0.278625 0.364319 0.000000
0.311371 0.364319 0.000000
0.343903 0.364319 0.000000
0.376251 0.364319 0.000000
0.408447 0.364319 0.000000
0.440491 0.364319 0.000000
0.472382 0.364319 0.000000
0.504150 0.364319 0.000000
0.535828 0.364319 0.000000
0.567383 0.364319 0.000000
0.598816 0.364319 0.000000
0.630127 0.364319 0.000000
0.661377 0.364319 0.000000
0.692535 0.364319 0.000000
0.723602 0.364319 0.000000
0.754578 0.364319 0.000000
0.785492 0.364319 0.000000
0.816345 0.364319 0.000000
0.847107 0.364319 0.000000
0.877808 0.364319 0.000000
0.908447 0.364319 0.000000
0.939026 0.364319 0.000000
0.969543 0.364319 0.000000
1.000000 0.364319 0.000000
0.000000 0.396729 0.000000
0.039185 0.396729 0.000000
0.075348 0.396729 0.000000
0.110443 0.396729 0.000000
0.144897 0.396729 0.000000
0.178833 0.396729 0.000000
0.212402 0.396729 0.000000
0.245636 0.396729 0.000000
0.278625 0.396729 0.000000
0.311371 0.396729 0.000000
0.343903 0.396729 0.000000
0.376251 0.396729 0.000000
0.408447 0.396729 0.000000
0.440491 0.396729 0.000000
0.472382 0.396729 0.000000
0.504150 0.396729 0.000000
0.535828 0.396729 0.000000
0.567383 0.396729 0.000000
0.598816 0.396729 0.000000
0.630127 0.396729 0.000000
0.661377 0.396729 0.000000
0.692535 0.396729 0.000000
0.723602 0.396729 0.000000
0.754578 0.396729 0.000000
0.785492 0.396729 0.000000
0.816345 0.396729 0.000000
0.847107 0.396729 0.000000
0.877808 0.396729 0.000000
0.908447 0.396729 0.000000
0.939026 0.396729 0.000000
0.969543 0.396729 0.000000
1.000000 0.396729 0.000000
0.000000 0.429260 0.000000
0.039185 0.429260 0.000000
0.075348 0.429260 0.000000
0.110443 0.429260 0.000000
0.144897 0.429260 0.000000
0.178833 0.429260 0.000000
0.212402 0.429260 0.000000
0.245636 0.429260 0.000000
0.278625 0.429260 0.000000
0.311371 0.429260 0.000000
0.343903 0.429260 0.000000
0.376251 0.429260 0.000000
0.408447 0.429260 0.000000
0.440491 0.429260 0.000000
0.472382 0.429260 0.000000
0.504150 0.429260 0.000000
0.535828 0.429260 0.000000
0.567383 0.429260 0.000000
0.598816 0.429260 0.000000
0.630127 0.429260 0.000000
0.661377 0.429260 0.000000
0.692535 0.429260 0.000000
0.723602 0.429260 0.000000
0.754578 0.429260 0.000000
0.785492 0.429260 0.000000
0.816345 0.429260 0.000000
0.847107 0.429260 0.000000
0.877808 0.429260 0.000000
0.908447 0.429260 0.000000
0.939026 0.429260 0.000000
0.969543 0.429260 0.000000
1.000000 0.429260 0.000000
0.000000 0.461945 0.000000
0.039185 0.461945 0.000000
0.075348 0.461945 0.000000
0.110443 0.461945 0.000000
0.144897 0.461945 0.000000
0.178833 0.461945 0.000000
0.212402 0.461945 0.000000
0.245636 0.461945 0.000000
0.278625 0.461945 0.000000
0.311371 0.461945 0.000000
0.343903 0.461945 0.000000
0.376251 0.461945 0.000000
0.408447 0.461945 0.000000
0.440491 0.461945 0.000000
0.472382 0.461945 0.000000
0.504150 0.461945 0.000000
0.535828 0.461945 0.000000
0.567383 0.461945 0.000000
0.598816 0.461945 0.000000
0.630127 0.461945 0.000000
0.661377 0.461945 0.000000
0.692535 0.461945 0.000000
0.723602 0.461945 0.000000
0.754578 0.461945 0.000000
0.785492 0.461945 0.000000
0.816345 0.461945 0.000000
0.847107 0.461945 0.000000
0.877808 0.461945 0.000000
0.908447 0.461945 0.000000
0.939026 0.461945 0.000000
0.969543 0.461945 0.000000
1.000000 0.461945 0.000000
0.000000 0.494812 0.000000
0.039185 0.494812 0.000000
0.075348 0.494812 0.000000
0.110443 0.494812 0.000000
0.144897 0.494812 0.000000
0.178833 0.494812 0.000000
0.212402 0.494812 0.000000
0.245636 0.494812 0.000000
0.278625 0.494812 0.000000
0.311371 0.494812 0.000000
0.343903 0.494812 0.000000
0.376251 0.494812 0.000000
0.408447 0.494812 0.000000
0.440491 0.494812 0.000000
0.472382 0.494812 0.000000
0.504150 0.494812 0.000000
0.535828 0.494812 0.000000
0.567383 0.494812 0.000000
0.598816 0.494812 0.000000
0.630127 0.494812 0.000000
0.661377 0.494812 0.000000
0.692535 0.494812 0.000000
0.723602 0.494812 0.000000
0.754578 0.494812 0.000000
0.785492 0.494812 0.000000
0.816345 0.494812 0.000000
0.847107 0.494812 0.000000
0.877808 0.494812 0.000000
0.908447 0.494812 0.000000
0.939026 0.494812 0.000000
0.969543 0.494812 0.000000
1.000000 0.494812 0.000000
0.000000 0.527771 0.000000
0.039185 0.527771 0.000000
0.075348 0.527771 0.000000
0.110443 0.527771 0.000000
0.144897 0.527771 0.000000
0.178833 0.527771 0.000000
0.212402 0.527771 0.000000
0.245636 0.527771 0.000000
0.278625 0.527771 0.000000
0.311371 0.527771 0.000000
0.343903 0.527771 0.000000
0.376251 0.527771 0.000000
0.408447 0.527771 0.000000
0.440491 0.527771 0.000000
0.472382 0.527771 0.000000
0.504150 0.527771 0.000000
0.535828 0.527771 0.000000
0.567383 0.527771 0.000000
0.598816 0.527771 0.000000
0.630127 0.527771 0.000000
0.661377 0.527771 0.000000
0.692535 0.527771 0.000000
0.723602 0.527771 0.000000
0.754578 0.527771 0.000000
0.785492 0.527771 0.000000
0.816345 0.527771 0.000000
0.847107 0.527771 0.000000
0.877808 0.527771 0.000000
0.908447 0.527771 0.000000
0.939026 0.527771 0.000000
0.969543 0.527771 0.000000
1.000000 0.527771 0.000000
0.000000 0.560852 0.000000
0.039185 0.560852 0.000000
0.075348 0.560852 0.000000
0.110443 0.560852 0.000000
0.144897 0.560852 0.000000
0.178833 0.560852 0.000000
0.212402 0.560852 0.000000
0.245636 0.560852 0.000000
0.278625 0.560852 0.000000
0.311371 0.560852 0.000000
0.343903 0.560852 0.000000
0.376251 0.560852 0.000000
0.408447 0.560852 0.000000
0.440491 0.560852 0.000000
0.472382 0.560852 0.000000
0.504150 0.560852 0.000000
0.535828 0.560852 0.000000
0.567383 0.560852 0.000000
0.598816 0.560852 0.000000
0.630127 0.560852 0.000000
0.661377 0.560852 0.000000
0.692535 0.560852 0.000000
0.723602 0.560852 0.000000
0.754578 0.560852 0.000000
0.785492 0.560852 0.000000
0.816345 0.560852 0.000000
0.847107 0.560852 0.000000
0.877808 0.560852 0.000000
0.908447 0.560852 0.000000
0.939026 0.560852 0.000000
0.969543 0.560852 0.000000
1.000000 0.560852 0.000000
0.000000 0.594055 0.000000
0.039185 0.594055 0.000000
0.075348 0.594055 0.000000
0.110443 0.594055 0.000000
0.144897 0.594055 0.000000
0.178833 0.594055 0.000000
0.212402 0.594055 0.000000
0.245636 0.594055 0.000000
0.278625 0.594055 0.000000
0.311371 0.594055 0.000000
0.343903 0.594055 0.000000
0.376251 0.594055 0.000000
0.408447 0.594055 0.000000
0.440491 0.594055 0.000000
0.472382 0.594055 0.000000
0.504150 0.594055 0.000000
0.535828 0.594055 0.000000
0.567383 0.594055 0.000000
0.598816 0.594055 0.000000
0.630127 0.594055 0.000000
0.661377 0.594055 0.000000
0.692535 0.594055 0.000000
0.723602 0.594055 0.000000
0.754578 0.594055 0.000000
0.785492 0.594055 0.000000
0.816345 0.594055 0.000000
0.847107 0.594055 0.000000
0.877808 0.594055 0.000000
0.908447 0.594055 0.000000
0.939026 0.594055 0.000000
0.969543 0.594055 0.000000
1.000000 0.594055 0.000000
0.000000 0.627380 0.000000
0.039185 0.627380 0.000000
0.075348 0.627380 0.000000
0.110443 0.627380 0.000000
0.144897 0.627380 0.000000
0.178833 0.627380 0.000000
0.212402 0.627380 0.000000
0.245636 0.627380 0.000000
0.278625 0.627380 0.000000
0.311371 0.627380 0.000000
0.343903 0.627380 0.000000
0.376251 0.627380 0.000000
0.408447 0.627380 0.000000
0.440491 0.627380 0.000000
0.472382 0.627380 0.000000
0.504150 0.627380 0.000000
0.535828 0.627380 0.000000
0.567383 0.627380 0.000000
0.598816 0.627380 0.000000
0.630127 0.627380 0.000000
0.661377 0.627380 0.000000
0.692535 0.627380 0.000000
0.723602 0.627380 0.000000
0.754578 0.627380 0.000000
0.785492 0.627380 0.000000
0.816345 0.627380 0.000000
0.847107 0.627380 0.000000
0.877808 0.627380 0.000000
0.908447 0.627380 0.000000
0.939026 0.627380 0.000000
0.969543 0.627380 0.000000
1.000000 0.627380 0.000000
0.000000 0.660797 0.000000
0.039185 0.660797 0.000000
0.075348 0.660797 0.000000
0.110443 0.660797 0.000000
0.144897 0.660797 0.000000
0.178833 0.660797 0.000000
0.212402 0.660797 0.000000
0.245636 0.660797 0.000000
0.278625 0.660797 0.000000
0.311371 0.660797 0.000000
0.343903 0.660797 0.000000
0.376251 0.660797 0.000000
0.408447 0.660797 0.000000
0.440491 0.660797 0.000000
0.472382 0.660797 0.000000
0.504150 0.660797 0.000000
0.535828 0.660797 0.000000
0.567383 0.660797 0.000000
0.598816 0.660797 0.000000
0.630127 0.660797 0.000000
0.661377 0.660797 0.000000
0.692535 0.660797 0.000000
0.723602 0.660797 0.000000
0.754578 0.660797 0.000000
0.785492 0.660797 0.000000
0.816345 0.660797 0.000000
0.847107 0.660797 0.000000
0.877808 0.660797 0.000000
0.908447 0.660797 0.000000
0.939026 0.660797 0.000000
0.969543 0.660797 0.000000
1.000000 0.660797 0.000000
0.000000 0.694336 0.000000
0.039185 0.694336 0.000000
0.075348 0.694336 0.000000
0.110443 0.694336 0.000000
0.144897 0.694336 0.000000
0.178833 0.694336 0.000000
0.212402 0.694336 0.000000
0.245636 0.694336 0.000000
0.278625 0.694336 0.000000
0.311371 0.694336 0.000000
0.343903 0.694336 0.000000
0.376251 0.694336 0.000000
0.408447 0.694336 0.000000
0.440491 0.694336 0.000000
0.472382 0.694336 0.000000
0.504150 0.694336 0.000000
0.535828 0.694336 0.000000
0.567383 0.694336 0.000000
0.598816 0.694336 0.000000
0.630127 0.694336 0.000000
0.661377 0.694336 0.000000
0.692535 0.694336 0.000000
0.723602 0.694336 0.000000
0.754578 0.694336 0.000000
0.785492 0.694336 0.000000
0.816345 0.694336 0.000000
0.847107 0.694336 0.000000
0.877808 0.694336 0.000000
0.908447 0.694336 0.000000
0.939026 0.694336 0.000000
0.969543 0.694336 0.000000
1.000000 0.694336 0.000000
0.000000 0.727936 0.000000
0.039185 0.727936 0.000000
0.075348 0.727936 0.000000
0.110443 0.727936 0.000000
0.144897 0.727936 0.000000
0.178833 0.727936 0.000000
0.212402 0.727936 0.000000
0.245636 0.727936 0.000000
0.278625 0.727936 0.000000
0.311371 0.727936 0.000000
0.343903 0.727936 0.000000
0.376251 0.727936 0.000000
0.408447 0.727936 0.000000
0.440491 0.727936 0.000000
0.472382 0.727936 0.000000
0.504150 0.727936 0.000000
0.535828 0.727936 0.000000
0.567383 0.727936 0.000000
0.598816 0.727936 0.000000
0.630127 0.727936 0.000000
0.661377 0.727936 0.000000
0.692535 0.727936 0.000000
0.723602 0.727936 0.000000
0.754578 0.727936 0.000000
0.785492 0.727936 0.000000
0.816345 0.727936 0.000000
0.847107 0.727936 0.000000
0.877808 0.727936 0.000000
0.908447 0.727936 0.000000
0.939026 0.727936 0.000000
0.969543 0.727936 0.000000
1.000000 0.727936 0.000000
0.000000 0.761658 0.000000
0.039185 0.761658 0.000000
0.075348 0.761658 0.000000
0.110443 0.761658 0.000000
0.144897 0.761658 0.000000
0.178833 0.761658 0.000000
0.212402 0.761658 0.000000
0.245636 0.761658 0.000000
0.278625 0.761658 0.000000
0.311371 0.761658 0.000000
0.343903 0.761658 0.000000
0.376251 0.761658 0.000000
0.408447 0.761658 0.000000
0.440491 0.761658 0.000000
0.472382 0.761658 0.000000
0.504150 0.761658 0.000000
0.535828 0.761658 0.000000
0.567383 0.761658 0.000000
0.598816 0.761658 0.000000
0.630127 0.761658 0.000000
0.661377 0.761658 0.000000
0.692535 0.761658 0.000000
0.723602 0.761658 0.000000
0.754578 0.761658 0.000000
0.785492 0.761658 0.000000
0.816345 0.761658 0.000000
0.847107 0.761658 0.000000
0.877808 0.761658 0.000000
0.908447 0.761658 0.000000
0.939026 0.761658 0.000000
0.969543 0.761658 0.000000
1.000000 0.761658 0.000000
0.000000 0.795471 0.000000
0.039185 0.795471 0.000000
0.075348 0.795471 0.000000
0.110443 0.795471 0.000000
0.144897 0.795471 0.000000
0.178833 0.795471 0.000000
0.212402 0.795471 0.000000
0.245636 0.795471 0.000000
0.278625 0.795471 0.000000
0.311371 0.795471 0.000000
0.343903 0.795471 0.000000
0.376251 0.795471 0.000000
0.408447 0.795471 0.000000
0.440491 0.795471 0.000000
0.472382 0.795471 0.000000
0.504150 0.795471 0.000000
0.535828 0.795471 0.000000
0.567383 0.795471 0.000000
0.598816 0.795471 0.000000
0.630127 0.795471 0.000000
0.661377 0.795471 0.000000
0.692535 0.795471 0.000000
0.723602 0.795471 0.000000
0.754578 0.795471 0.000000
0.785492 0.795471 0.000000
0.816345 0.795471 0.000000
0.847107 0.795471 0.000000
0.877808 0.795471 0.000000
0.908447 0.795471 0.000000
0.939026 0.795471 0.000000
0.969543 0.795471 0.000000
1.000000 0.795471 0.000000
0.000000 0.829346 0.000000
0.039185 0.829346 0.000000
0.075348 0.829346 0.000000
0.110443 0.829346 0.000000
0.144897 0.829346 0.000000
0.178833 0.829346 0.000000
0.212402 0.829346 0.000000
0.245636 0.829346 0.000000
0.278625 0.829346 0.000000
0.311371 0.829346 0.000000
0.343903 0.829346 0.000000
0.376251 0.829346 0.000000
0.408447 0.829346 0.000000
0.440491 0.829346 0.000000
0.472382 0.829346 0.000000
0.504150 0.829346 0.000000
0.535828 0.829346 0.000000
0.567383 0.829346 0.000000
0.598816 0.829346 0.000000
0.630127 0.829346 0.000000
0.661377 0.829346 0.000000
0.692535 0.829346 0.000000
0.723602 0.829346 0.000000
0.754578 0.829346 0.000000
0.785492 0.829346 0.000000
0.816345 0.829346 0.000000
0.847107 0.829346 0.000000
0.877808 0.829346 0.000000
0.908447 0.829346 0.000000
0.939026 0.829346 0.000000
0.969543 0.829346 0.000000
1.000000 0.829346 0.000000
0.000000 0.863342 0.000000
0.039185 0.863342 0.000000
0.075348 0.863342 0.000000
0.110443 0.863342 0.000000
0.144897 0.863342 0.000000
0.178833 0.863342 0.000000
0.212402 0.863342 0.000000
0.245636 0.863342 0.000000
0.278625 0.863342 0.000000
0.311371 0.863342 0.000000
0.343903 0.863342 0.000000
0.376251 0.863342 0.000000
0.408447 0.863342 0.000000
0.440491 0.863342 0.000000
0.472382 0.863342 0.000000
0.504150 0.863342 0.000000
0.535828 0.863342 0.000000
