public/luts/AdobeStock_494126285-Large.CUBE
#Created by: Adobe Photoshop Export Color Lookup Plugin
TITLE "AdobeStock_494126285-Large.psd"
#LUT size
LUT_3D_SIZE 8
#data domain
#LUT data points
DOMAIN_MIN 0.000000 0.000000 0.000000
DOMAIN_MAX 0.903226 0.903226 0.903226
0.000000 0.000000 0.000000
0.079803 0.000000 0.000000
0.187805 0.000000 0.000000
0.309814 0.000000 0.000000
0.441986 0.000000 0.000000
0.582153 0.000000 0.000000
0.729095 0.000000 0.000000
0.881927 0.000000 0.000000
0.000000 0.131683 0.000000
0.079803 0.131683 0.000000
0.187805 0.131683 0.000000
0.309814 0.131683 0.000000
0.441986 0.131683 0.000000
0.582153 0.131683 0.000000
0.729095 0.131683 0.000000
0.881927 0.131683 0.000000
0.000000 0.261536 0.000000
0.079803 0.261536 0.000000
0.187805 0.261536 0.000000
0.309814 0.261536 0.000000
0.441986 0.261536 0.000000
0.582153 0.261536 0.000000
0.729095 0.261536 0.000000
0.881927 0.261536 0.000000
0.000000 0.390747 0.000000
0.079803 0.390747 0.000000
0.187805 0.390747 0.000000
0.309814 0.390747 0.000000
0.441986 0.390747 0.000000
0.582153 0.390747 0.000000
0.729095 0.390747 0.000000
0.881927 0.390747 0.000000
0.000000 0.519531 0.000000
0.079803 0.519531 0.000000
0.187805 0.519531 0.000000
0.309814 0.519531 0.000000
0.441986 0.519531 0.000000
0.582153 0.519531 0.000000
0.729095 0.519531 0.000000
0.881927 0.519531 0.000000
0.000000 0.647980 0.000000
0.079803 0.647980 0.000000
0.187805 0.647980 0.000000
0.309814 0.647980 0.000000
0.441986 0.647980 0.000000
0.582153 0.647980 0.000000
0.729095 0.647980 0.000000
0.881927 0.647980 0.000000
0.000000 0.776154 0.000000
0.079803 0.776154 0.000000
0.187805 0.776154 0.000000
0.309814 0.776154 0.000000
0.441986 0.776154 0.000000
0.582153 0.776154 0.000000
0.729095 0.776154 0.000000
0.881927 0.776154 0.000000
0.000000 0.904144 0.000000
0.079803 0.904144 0.000000
0.187805 0.904144 0.000000
0.309814 0.904144 0.000000
0.441986 0.904144 0.000000
0.582153 0.904144 0.000000
0.729095 0.904144 0.000000
0.881927 0.904144 0.000000
0.000000 0.000000 0.186676
0.079803 0.000000 0.186676
0.187805 0.000000 0.186676
0.309814 0.000000 0.186676
0.441986 0.000000 0.186676
0.582153 0.000000 0.186676
0.729095 0.000000 0.186676
0.881927 0.000000 0.186676
0.000000 0.131683 0.186676
0.079803 0.131683 0.186676
0.187805 0.131683 0.186676
0.309814 0.131683 0.186676
0.441986 0.131683 0.186676
0.582153 0.131683 0.186676
0.729095 0.131683 0.186676
0.881927 0.131683 0.186676
0.000000 0.261536 0.186676
0.079803 0.261536 0.186676
0.187805 0.261536 0.186676
0.309814 0.261536 0.186676
0.441986 0.261536 0.186676
0.582153 0.261536 0.186676
0.729095 0.261536 0.186676
0.881927 0.261536 0.186676
0.000000 0.390747 0.186676
0.079803 0.390747 0.186676
0.187805 0.390747 0.186676
0.309814 0.390747 0.186676
0.441986 0.390747 0.186676
0.582153 0.390747 0.186676
0.729095 0.390747 0.186676
0.881927 0.390747 0.186676
0.000000 0.519531 0.186676
0.079803 0.519531 0.186676
0.187805 0.519531 0.186676
0.309814 0.519531 0.186676
0.441986 0.519531 0.186676
0.582153 0.519531 0.186676
0.729095 0.519531 0.186676
0.881927 0.519531 0.186676
0.000000 0.647980 0.186676
0.079803 0.647980 0.186676
0.187805 0.647980 0.186676
0.309814 0.647980 0.186676
0.441986 0.647980 0.186676
0.582153 0.647980 0.186676
0.729095 0.647980 0.186676
0.881927 0.647980 0.186676
0.000000 0.776154 0.186676
0.079803 0.776154 0.186676
0.187805 0.776154 0.186676
0.309814 0.776154 0.186676
0.441986 0.776154 0.186676
0.582153 0.776154 0.186676
0.729095 0.776154 0.186676
0.881927 0.776154 0.186676
0.000000 0.904144 0.186676
0.079803 0.904144 0.186676
0.187805 0.904144 0.186676
0.309814 0.904144 0.186676
0.441986 0.904144 0.186676
0.582153 0.904144 0.186676
0.729095 0.904144 0.186676
0.881927 0.904144 0.186676
0.000000 0.000000 0.329468
0.079803 0.000000 0.329468
0.187805 0.000000 0.329468
0.309814 0.000000 0.329468
0.441986 0.000000 0.329468
0.582153 0.000000 0.329468
0.729095 0.000000 0.329468
0.881927 0.000000 0.329468
0.000000 0.131683 0.329468
0.079803 0.131683 0.329468
0.187805 0.131683 0.329468
0.309814 0.131683 0.329468
0.441986 0.131683 0.329468
0.582153 0.131683 0.329468
0.729095 0.131683 0.329468
0.881927 0.131683 0.329468
0.000000 0.261536 0.329468
0.079803 0.261536 0.329468
0.187805 0.261536 0.329468
0.309814 0.261536 0.329468
0.441986 0.261536 0.329468
0.582153 0.261536 0.329468
0.729095 0.261536 0.329468
0.881927 0.261536 0.329468
0.000000 0.390747 0.329468
0.079803 0.390747 0.329468
0.187805 0.390747 0.329468
0.309814 0.390747 0.329468
0.441986 0.390747 0.329468
0.582153 0.390747 0.329468
0.729095 0.390747 0.329468
0.881927 0.390747 0.329468
0.000000 0.519531 0.329468
0.079803 0.519531 0.329468
0.187805 0.519531 0.329468
0.309814 0.519531 0.329468
0.441986 0.519531 0.329468
0.582153 0.519531 0.329468
0.729095 0.519531 0.329468
0.881927 0.519531 0.329468
0.000000 0.647980 0.329468
0.079803 0.647980 0.329468
0.187805 0.647980 0.329468
0.309814 0.647980 0.329468
0.441986 0.647980 0.329468
0.582153 0.647980 0.329468
0.729095 0.647980 0.329468
0.881927 0.647980 0.329468
0.000000 0.776154 0.329468
0.079803 0.776154 0.329468
0.187805 0.776154 0.329468
0.309814 0.776154 0.329468
0.441986 0.776154 0.329468
0.582153 0.776154 0.329468
0.729095 0.776154 0.329468
0.881927 0.776154 0.329468
0.000000 0.904144 0.329468
0.079803 0.904144 0.329468
0.187805 0.904144 0.329468
0.309814 0.904144 0.329468
0.441986 0.904144 0.329468
0.582153 0.904144 0.329468
0.729095 0.904144 0.329468
0.881927 0.904144 0.329468
0.000000 0.000000 0.459351
0.079803 0.000000 0.459351
0.187805 0.000000 0.459351
0.309814 0.000000 0.459351
0.441986 0.000000 0.459351
0.582153 0.000000 0.459351
0.729095 0.000000 0.459351
0.881927 0.000000 0.459351
0.000000 0.131683 0.459351
0.079803 0.131683 0.459351
0.187805 0.131683 0.459351
0.309814 0.131683 0.459351
0.441986 0.131683 0.459351
0.582153 0.131683 0.459351
0.729095 0.131683 0.459351
0.881927 0.131683 0.459351
0.000000 0.261536 0.459351
0.079803 0.261536 0.459351
0.187805 0.261536 0.459351
0.309814 0.261536 0.459351
0.441986 0.261536 0.459351
0.582153 0.261536 0.459351
0.729095 0.261536 0.459351
0.881927 0.261536 0.459351
0.000000 0.390747 0.459351
0.079803 0.390747 0.459351
0.187805 0.390747 0.459351
0.309814 0.390747 0.459351
0.441986 0.390747 0.459351
0.582153 0.390747 0.459351
0.729095 0.390747 0.459351
0.881927 0.390747 0.459351
0.000000 0.519531 0.459351
0.079803 0.519531 0.459351
0.187805 0.519531 0.459351
0.309814 0.519531 0.459351
0.441986 0.519531 0.459351
0.582153 0.519531 0.459351
0.729095 0.519531 0.459351
0.881927 0.519531 0.459351
0.000000 0.647980 0.459351
0.079803 0.647980 0.459351
0.187805 0.647980 0.459351
0.309814 0.647980 0.459351
0.441986 0.647980 0.459351
0.582153 0.647980 0.459351
0.729095 0.647980 0.459351
0.881927 0.647980 0.459351
0.000000 0.776154 0.459351
0.079803 0.776154 0.459351
0.187805 0.776154 0.459351
0.309814 0.776154 0.459351
0.441986 0.776154 0.459351
0.582153 0.776154 0.459351
0.729095 0.776154 0.459351
0.881927 0.776154 0.459351
0.000000 0.904144 0.459351
0.079803 0.904144 0.459351
0.187805 0.904144 0.459351
0.309814 0.904144 0.459351
0.441986 0.904144 0.459351
0.582153 0.904144 0.459351
0.729095 0.904144 0.459351
0.881927 0.904144 0.459351
0.000000 0.000000 0.581512
0.079803 0.000000 0.581512
0.187805 0.000000 0.581512
0.309814 0.000000 0.581512
0.441986 0.000000 0.581512
0.582153 0.000000 0.581512
0.729095 0.000000 0.581512
0.881927 0.000000 0.581512
0.000000 0.131683 0.581512
0.079803 0.131683 0.581512
0.187805 0.131683 0.581512
0.309814 0.131683 0.581512
0.441986 0.131683 0.581512
0.582153 0.131683 0.581512
0.729095 0.131683 0.581512
0.881927 0.131683 0.581512
0.000000 0.261536 0.581512
0.079803 0.261536 0.581512
0.187805 0.261536 0.581512
0.309814 0.261536 0.581512
0.441986 0.261536 0.581512
0.582153 0.261536 0.581512
0.729095 0.261536 0.581512
0.881927 0.261536 0.581512
0.000000 0.390747 0.581512
0.079803 0.390747 0.581512
0.187805 0.390747 0.581512
0.309814 0.390747 0.581512
0.441986 0.390747 0.581512
0.582153 0.390747 0.581512
0.729095 0.390747 0.581512
0.881927 0.390747 0.581512
0.000000 0.519531 0.581512
0.079803 0.519531 0.581512
0.187805 0.519531 0.581512
0.309814 0.519531 0.581512
0.441986 0.519531 0.581512
0.582153 0.519531 0.581512
0.729095 0.519531 0.581512
0.881927 0.519531 0.581512
0.000000 0.647980 0.581512
0.079803 0.647980 0.581512
0.187805 0.647980 0.581512
0.309814 0.647980 0.581512
0.441986 0.647980 0.581512
0.582153 0.647980 0.581512
0.729095 0.647980 0.581512
0.881927 0.647980 0.581512
0.000000 0.776154 0.581512
0.079803 0.776154 0.581512
0.187805 0.776154 0.581512
0.309814 0.776154 0.581512
0.441986 0.776154 0.581512
0.582153 0.776154 0.581512
0.729095 0.776154 0.581512
0.881927 0.776154 0.581512
0.000000 0.904144 0.581512
0.079803 0.904144 0.581512
0.187805 0.904144 0.581512
0.309814 0.904144 0.581512
0.441986 0.904144 0.581512
0.582153 0.904144 0.581512
0.729095 0.904144 0.581512
0.881927 0.904144 0.581512
0.000000 0.000000 0.698212
0.079803 0.000000 0.698212
0.187805 0.000000 0.698212
0.309814 0.000000 0.698212
0.441986 0.000000 0.698212
0.582153 0.000000 0.698212
0.729095 0.000000 0.698212
0.881927 0.000000 0.698212
0.000000 0.131683 0.698212
0.079803 0.131683 0.698212
0.187805 0.131683 0.698212
0.309814 0.131683 0.698212
0.441986 0.131683 0.698212
0.582153 0.131683 0.698212
0.729095 0.131683 0.698212
0.881927 0.131683 0.698212
0.000000 0.261536 0.698212
0.079803 0.261536 0.698212
0.187805 0.261536 0.698212
0.309814 0.261536 0.698212
0.441986 0.261536 0.698212
0.582153 0.261536 0.698212
0.729095 0.261536 0.698212
0.881927 0.261536 0.698212
0.000000 0.390747 0.698212
0.079803 0.390747 0.698212
0.187805 0.390747 0.698212
0.309814 0.390747 0.698212
0.441986 0.390747 0.698212
0.582153 0.390747 0.698212
0.729095 0.390747 0.698212
0.881927 0.390747 0.698212
0.000000 0.519531 0.698212
0.079803 0.519531 0.698212
0.187805 0.519531 0.698212
0.309814 0.519531 0.698212
0.441986 0.519531 0.698212
0.582153 0.519531 0.698212
0.729095 0.519531 0.698212
0.881927 0.519531 0.698212
0.000000 0.647980 0.698212
0.079803 0.647980 0.698212
0.187805 0.647980 0.698212
0.309814 0.647980 0.698212
0.441986 0.647980 0.698212
0.582153 0.647980 0.698212
0.729095 0.647980 0.698212
0.881927 0.647980 0.698212
0.000000 0.776154 0.698212
0.079803 0.776154 0.698212
0.187805 0.776154 0.698212
0.309814 0.776154 0.698212
0.441986 0.776154 0.698212
0.582153 0.776154 0.698212
0.729095 0.776154 0.698212
0.881927 0.776154 0.698212
0.000000 0.904144 0.698212
0.079803 0.904144 0.698212
0.187805 0.904144 0.698212
0.309814 0.904144 0.698212
0.441986 0.904144 0.698212
0.582153 0.904144 0.698212
0.729095 0.904144 0.698212
0.881927 0.904144 0.698212
0.000000 0.000000 0.810760
0.079803 0.000000 0.810760
0.187805 0.000000 0.810760
0.309814 0.000000 0.810760
0.441986 0.000000 0.810760
0.582153 0.000000 0.810760
0.729095 0.000000 0.810760
0.881927 0.000000 0.810760
0.000000 0.131683 0.810760
0.079803 0.131683 0.810760
0.187805 0.131683 0.810760
0.309814 0.131683 0.810760
0.441986 0.131683 0.810760
0.582153 0.131683 0.810760
0.729095 0.131683 0.810760
0.881927 0.131683 0.810760
0.000000 0.261536 0.810760
0.079803 0.261536 0.810760
0.187805 0.261536 0.810760
0.309814 0.261536 0.810760
0.441986 0.261536 0.810760
0.582153 0.261536 0.810760
0.729095 0.261536 0.810760
0.881927 0.261536 0.810760
0.000000 0.390747 0.810760
0.079803 0.390747 0.810760
0.187805 0.390747 0.810760
0.309814 0.390747 0.810760
0.441986 0.390747 0.810760
0.582153 0.390747 0.810760
0.729095 0.390747 0.810760
0.881927 0.390747 0.810760
0.000000 0.519531 0.810760
0.079803 0.519531 0.810760
0.187805 0.519531 0.810760
0.309814 0.519531 0.810760
0.441986 0.519531 0.810760
0.582153 0.519531 0.810760
0.729095 0.519531 0.810760
0.881927 0.519531 0.810760
0.000000 0.647980 0.810760
0.079803 0.647980 0.810760
0.187805 0.647980 0.810760
0.309814 0.647980 0.810760
0.441986 0.647980 0.810760
0.582153 0.647980 0.810760
0.729095 0.647980 0.810760
0.881927 0.647980 0.810760
0.000000 0.776154 0.810760
0.079803 0.776154 0.810760
0.187805 0.776154 0.810760
0.309814 0.776154 0.810760
0.441986 0.776154 0.810760
0.582153 0.776154 0.810760
0.729095 0.776154 0.810760
0.881927 0.776154 0.810760
0.000000 0.904144 0.810760
0.079803 0.904144 0.810760
0.187805 0.904144 0.810760
0.309814 0.904144 0.810760
0.441986 0.904144 0.810760
0.582153 0.904144 0.810760
0.729095 0.904144 0.810760
0.881927 0.904144 0.810760
0.000000 0.000000 0.919952
0.079803 0.000000 0.919952
0.187805 0.000000 0.919952
0.309814 0.000000 0.919952
0.441986 0.000000 0.919952
0.582153 0.000000 0.919952
0.729095 0.000000 0.919952
0.881927 0.000000 0.919952
0.000000 0.131683 0.919952
0.079803 0.131683 0.919952
0.187805 0.131683 0.919952
0.309814 0.131683 0.919952
0.441986 0.131683 0.919952
0.582153 0.131683 0.919952
0.729095 0.131683 0.919952
0.881927 0.131683 0.919952
0.000000 0.261536 0.919952
0.079803 0.261536 0.919952
0.187805 0.261536 0.919952
0.309814 0.261536 0.919952
0.441986 0.261536 0.919952
0.582153 0.261536 0.919952
0.729095 0.261536 0.919952
0.881927 0.261536 0.919952
0.000000 0.390747 0.919952
0.079803 0.390747 0.919952
0.187805 0.390747 0.919952
0.309814 0.390747 0.919952
0.441986 0.390747 0.919952
0.582153 0.390747 0.919952
0.729095 0.390747 0.919952
0.881927 0.390747 0.919952
0.000000 0.519531 0.919952
0.079803 0.519531 0.919952
0.187805 0.519531 0.919952
0.309814 0.519531 0.919952
0.441986 0.519531 0.919952
0.582153 0.519531 0.919952
0.729095 0.519531 0.919952
0.881927 0.519531 0.919952
0.000000 0.647980 0.919952
0.079803 0.647980 0.919952
0.187805 0.647980 0.919952
0.309814 0.647980 0.919952
0.441986 0.647980 0.919952
0.582153 0.647980 0.919952
0.729095 0.647980 0.919952
0.881927 0.647980 0.919952
0.000000 0.776154 0.919952
0.079803 0.776154 0.919952
0.187805 0.776154 0.919952
0.309814 0.776154 0.919952
0.441986 0.776154 0.919952
0.582153 0.776154 0.919952
0.729095 0.776154 0.919952
0.881927 0.776154 0.919952
0.000000 0.904144 0.919952
0.079803 0.904144 0.919952
0.187805 0.904144 0.919952
0.309814 0.904144 0.919952
0.441986 0.904144 0.919952
0.582153 0.904144 0.919952
0.729095 0.904144 0.919952
0.881927 0.904144 0.919952
