public/luts/AdobeStock_494126285-Large.CUBE
#Created by: Adobe Photoshop Export Color Lookup Plugin
TITLE "AdobeStock_494126285-Large.psd"
#LUT size
LUT_3D_SIZE 32
#data domain
DOMAIN_MIN 0.0 0.0 0.0
DOMAIN_MAX 1.0 1.0 1.0
#LUT data points
0.000000 0.000000 0.000000
0.014435 0.000000 0.000000
0.033905 0.000000 0.000000
0.055939 0.000000 0.000000
0.079803 0.000000 0.000000
0.105133 0.000000 0.000000
0.131653 0.000000 0.000000
0.159271 0.000000 0.000000
0.187805 0.000000 0.000000
0.217224 0.000000 0.000000
0.247375 0.000000 0.000000
0.278259 0.000000 0.000000
0.309814 0.000000 0.000000
0.342010 0.000000 0.000000
0.374786 0.000000 0.000000
0.408081 0.000000 0.000000
0.441986 0.000000 0.000000
0.476318 0.000000 0.000000
0.511139 0.000000 0.000000
0.546448 0.000000 0.000000
0.582153 0.000000 0.000000
0.618286 0.000000 0.000000
0.654846 0.000000 0.000000
0.691772 0.000000 0.000000
0.729095 0.000000 0.000000
0.766785 0.000000 0.000000
0.804810 0.000000 0.000000
0.843201 0.000000 0.000000
0.881927 0.000000 0.000000
0.920990 0.000000 0.000000
0.960327 0.000000 0.000000
1.000000 0.000000 0.000000
0.000000 0.033386 0.000000
0.014435 0.033386 0.000000
0.033905 0.033386 0.000000
0.055939 0.033386 0.000000
0.079803 0.033386 0.000000
0.105133 0.033386 0.000000
0.131653 0.033386 0.000000
0.159271 0.033386 0.000000
0.187805 0.033386 0.000000
0.217224 0.033386 0.000000
0.247375 0.033386 0.000000
0.278259 0.033386 0.000000
0.309814 0.033386 0.000000
0.342010 0.033386 0.000000
0.374786 0.033386 0.000000
0.408081 0.033386 0.000000
0.441986 0.033386 0.000000
0.476318 0.033386 0.000000
0.511139 0.033386 0.000000
0.546448 0.033386 0.000000
0.582153 0.033386 0.000000
0.618286 0.033386 0.000000
0.654846 0.033386 0.000000
0.691772 0.033386 0.000000
0.729095 0.033386 0.000000
0.766785 0.033386 0.000000
0.804810 0.033386 0.000000
0.843201 0.033386 0.000000
0.881927 0.033386 0.000000
0.920990 0.033386 0.000000
0.960327 0.033386 0.000000
1.000000 0.033386 0.000000
0.000000 0.066284 0.000000
0.014435 0.066284 0.000000
0.033905 0.066284 0.000000
0.055939 0.066284 0.000000
0.079803 0.066284 0.000000
0.105133 0.066284 0.000000
0.131653 0.066284 0.000000
0.159271 0.066284 0.000000
0.187805 0.066284 0.000000
0.217224 0.066284 0.000000
0.247375 0.066284 0.000000
0.278259 0.066284 0.000000
0.309814 0.066284 0.000000
0.342010 0.066284 0.000000
0.374786 0.066284 0.000000
0.408081 0.066284 0.000000
0.441986 0.066284 0.000000
0.476318 0.066284 0.000000
0.511139 0.066284 0.000000
0.546448 0.066284 0.000000
0.582153 0.066284 0.000000
0.618286 0.066284 0.000000
0.654846 0.066284 0.000000
0.691772 0.066284 0.000000
0.729095 0.066284 0.000000
0.766785 0.066284 0.000000
0.804810 0.066284 0.000000
0.843201 0.066284 0.000000
0.881927 0.066284 0.000000
0.920990 0.066284 0.000000
0.960327 0.066284 0.000000
1.000000 0.066284 0.000000
0.000000 0.099030 0.000000
0.014435 0.099030 0.000000
0.033905 0.099030 0.000000
0.055939 0.099030 0.000000
0.079803 0.099030 0.000000
0.105133 0.099030 0.000000
0.131653 0.099030 0.000000
0.159271 0.099030 0.000000
0.187805 0.099030 0.000000
0.217224 0.099030 0.000000
0.247375 0.099030 0.000000
0.278259 0.099030 0.000000
0.309814 0.099030 0.000000
0.342010 0.099030 0.000000
0.374786 0.099030 0.000000
0.408081 0.099030 0.000000
0.441986 0.099030 0.000000
0.476318 0.099030 0.000000
0.511139 0.099030 0.000000
0.546448 0.099030 0.000000
0.582153 0.099030 0.000000
0.618286 0.099030 0.000000
0.654846 0.099030 0.000000
0.691772 0.099030 0.000000
0.729095 0.099030 0.000000
0.766785 0.099030 0.000000
0.804810 0.099030 0.000000
0.843201 0.099030 0.000000
0.881927 0.099030 0.000000
0.920990 0.099030 0.000000
0.960327 0.099030 0.000000
1.000000 0.099030 0.000000
0.000000 0.131683 0.000000
0.014435 0.131683 0.000000
0.033905 0.131683 0.000000
0.055939 0.131683 0.000000
0.079803 0.131683 0.000000
0.105133 0.131683 0.000000
0.131653 0.131683 0.000000
0.159271 0.131683 0.000000
0.187805 0.131683 0.000000
0.217224 0.131683 0.000000
0.247375 0.131683 0.000000
0.278259 0.131683 0.000000
0.309814 0.131683 0.000000
0.342010 0.131683 0.000000
0.374786 0.131683 0.000000
0.408081 0.131683 0.000000
0.441986 0.131683 0.000000
0.476318 0.131683 0.000000
0.511139 0.131683 0.000000
0.546448 0.131683 0.000000
0.582153 0.131683 0.000000
0.618286 0.131683 0.000000
0.654846 0.131683 0.000000
0.691772 0.131683 0.000000
0.729095 0.131683 0.000000
0.766785 0.131683 0.000000
0.804810 0.131683 0.000000
0.843201 0.131683 0.000000
0.881927 0.131683 0.000000
0.920990 0.131683 0.000000
0.960327 0.131683 0.000000
1.000000 0.131683 0.000000
0.000000 0.164215 0.000000
0.014435 0.164215 0.000000
0.033905 0.164215 0.000000
0.055939 0.164215 0.000000
0.079803 0.164215 0.000000
0.105133 0.164215 0.000000
0.131653 0.164215 0.000000
0.159271 0.164215 0.000000
0.187805 0.164215 0.000000
0.217224 0.164215 0.000000
0.247375 0.164215 0.000000
0.278259 0.164215 0.000000
0.309814 0.164215 0.000000
0.342010 0.164215 0.000000
0.374786 0.164215 0.000000
0.408081 0.164215 0.000000
0.441986 0.164215 0.000000
0.476318 0.164215 0.000000
0.511139 0.164215 0.000000
0.546448 0.164215 0.000000
0.582153 0.164215 0.000000
0.618286 0.164215 0.000000
0.654846 0.164215 0.000000
0.691772 0.164215 0.000000
0.729095 0.164215 0.000000
0.766785 0.164215 0.000000
0.804810 0.164215 0.000000
0.843201 0.164215 0.000000
0.881927 0.164215 0.000000
0.920990 0.164215 0.000000
0.960327 0.164215 0.000000
1.000000 0.164215 0.000000
0.000000 0.196716 0.000000
0.014435 0.196716 0.000000
0.033905 0.196716 0.000000
0.055939 0.196716 0.000000
0.079803 0.196716 0.000000
0.105133 0.196716 0.000000
0.131653 0.196716 0.000000
0.159271 0.196716 0.000000
0.187805 0.196716 0.000000
0.217224 0.196716 0.000000
0.247375 0.196716 0.000000
0.278259 0.196716 0.000000
0.309814 0.196716 0.000000
0.342010 0.196716 0.000000
0.374786 0.196716 0.000000
0.408081 0.196716 0.000000
0.441986 0.196716 0.000000
0.476318 0.196716 0.000000
0.511139 0.196716 0.000000
0.546448 0.196716 0.000000
0.582153 0.196716 0.000000
0.618286 0.196716 0.000000
0.654846 0.196716 0.000000
0.691772 0.196716 0.000000
0.729095 0.196716 0.000000
0.766785 0.196716 0.000000
0.804810 0.196716 0.000000
0.843201 0.196716 0.000000
0.881927 0.196716 0.000000
0.920990 0.196716 0.000000
0.960327 0.196716 0.000000
1.000000 0.196716 0.000000
0.000000 0.229156 0.000000
0.014435 0.229156 0.000000
0.033905 0.229156 0.000000
0.055939 0.229156 0.000000
0.079803 0.229156 0.000000
0.105133 0.229156 0.000000
0.131653 0.229156 0.000000
0.159271 0.229156 0.000000
0.187805 0.229156 0.000000
0.217224 0.229156 0.000000
0.247375 0.229156 0.000000
0.278259 0.229156 0.000000
0.309814 0.229156 0.000000
0.342010 0.229156 0.000000
0.374786 0.229156 0.000000
0.408081 0.229156 0.000000
0.441986 0.229156 0.000000
0.476318 0.229156 0.000000
0.511139 0.229156 0.000000
0.546448 0.229156 0.000000
0.582153 0.229156 0.000000
0.618286 0.229156 0.000000
0.654846 0.229156 0.000000
0.691772 0.229156 0.000000
0.729095 0.229156 0.000000
0.766785 0.229156 0.000000
0.804810 0.229156 0.000000
0.843201 0.229156 0.000000
0.881927 0.229156 0.000000
0.920990 0.229156 0.000000
0.960327 0.229156 0.000000
1.000000 0.229156 0.000000
0.000000 0.261536 0.000000
0.014435 0.261536 0.000000
0.033905 0.261536 0.000000
0.055939 0.261536 0.000000
0.079803 0.261536 0.000000
0.105133 0.261536 0.000000
0.131653 0.261536 0.000000
0.159271 0.261536 0.000000
0.187805 0.261536 0.000000
0.217224 0.261536 0.000000
0.247375 0.261536 0.000000
0.278259 0.261536 0.000000
0.309814 0.261536 0.000000
0.342010 0.261536 0.000000
0.374786 0.261536 0.000000
0.408081 0.261536 0.000000
0.441986 0.261536 0.000000
0.476318 0.261536 0.000000
0.511139 0.261536 0.000000
0.546448 0.261536 0.000000
0.582153 0.261536 0.000000
0.618286 0.261536 0.000000
0.654846 0.261536 0.000000
0.691772 0.261536 0.000000
0.729095 0.261536 0.000000
0.766785 0.261536 0.000000
0.804810 0.261536 0.000000
0.843201 0.261536 0.000000
0.881927 0.261536 0.000000
0.920990 0.261536 0.000000
0.960327 0.261536 0.000000
1.000000 0.261536 0.000000
0.000000 0.293884 0.000000
0.014435 0.293884 0.000000
0.033905 0.293884 0.000000
0.055939 0.293884 0.000000
0.079803 0.293884 0.000000
0.105133 0.293884 0.000000
0.131653 0.293884 0.000000
0.159271 0.293884 0.000000
0.187805 0.293884 0.000000
0.217224 0.293884 0.000000
0.247375 0.293884 0.000000
0.278259 0.293884 0.000000
0.309814 0.293884 0.000000
0.342010 0.293884 0.000000
0.374786 0.293884 0.000000
0.408081 0.293884 0.000000
0.441986 0.293884 0.000000
0.476318 0.293884 0.000000
0.511139 0.293884 0.000000
0.546448 0.293884 0.000000
0.582153 0.293884 0.000000
0.618286 0.293884 0.000000
0.654846 0.293884 0.000000
0.691772 0.293884 0.000000
0.729095 0.293884 0.000000
0.766785 0.293884 0.000000
0.804810 0.293884 0.000000
0.843201 0.293884 0.000000
0.881927 0.293884 0.000000
0.920990 0.293884 0.000000
0.960327 0.293884 0.000000
1.000000 0.293884 0.000000
0.000000 0.326202 0.000000
0.014435 0.326202 0.000000
0.033905 0.326202 0.000000
0.055939 0.326202 0.000000
0.079803 0.326202 0.000000
0.105133 0.326202 0.000000
0.131653 0.326202 0.000000
0.159271 0.326202 0.000000
0.187805 0.326202 0.000000
0.217224 0.326202 0.000000
0.247375 0.326202 0.000000
0.278259 0.326202 0.000000
0.309814 0.326202 0.000000
0.342010 0.326202 0.000000
0.374786 0.326202 0.000000
0.408081 0.326202 0.000000
0.441986 0.326202 0.000000
0.476318 0.326202 0.000000
0.511139 0.326202 0.000000
0.546448 0.326202 0.000000
0.582153 0.326202 0.000000
0.618286 0.326202 0.000000
0.654846 0.326202 0.000000
0.691772 0.326202 0.000000
0.729095 0.326202 0.000000
0.766785 0.326202 0.000000
0.804810 0.326202 0.000000
0.843201 0.326202 0.000000
0.881927 0.326202 0.000000
0.920990 0.326202 0.000000
0.960327 0.326202 0.000000
1.000000 0.326202 0.000000
0.000000 0.358490 0.000000
0.014435 0.358490 0.000000
0.033905 0.358490 0.000000
0.055939 0.358490 0.000000
0.079803 0.358490 0.000000
0.105133 0.358490 0.000000
0.131653 0.358490 0.000000
0.159271 0.358490 0.000000
0.187805 0.358490 0.000000
0.217224 0.358490 0.000000
0.247375 0.358490 0.000000
0.278259 0.358490 0.000000
0.309814 0.358490 0.000000
0.342010 0.358490 0.000000
0.374786 0.358490 0.000000
0.408081 0.358490 0.000000
0.441986 0.358490 0.000000
0.476318 0.358490 0.000000
0.511139 0.358490 0.000000
0.546448 0.358490 0.000000
0.582153 0.358490 0.000000
0.618286 0.358490 0.000000
0.654846 0.358490 0.000000
0.691772 0.358490 0.000000
0.729095 0.358490 0.000000
0.766785 0.358490 0.000000
0.804810 0.358490 0.000000
0.843201 0.358490 0.000000
0.881927 0.358490 0.000000
0.920990 0.358490 0.000000
0.960327 0.358490 0.000000
1.000000 0.358490 0.000000
0.000000 0.390747 0.000000
0.014435 0.390747 0.000000
0.033905 0.390747 0.000000
0.055939 0.390747 0.000000
0.079803 0.390747 0.000000
0.105133 0.390747 0.000000
0.131653 0.390747 0.000000
0.159271 0.390747 0.000000
0.187805 0.390747 0.000000
0.217224 0.390747 0.000000
0.247375 0.390747 0.000000
0.278259 0.390747 0.000000
0.309814 0.390747 0.000000
0.342010 0.390747 0.000000
0.374786 0.390747 0.000000
0.408081 0.390747 0.000000
0.441986 0.390747 0.000000
0.476318 0.390747 0.000000
0.511139 0.390747 0.000000
0.546448 0.390747 0.000000
0.582153 0.390747 0.000000
0.618286 0.390747 0.000000
0.654846 0.390747 0.000000
0.691772 0.390747 0.000000
0.729095 0.390747 0.000000
0.766785 0.390747 0.000000
0.804810 0.390747 0.000000
0.843201 0.390747 0.000000
0.881927 0.390747 0.000000
0.920990 0.390747 0.000000
0.960327 0.390747 0.000000
1.000000 0.390747 0.000000
0.000000 0.422974 0.000000
0.014435 0.422974 0.000000
0.033905 0.422974 0.000000
0.055939 0.422974 0.000000
0.079803 0.422974 0.000000
0.105133 0.422974 0.000000
0.131653 0.422974 0.000000
0.159271 0.422974 0.000000
0.187805 0.422974 0.000000
0.217224 0.422974 0.000000
0.247375 0.422974 0.000000
0.278259 0.422974 0.000000
0.309814 0.422974 0.000000
0.342010 0.422974 0.000000
0.374786 0.422974 0.000000
0.408081 0.422974 0.000000
0.441986 0.422974 0.000000
0.476318 0.422974 0.000000
0.511139 0.422974 0.000000
0.546448 0.422974 0.000000
0.582153 0.422974 0.000000
0.618286 0.422974 0.000000
0.654846 0.422974 0.000000
0.691772 0.422974 0.000000
0.729095 0.422974 0.000000
0.766785 0.422974 0.000000
0.804810 0.422974 0.000000
0.843201 0.422974 0.000000
0.881927 0.422974 0.000000
0.920990 0.422974 0.000000
0.960327 0.422974 0.000000
1.000000 0.422974 0.000000
0.000000 0.455170 0.000000
0.014435 0.455170 0.000000
0.033905 0.455170 0.000000
0.055939 0.455170 0.000000
0.079803 0.455170 0.000000
0.105133 0.455170 0.000000
0.131653 0.455170 0.000000
0.159271 0.455170 0.000000
0.187805 0.455170 0.000000
0.217224 0.455170 0.000000
0.247375 0.455170 0.000000
0.278259 0.455170 0.000000
0.309814 0.455170 0.000000
0.342010 0.455170 0.000000
0.374786 0.455170 0.000000
0.408081 0.455170 0.000000
0.441986 0.455170 0.000000
0.476318 0.455170 0.000000
0.511139 0.455170 0.000000
0.546448 0.455170 0.000000
0.582153 0.455170 0.000000
0.618286 0.455170 0.000000
0.654846 0.455170 0.000000
0.691772 0.455170 0.000000
0.729095 0.455170 0.000000
0.766785 0.455170 0.000000
0.804810 0.455170 0.000000
0.843201 0.455170 0.000000
0.881927 0.455170 0.000000
0.920990 0.455170 0.000000
0.960327 0.455170 0.000000
1.000000 0.455170 0.000000
0.000000 0.487335 0.000000
0.014435 0.487335 0.000000
0.033905 0.487335 0.000000
0.055939 0.487335 0.000000
0.079803 0.487335 0.000000
0.105133 0.487335 0.000000
0.131653 0.487335 0.000000
0.159271 0.487335 0.000000
0.187805 0.487335 0.000000
0.217224 0.487335 0.000000
0.247375 0.487335 0.000000
0.278259 0.487335 0.000000
0.309814 0.487335 0.000000
0.342010 0.487335 0.000000
0.374786 0.487335 0.000000
0.408081 0.487335 0.000000
0.441986 0.487335 0.000000
0.476318 0.487335 0.000000
0.511139 0.487335 0.000000
0.546448 0.487335 0.000000
0.582153 0.487335 0.000000
0.618286 0.487335 0.000000
0.654846 0.487335 0.000000
0.691772 0.487335 0.000000
0.729095 0.487335 0.000000
0.766785 0.487335 0.000000
0.804810 0.487335 0.000000
0.843201 0.487335 0.000000
0.881927 0.487335 0.000000
0.920990 0.487335 0.000000
0.960327 0.487335 0.000000
1.000000 0.487335 0.000000
0.000000 0.519531 0.000000
0.014435 0.519531 0.000000
0.033905 0.519531 0.000000
0.055939 0.519531 0.000000
0.079803 0.519531 0.000000
0.105133 0.519531 0.000000
0.131653 0.519531 0.000000
0.159271 0.519531 0.000000
0.187805 0.519531 0.000000
0.217224 0.519531 0.000000
0.247375 0.519531 0.000000
0.278259 0.519531 0.000000
0.309814 0.519531 0.000000
0.342010 0.519531 0.000000
0.374786 0.519531 0.000000
0.408081 0.519531 0.000000
0.441986 0.519531 0.000000
0.476318 0.519531 0.000000
0.511139 0.519531 0.000000
0.546448 0.519531 0.000000
0.582153 0.519531 0.000000
0.618286 0.519531 0.000000
0.654846 0.519531 0.000000
0.691772 0.519531 0.000000
0.729095 0.519531 0.000000
0.766785 0.519531 0.000000
0.804810 0.519531 0.000000
0.843201 0.519531 0.000000
0.881927 0.519531 0.000000
0.920990 0.519531 0.000000
0.960327 0.519531 0.000000
1.000000 0.519531 0.000000
0.000000 0.551666 0.000000
0.014435 0.551666 0.000000
0.033905 0.551666 0.000000
0.055939 0.551666 0.000000
0.079803 0.551666 0.000000
0.105133 0.551666 0.000000
0.131653 0.551666 0.000000
0.159271 0.551666 0.000000
0.187805 0.551666 0.000000
0.217224 0.551666 0.000000
0.247375 0.551666 0.000000
0.278259 0.551666 0.000000
0.309814 0.551666 0.000000
0.342010 0.551666 0.000000
0.374786 0.551666 0.000000
0.408081 0.551666 0.000000
0.441986 0.551666 0.000000
0.476318 0.551666 0.000000
0.511139 0.551666 0.000000
0.546448 0.551666 0.000000
0.582153 0.551666 0.000000
0.618286 0.551666 0.000000
0.654846 0.551666 0.000000
0.691772 0.551666 0.000000
0.729095 0.551666 0.000000
0.766785 0.551666 0.000000
0.804810 0.551666 0.000000
0.843201 0.551666 0.000000
0.881927 0.551666 0.000000
0.920990 0.551666 0.000000
0.960327 0.551666 0.000000
1.000000 0.551666 0.000000
0.000000 0.583801 0.000000
0.014435 0.583801 0.000000
0.033905 0.583801 0.000000
0.055939 0.583801 0.000000
0.079803 0.583801 0.000000
0.105133 0.583801 0.000000
0.131653 0.583801 0.000000
0.159271 0.583801 0.000000
0.187805 0.583801 0.000000
0.217224 0.583801 0.000000
0.247375 0.583801 0.000000
0.278259 0.583801 0.000000
0.309814 0.583801 0.000000
0.342010 0.583801 0.000000
0.374786 0.583801 0.000000
0.408081 0.583801 0.000000
0.441986 0.583801 0.000000
0.476318 0.583801 0.000000
0.511139 0.583801 0.000000
0.546448 0.583801 0.000000
0.582153 0.583801 0.000000
0.618286 0.583801 0.000000
0.654846 0.583801 0.000000
0.691772 0.583801 0.000000
0.729095 0.583801 0.000000
0.766785 0.583801 0.000000
0.804810 0.583801 0.000000
0.843201 0.583801 0.000000
0.881927 0.583801 0.000000
0.920990 0.583801 0.000000
0.960327 0.583801 0.000000
1.000000 0.583801 0.000000
0.000000 0.615906 0.000000
0.014435 0.615906 0.000000
0.033905 0.615906 0.000000
0.055939 0.615906 0.000000
0.079803 0.615906 0.000000
0.105133 0.615906 0.000000
0.131653 0.615906 0.000000
0.159271 0.615906 0.000000
0.187805 0.615906 0.000000
0.217224 0.615906 0.000000
0.247375 0.615906 0.000000
0.278259 0.615906 0.000000
0.309814 0.615906 0.000000
0.342010 0.615906 0.000000
0.374786 0.615906 0.000000
0.408081 0.615906 0.000000
0.441986 0.615906 0.000000
0.476318 0.615906 0.000000
0.511139 0.615906 0.000000
0.546448 0.615906 0.000000
0.582153 0.615906 0.000000
0.618286 0.615906 0.000000
0.654846 0.615906 0.000000
0.691772 0.615906 0.000000
0.729095 0.615906 0.000000
0.766785 0.615906 0.000000
0.804810 0.615906 0.000000
0.843201 0.615906 0.000000
0.881927 0.615906 0.000000
0.920990 0.615906 0.000000
0.960327 0.615906 0.000000
1.000000 0.615906 0.000000
0.000000 0.647980 0.000000
0.014435 0.647980 0.000000
0.033905 0.647980 0.000000
0.055939 0.647980 0.000000
0.079803 0.647980 0.000000
0.105133 0.647980 0.000000
0.131653 0.647980 0.000000
0.159271 0.647980 0.000000
0.187805 0.647980 0.000000
0.217224 0.647980 0.000000
0.247375 0.647980 0.000000
0.278259 0.647980 0.000000
0.309814 0.647980 0.000000
0.342010 0.647980 0.000000
0.374786 0.647980 0.000000
0.408081 0.647980 0.000000
0.441986 0.647980 0.000000
0.476318 0.647980 0.000000
0.511139 0.647980 0.000000
0.546448 0.647980 0.000000
0.582153 0.647980 0.000000
0.618286 0.647980 0.000000
0.654846 0.647980 0.000000
0.691772 0.647980 0.000000
0.729095 0.647980 0.000000
0.766785 0.647980 0.000000
0.804810 0.647980 0.000000
0.843201 0.647980 0.000000
0.881927 0.647980 0.000000
0.920990 0.647980 0.000000
0.960327 0.647980 0.000000
1.000000 0.647980 0.000000
0.000000 0.680054 0.000000
0.014435 0.680054 0.000000
0.033905 0.680054 0.000000
0.055939 0.680054 0.000000
0.079803 0.680054 0.000000
0.105133 0.680054 0.000000
0.131653 0.680054 0.000000
0.159271 0.680054 0.000000
0.187805 0.680054 0.000000
0.217224 0.680054 0.000000
0.247375 0.680054 0.000000
0.278259 0.680054 0.000000
0.309814 0.680054 0.000000
0.342010 0.680054 0.000000
0.374786 0.680054 0.000000
0.408081 0.680054 0.000000
0.441986 0.680054 0.000000
0.476318 0.680054 0.000000
0.511139 0.680054 0.000000
0.546448 0.680054 0.000000
0.582153 0.680054 0.000000
0.618286 0.680054 0.000000
0.654846 0.680054 0.000000
0.691772 0.680054 0.000000
0.729095 0.680054 0.000000
0.766785 0.680054 0.000000
0.804810 0.680054 0.000000
0.843201 0.680054 0.000000
0.881927 0.680054 0.000000
0.920990 0.680054 0.000000
0.960327 0.680054 0.000000
1.000000 0.680054 0.000000
0.000000 0.712097 0.000000
0.014435 0.712097 0.000000
0.033905 0.712097 0.000000
0.055939 0.712097 0.000000
0.079803 0.712097 0.000000
0.105133 0.712097 0.000000
0.131653 0.712097 0.000000
0.159271 0.712097 0.000000
0.187805 0.712097 0.000000
0.217224 0.712097 0.000000
0.247375 0.712097 0.000000
0.278259 0.712097 0.000000
0.309814 0.712097 0.000000
0.342010 0.712097 0.000000
0.374786 0.712097 0.000000
0.408081 0.712097 0.000000
0.441986 0.712097 0.000000
0.476318 0.712097 0.000000
0.511139 0.712097 0.000000
0.546448 0.712097 0.000000
0.582153 0.712097 0.000000
0.618286 0.712097 0.000000
0.654846 0.712097 0.000000
0.691772 0.712097 0.000000
0.729095 0.712097 0.000000
0.766785 0.712097 0.000000
0.804810 0.712097 0.000000
0.843201 0.712097 0.000000
0.881927 0.712097 0.000000
0.920990 0.712097 0.000000
0.960327 0.712097 0.000000
1.000000 0.712097 0.000000
0.000000 0.744141 0.000000
0.014435 0.744141 0.000000
0.033905 0.744141 0.000000
0.055939 0.744141 0.000000
0.079803 0.744141 0.000000
0.105133 0.744141 0.000000
0.131653 0.744141 0.000000
0.159271 0.744141 0.000000
0.187805 0.744141 0.000000
0.217224 0.744141 0.000000
0.247375 0.744141 0.000000
0.278259 0.744141 0.000000
0.309814 0.744141 0.000000
0.342010 0.744141 0.000000
0.374786 0.744141 0.000000
0.408081 0.744141 0.000000
0.441986 0.744141 0.000000
0.476318 0.744141 0.000000
0.511139 0.744141 0.000000
0.546448 0.744141 0.000000
0.582153 0.744141 0.000000
0.618286 0.744141 0.000000
0.654846 0.744141 0.000000
0.691772 0.744141 0.000000
0.729095 0.744141 0.000000
0.766785 0.744141 0.000000
0.804810 0.744141 0.000000
0.843201 0.744141 0.000000
0.881927 0.744141 0.000000
0.920990 0.744141 0.000000
0.960327 0.744141 0.000000
1.000000 0.744141 0.000000
0.000000 0.776154 0.000000
0.014435 0.776154 0.000000
0.033905 0.776154 0.000000
0.055939 0.776154 0.000000
0.079803 0.776154 0.000000
0.105133 0.776154 0.000000
0.131653 0.776154 0.000000
0.159271 0.776154 0.000000
0.187805 0.776154 0.000000
0.217224 0.776154 0.000000
0.247375 0.776154 0.000000
0.278259 0.776154 0.000000
0.309814 0.776154 0.000000
0.342010 0.776154 0.000000
0.374786 0.776154 0.000000
0.408081 0.776154 0.000000
0.441986 0.776154 0.000000
0.476318 0.776154 0.000000
0.511139 0.776154 0.000000
0.546448 0.776154 0.000000
0.582153 0.776154 0.000000
0.618286 0.776154 0.000000
0.654846 0.776154 0.000000
0.691772 0.776154 0.000000
0.729095 0.776154 0.000000
0.766785 0.776154 0.000000
0.804810 0.776154 0.000000
0.843201 0.776154 0.000000
0.881927 0.776154 0.000000
0.920990 0.776154 0.000000
0.960327 0.776154 0.000000
1.000000 0.776154 0.000000
0.000000 0.808167 0.000000
0.014435 0.808167 0.000000
0.033905 0.808167 0.000000
0.055939 0.808167 0.000000
0.079803 0.808167 0.000000
0.105133 0.808167 0.000000
0.131653 0.808167 0.000000
0.159271 0.808167 0.000000
0.187805 0.808167 0.000000
0.217224 0.808167 0.000000
0.247375 0.808167 0.000000
0.278259 0.808167 0.000000
0.309814 0.808167 0.000000
0.342010 0.808167 0.000000
0.374786 0.808167 0.000000
0.408081 0.808167 0.000000
0.441986 0.808167 0.000000
0.476318 0.808167 0.000000
0.511139 0.808167 0.000000
0.546448 0.808167 0.000000
0.582153 0.808167 0.000000
0.618286 0.808167 0.000000
0.654846 0.808167 0.000000
0.691772 0.808167 0.000000
0.729095 0.808167 0.000000
0.766785 0.808167 0.000000
0.804810 0.808167 0.000000
0.843201 0.808167 0.000000
0.881927 0.808167 0.000000
0.920990 0.808167 0.000000
0.960327 0.808167 0.000000
1.000000 0.808167 0.000000
0.000000 0.840179 0.000000
0.014435 0.840179 0.000000
0.033905 0.840179 0.000000
0.055939 0.840179 0.000000
0.079803 0.840179 0.000000
0.105133 0.840179 0.000000
0.131653 0.840179 0.000000
0.159271 0.840179 0.000000
0.187805 0.840179 0.000000
0.217224 0.840179 0.000000
0.247375 0.840179 0.000000
0.278259 0.840179 0.000000
0.309814 0.840179 0.000000
0.342010 0.840179 0.000000
0.374786 0.840179 0.000000
0.408081 0.840179 0.000000
0.441986 0.840179 0.000000
0.476318 0.840179 0.000000
0.511139 0.840179 0.000000
0.546448 0.840179 0.000000
0.582153 0.840179 0.000000
0.618286 0.840179 0.000000
0.654846 0.840179 0.000000
0.691772 0.840179 0.000000
0.729095 0.840179 0.000000
0.766785 0.840179 0.000000
0.804810 0.840179 0.000000
0.843201 0.840179 0.000000
0.881927 0.840179 0.000000
0.920990 0.840179 0.000000
0.960327 0.840179 0.000000
1.000000 0.840179 0.000000
0.000000 0.872162 0.000000
0.014435 0.872162 0.000000
0.033905 0.872162 0.000000
0.055939 0.872162 0.000000
0.079803 0.872162 0.000000
0.105133 0.872162 0.000000
0.131653 0.872162 0.000000
0.159271 0.872162 0.000000
0.187805 0.872162 0.000000
0.217224 0.872162 0.000000
0.247375 0.872162 0.000000
0.278259 0.872162 0.000000
0.309814 0.872162 0.000000
0.342010 0.872162 0.000000
0.374786 0.872162 0.000000
0.408081 0.872162 0.000000
0.441986 0.872162 0.000000
