public/luts/AdobeStock_494126285-Large.CUBE
#Created by: Adobe Photoshop Export Color Lookup Plugin
TITLE "AdobeStock_494126285-Large.psd"
#LUT size
LUT_3D_SIZE 5
#data domain
#LUT data points
DOMAIN_MIN 0.000000 0.000000 0.000000
DOMAIN_MAX 0.903226 0.903226 0.903226
0.000000 0.000000 0.000000
0.159271 0.000000 0.000000
0.374786 0.000000 0.000000
0.618286 0.000000 0.000000
0.881927 0.000000 0.000000
0.000000 0.229156 0.000000
0.159271 0.229156 0.000000
0.374786 0.229156 0.000000
0.618286 0.229156 0.000000
0.881927 0.229156 0.000000
0.000000 0.455170 0.000000
0.159271 0.455170 0.000000
0.374786 0.455170 0.000000
0.618286 0.455170 0.000000
0.881927 0.455170 0.000000
0.000000 0.680054 0.000000
0.159271 0.680054 0.000000
0.374786 0.680054 0.000000
0.618286 0.680054 0.000000
0.881927 0.680054 0.000000
0.000000 0.904144 0.000000
0.159271 0.904144 0.000000
0.374786 0.904144 0.000000
0.618286 0.904144 0.000000
0.881927 0.904144 0.000000
0.000000 0.000000 0.295288
0.159271 0.000000 0.295288
0.374786 0.000000 0.295288
0.618286 0.000000 0.295288
0.881927 0.000000 0.295288
0.000000 0.229156 0.295288
0.159271 0.229156 0.295288
0.374786 0.229156 0.295288
0.618286 0.229156 0.295288
0.881927 0.229156 0.295288
0.000000 0.455170 0.295288
0.159271 0.455170 0.295288
0.374786 0.455170 0.295288
0.618286 0.455170 0.295288
0.881927 0.455170 0.295288
0.000000 0.680054 0.295288
0.159271 0.680054 0.295288
0.374786 0.680054 0.295288
0.618286 0.680054 0.295288
0.881927 0.680054 0.295288
0.000000 0.904144 0.295288
0.159271 0.904144 0.295288
0.374786 0.904144 0.295288
0.618286 0.904144 0.295288
0.881927 0.904144 0.295288
0.000000 0.000000 0.521210
0.159271 0.000000 0.521210
0.374786 0.000000 0.521210
0.618286 0.000000 0.521210
0.881927 0.000000 0.521210
0.000000 0.229156 0.521210
0.159271 0.229156 0.521210
0.374786 0.229156 0.521210
0.618286 0.229156 0.521210
0.881927 0.229156 0.521210
0.000000 0.455170 0.521210
0.159271 0.455170 0.521210
0.374786 0.455170 0.521210
0.618286 0.455170 0.521210
0.881927 0.455170 0.521210
0.000000 0.680054 0.521210
0.159271 0.680054 0.521210
0.374786 0.680054 0.521210
0.618286 0.680054 0.521210
0.881927 0.680054 0.521210
0.000000 0.904144 0.521210
0.159271 0.904144 0.521210
0.374786 0.904144 0.521210
0.618286 0.904144 0.521210
0.881927 0.904144 0.521210
0.000000 0.000000 0.726715
0.159271 0.000000 0.726715
0.374786 0.000000 0.726715
0.618286 0.000000 0.726715
0.881927 0.000000 0.726715
0.000000 0.229156 0.726715
0.159271 0.229156 0.726715
0.374786 0.229156 0.726715
0.618286 0.229156 0.726715
0.881927 0.229156 0.726715
0.000000 0.455170 0.726715
0.159271 0.455170 0.726715
0.374786 0.455170 0.726715
0.618286 0.455170 0.726715
0.881927 0.455170 0.726715
0.000000 0.680054 0.726715
0.159271 0.680054 0.726715
0.374786 0.680054 0.726715
0.618286 0.680054 0.726715
0.881927 0.680054 0.726715
0.000000 0.904144 0.726715
0.159271 0.904144 0.726715
0.374786 0.904144 0.726715
0.618286 0.904144 0.726715
0.881927 0.904144 0.726715
0.000000 0.000000 0.919952
0.159271 0.000000 0.919952
0.374786 0.000000 0.919952
0.618286 0.000000 0.919952
0.881927 0.000000 0.919952
0.000000 0.229156 0.919952
0.159271 0.229156 0.919952
0.374786 0.229156 0.919952
0.618286 0.229156 0.919952
0.881927 0.229156 0.919952
0.000000 0.455170 0.919952
0.159271 0.455170 0.919952
0.374786 0.455170 0.919952
0.618286 0.455170 0.919952
0.881927 0.455170 0.919952
0.000000 0.680054 0.919952
0.159271 0.680054 0.919952
0.374786 0.680054 0.919952
0.618286 0.680054 0.919952
0.881927 0.680054 0.919952
0.000000 0.904144 0.919952
0.159271 0.904144 0.919952
0.374786 0.904144 0.919952
0.618286 0.904144 0.919952
0.881927 0.904144 0.919952
