public/luts/Electrification Key Visual - Innovation-Large.CUBE
#Created by: Adobe Photoshop Export Color Lookup Plugin
TITLE "Electrification Key Visual - Innovation-Large.psd"
#LUT size
LUT_3D_SIZE 8
#data domain
#LUT data points
DOMAIN_MIN 0.000000 0.000000 0.000000
DOMAIN_MAX 0.903226 0.903226 0.903226
0.088043 0.088043 0.088043
0.118347 0.088043 0.088043
0.196045 0.088043 0.088043
0.295776 0.088043 0.088043
0.407684 0.088043 0.088043
0.527863 0.088043 0.088043
0.654510 0.088043 0.088043
0.786499 0.088043 0.088043
0.088043 0.118347 0.088043
0.118347 0.118347 0.088043
0.196045 0.118347 0.088043
0.295776 0.118347 0.088043
0.407684 0.118347 0.088043
0.527863 0.118347 0.088043
0.654510 0.118347 0.088043
0.786499 0.118347 0.088043
0.088043 0.196045 0.088043
0.118347 0.196045 0.088043
0.196045 0.196045 0.088043
0.295776 0.196045 0.088043
0.407684 0.196045 0.088043
0.527863 0.196045 0.088043
0.654510 0.196045 0.088043
0.786499 0.196045 0.088043
0.088043 0.295776 0.088043
0.118347 0.295776 0.088043
0.196045 0.295776 0.088043
0.295776 0.295776 0.088043
0.407684 0.295776 0.088043
0.527863 0.295776 0.088043
0.654510 0.295776 0.088043
0.786499 0.295776 0.088043
0.088043 0.407684 0.088043
0.118347 0.407684 0.088043
0.196045 0.407684 0.088043
0.295776 0.407684 0.088043
0.407684 0.407684 0.088043
0.527863 0.407684 0.088043
0.654510 0.407684 0.088043
0.786499 0.407684 0.088043
0.088043 0.527863 0.088043
0.118347 0.527863 0.088043
0.196045 0.527863 0.088043
0.295776 0.527863 0.088043
0.407684 0.527863 0.088043
0.527863 0.527863 0.088043
0.654510 0.527863 0.088043
0.786499 0.527863 0.088043
0.088043 0.654510 0.088043
0.118347 0.654510 0.088043
0.196045 0.654510 0.088043
0.295776 0.654510 0.088043
0.407684 0.654510 0.088043
0.527863 0.654510 0.088043
0.654510 0.654510 0.088043
0.786499 0.654510 0.088043
0.088043 0.786499 0.088043
0.118347 0.786499 0.088043
0.196045 0.786499 0.088043
0.295776 0.786499 0.088043
0.407684 0.786499 0.088043
0.527863 0.786499 0.088043
0.654510 0.786499 0.088043
0.786499 0.786499 0.088043
0.088043 0.088043 0.118347
0.118347 0.088043 0.118347
0.196045 0.088043 0.118347
0.295776 0.088043 0.118347
0.407684 0.088043 0.118347
0.527863 0.088043 0.118347
0.654510 0.088043 0.118347
0.786499 0.088043 0.118347
0.088043 0.118347 0.118347
0.118347 0.118347 0.118347
0.196045 0.118347 0.118347
0.295776 0.118347 0.118347
0.407684 0.118347 0.118347
0.527863 0.118347 0.118347
0.654510 0.118347 0.118347
0.786499 0.118347 0.118347
0.088043 0.196045 0.118347
0.118347 0.196045 0.118347
0.196045 0.196045 0.118347
0.295776 0.196045 0.118347
0.407684 0.196045 0.118347
0.527863 0.196045 0.118347
0.654510 0.196045 0.118347
0.786499 0.196045 0.118347
0.088043 0.295776 0.118347
0.118347 0.295776 0.118347
0.196045 0.295776 0.118347
0.295776 0.295776 0.118347
0.407684 0.295776 0.118347
0.527863 0.295776 0.118347
0.654510 0.295776 0.118347
0.786499 0.295776 0.118347
0.088043 0.407684 0.118347
0.118347 0.407684 0.118347
0.196045 0.407684 0.118347
0.295776 0.407684 0.118347
0.407684 0.407684 0.118347
0.527863 0.407684 0.118347
0.654510 0.407684 0.118347
0.786499 0.407684 0.118347
0.088043 0.527863 0.118347
0.118347 0.527863 0.118347
0.196045 0.527863 0.118347
0.295776 0.527863 0.118347
0.407684 0.527863 0.118347
0.527863 0.527863 0.118347
0.654510 0.527863 0.118347
0.786499 0.527863 0.118347
0.088043 0.654510 0.118347
0.118347 0.654510 0.118347
0.196045 0.654510 0.118347
0.295776 0.654510 0.118347
0.407684 0.654510 0.118347
0.527863 0.654510 0.118347
0.654510 0.654510 0.118347
0.786499 0.654510 0.118347
0.088043 0.786499 0.118347
0.118347 0.786499 0.118347
0.196045 0.786499 0.118347
0.295776 0.786499 0.118347
0.407684 0.786499 0.118347
0.527863 0.786499 0.118347
0.654510 0.786499 0.118347
0.786499 0.786499 0.118347
0.088043 0.088043 0.196045
0.118347 0.088043 0.196045
0.196045 0.088043 0.196045
0.295776 0.088043 0.196045
0.407684 0.088043 0.196045
0.527863 0.088043 0.196045
0.654510 0.088043 0.196045
0.786499 0.088043 0.196045
0.088043 0.118347 0.196045
0.118347 0.118347 0.196045
0.196045 0.118347 0.196045
0.295776 0.118347 0.196045
0.407684 0.118347 0.196045
0.527863 0.118347 0.196045
0.654510 0.118347 0.196045
0.786499 0.118347 0.196045
0.088043 0.196045 0.196045
0.118347 0.196045 0.196045
0.196045 0.196045 0.196045
0.295776 0.196045 0.196045
0.407684 0.196045 0.196045
0.527863 0.196045 0.196045
0.654510 0.196045 0.196045
0.786499 0.196045 0.196045
0.088043 0.295776 0.196045
0.118347 0.295776 0.196045
0.196045 0.295776 0.196045
0.295776 0.295776 0.196045
0.407684 0.295776 0.196045
0.527863 0.295776 0.196045
0.654510 0.295776 0.196045
0.786499 0.295776 0.196045
0.088043 0.407684 0.196045
0.118347 0.407684 0.196045
0.196045 0.407684 0.196045
0.295776 0.407684 0.196045
0.407684 0.407684 0.196045
0.527863 0.407684 0.196045
0.654510 0.407684 0.196045
0.786499 0.407684 0.196045
0.088043 0.527863 0.196045
0.118347 0.527863 0.196045
0.196045 0.527863 0.196045
0.295776 0.527863 0.196045
0.407684 0.527863 0.196045
0.527863 0.527863 0.196045
0.654510 0.527863 0.196045
0.786499 0.527863 0.196045
0.088043 0.654510 0.196045
0.118347 0.654510 0.196045
0.196045 0.654510 0.196045
0.295776 0.654510 0.196045
0.407684 0.654510 0.196045
0.527863 0.654510 0.196045
0.654510 0.654510 0.196045
0.786499 0.654510 0.196045
0.088043 0.786499 0.196045
0.118347 0.786499 0.196045
0.196045 0.786499 0.196045
0.295776 0.786499 0.196045
0.407684 0.786499 0.196045
0.527863 0.786499 0.196045
0.654510 0.786499 0.196045
0.786499 0.786499 0.196045
0.088043 0.088043 0.295776
0.118347 0.088043 0.295776
0.196045 0.088043 0.295776
0.295776 0.088043 0.295776
0.407684 0.088043 0.295776
0.527863 0.088043 0.295776
0.654510 0.088043 0.295776
0.786499 0.088043 0.295776
0.088043 0.118347 0.295776
0.118347 0.118347 0.295776
0.196045 0.118347 0.295776
0.295776 0.118347 0.295776
0.407684 0.118347 0.295776
0.527863 0.118347 0.295776
0.654510 0.118347 0.295776
0.786499 0.118347 0.295776
0.088043 0.196045 0.295776
0.118347 0.196045 0.295776
0.196045 0.196045 0.295776
0.295776 0.196045 0.295776
0.407684 0.196045 0.295776
0.527863 0.196045 0.295776
0.654510 0.196045 0.295776
0.786499 0.196045 0.295776
0.088043 0.295776 0.295776
0.118347 0.295776 0.295776
0.196045 0.295776 0.295776
0.295776 0.295776 0.295776
0.407684 0.295776 0.295776
0.527863 0.295776 0.295776
0.654510 0.295776 0.295776
0.786499 0.295776 0.295776
0.088043 0.407684 0.295776
0.118347 0.407684 0.295776
0.196045 0.407684 0.295776
0.295776 0.407684 0.295776
0.407684 0.407684 0.295776
0.527863 0.407684 0.295776
0.654510 0.407684 0.295776
0.786499 0.407684 0.295776
0.088043 0.527863 0.295776
0.118347 0.527863 0.295776
0.196045 0.527863 0.295776
0.295776 0.527863 0.295776
0.407684 0.527863 0.295776
0.527863 0.527863 0.295776
0.654510 0.527863 0.295776
0.786499 0.527863 0.295776
0.088043 0.654510 0.295776
0.118347 0.654510 0.295776
0.196045 0.654510 0.295776
0.295776 0.654510 0.295776
0.407684 0.654510 0.295776
0.527863 0.654510 0.295776
0.654510 0.654510 0.295776
0.786499 0.654510 0.295776
0.088043 0.786499 0.295776
0.118347 0.786499 0.295776
0.196045 0.786499 0.295776
0.295776 0.786499 0.295776
0.407684 0.786499 0.295776
0.527863 0.786499 0.295776
0.654510 0.786499 0.295776
0.786499 0.786499 0.295776
0.088043 0.088043 0.407684
0.118347 0.088043 0.407684
0.196045 0.088043 0.407684
0.295776 0.088043 0.407684
0.407684 0.088043 0.407684
0.527863 0.088043 0.407684
0.654510 0.088043 0.407684
0.786499 0.088043 0.407684
0.088043 0.118347 0.407684
0.118347 0.118347 0.407684
0.196045 0.118347 0.407684
0.295776 0.118347 0.407684
0.407684 0.118347 0.407684
0.527863 0.118347 0.407684
0.654510 0.118347 0.407684
0.786499 0.118347 0.407684
0.088043 0.196045 0.407684
0.118347 0.196045 0.407684
0.196045 0.196045 0.407684
0.295776 0.196045 0.407684
0.407684 0.196045 0.407684
0.527863 0.196045 0.407684
0.654510 0.196045 0.407684
0.786499 0.196045 0.407684
0.088043 0.295776 0.407684
0.118347 0.295776 0.407684
0.196045 0.295776 0.407684
0.295776 0.295776 0.407684
0.407684 0.295776 0.407684
0.527863 0.295776 0.407684
0.654510 0.295776 0.407684
0.786499 0.295776 0.407684
0.088043 0.407684 0.407684
0.118347 0.407684 0.407684
0.196045 0.407684 0.407684
0.295776 0.407684 0.407684
0.407684 0.407684 0.407684
0.527863 0.407684 0.407684
0.654510 0.407684 0.407684
0.786499 0.407684 0.407684
0.088043 0.527863 0.407684
0.118347 0.527863 0.407684
0.196045 0.527863 0.407684
0.295776 0.527863 0.407684
0.407684 0.527863 0.407684
0.527863 0.527863 0.407684
0.654510 0.527863 0.407684
0.786499 0.527863 0.407684
0.088043 0.654510 0.407684
0.118347 0.654510 0.407684
0.196045 0.654510 0.407684
0.295776 0.654510 0.407684
0.407684 0.654510 0.407684
0.527863 0.654510 0.407684
0.654510 0.654510 0.407684
0.786499 0.654510 0.407684
0.088043 0.786499 0.407684
0.118347 0.786499 0.407684
0.196045 0.786499 0.407684
0.295776 0.786499 0.407684
0.407684 0.786499 0.407684
0.527863 0.786499 0.407684
0.654510 0.786499 0.407684
0.786499 0.786499 0.407684
0.088043 0.088043 0.527863
0.118347 0.088043 0.527863
0.196045 0.088043 0.527863
0.295776 0.088043 0.527863
0.407684 0.088043 0.527863
0.527863 0.088043 0.527863
0.654510 0.088043 0.527863
0.786499 0.088043 0.527863
0.088043 0.118347 0.527863
0.118347 0.118347 0.527863
0.196045 0.118347 0.527863
0.295776 0.118347 0.527863
0.407684 0.118347 0.527863
0.527863 0.118347 0.527863
0.654510 0.118347 0.527863
0.786499 0.118347 0.527863
0.088043 0.196045 0.527863
0.118347 0.196045 0.527863
0.196045 0.196045 0.527863
0.295776 0.196045 0.527863
0.407684 0.196045 0.527863
0.527863 0.196045 0.527863
0.654510 0.196045 0.527863
0.786499 0.196045 0.527863
0.088043 0.295776 0.527863
0.118347 0.295776 0.527863
0.196045 0.295776 0.527863
0.295776 0.295776 0.527863
0.407684 0.295776 0.527863
0.527863 0.295776 0.527863
0.654510 0.295776 0.527863
0.786499 0.295776 0.527863
0.088043 0.407684 0.527863
0.118347 0.407684 0.527863
0.196045 0.407684 0.527863
0.295776 0.407684 0.527863
0.407684 0.407684 0.527863
0.527863 0.407684 0.527863
0.654510 0.407684 0.527863
0.786499 0.407684 0.527863
0.088043 0.527863 0.527863
0.118347 0.527863 0.527863
0.196045 0.527863 0.527863
0.295776 0.527863 0.527863
0.407684 0.527863 0.527863
0.527863 0.527863 0.527863
0.654510 0.527863 0.527863
0.786499 0.527863 0.527863
0.088043 0.654510 0.527863
0.118347 0.654510 0.527863
0.196045 0.654510 0.527863
0.295776 0.654510 0.527863
0.407684 0.654510 0.527863
0.527863 0.654510 0.527863
0.654510 0.654510 0.527863
0.786499 0.654510 0.527863
0.088043 0.786499 0.527863
0.118347 0.786499 0.527863
0.196045 0.786499 0.527863
0.295776 0.786499 0.527863
0.407684 0.786499 0.527863
0.527863 0.786499 0.527863
0.654510 0.786499 0.527863
0.786499 0.786499 0.527863
0.088043 0.088043 0.654510
0.118347 0.088043 0.654510
0.196045 0.088043 0.654510
0.295776 0.088043 0.654510
0.407684 0.088043 0.654510
0.527863 0.088043 0.654510
0.654510 0.088043 0.654510
0.786499 0.088043 0.654510
0.088043 0.118347 0.654510
0.118347 0.118347 0.654510
0.196045 0.118347 0.654510
0.295776 0.118347 0.654510
0.407684 0.118347 0.654510
0.527863 0.118347 0.654510
0.654510 0.118347 0.654510
0.786499 0.118347 0.654510
0.088043 0.196045 0.654510
0.118347 0.196045 0.654510
0.196045 0.196045 0.654510
0.295776 0.196045 0.654510
0.407684 0.196045 0.654510
0.527863 0.196045 0.654510
0.654510 0.196045 0.654510
0.786499 0.196045 0.654510
0.088043 0.295776 0.654510
0.118347 0.295776 0.654510
0.196045 0.295776 0.654510
0.295776 0.295776 0.654510
0.407684 0.295776 0.654510
0.527863 0.295776 0.654510
0.654510 0.295776 0.654510
0.786499 0.295776 0.654510
0.088043 0.407684 0.654510
0.118347 0.407684 0.654510
0.196045 0.407684 0.654510
0.295776 0.407684 0.654510
0.407684 0.407684 0.654510
0.527863 0.407684 0.654510
0.654510 0.407684 0.654510
0.786499 0.407684 0.654510
0.088043 0.527863 0.654510
0.118347 0.527863 0.654510
0.196045 0.527863 0.654510
0.295776 0.527863 0.654510
0.407684 0.527863 0.654510
0.527863 0.527863 0.654510
0.654510 0.527863 0.654510
0.786499 0.527863 0.654510
0.088043 0.654510 0.654510
0.118347 0.654510 0.654510
0.196045 0.654510 0.654510
0.295776 0.654510 0.654510
0.407684 0.654510 0.654510
0.527863 0.654510 0.654510
0.654510 0.654510 0.654510
0.786499 0.654510 0.654510
0.088043 0.786499 0.654510
0.118347 0.786499 0.654510
0.196045 0.786499 0.654510
0.295776 0.786499 0.654510
0.407684 0.786499 0.654510
0.527863 0.786499 0.654510
0.654510 0.786499 0.654510
0.786499 0.786499 0.654510
0.088043 0.088043 0.786499
0.118347 0.088043 0.786499
0.196045 0.088043 0.786499
0.295776 0.088043 0.786499
0.407684 0.088043 0.786499
0.527863 0.088043 0.786499
0.654510 0.088043 0.786499
0.786499 0.088043 0.786499
0.088043 0.118347 0.786499
0.118347 0.118347 0.786499
0.196045 0.118347 0.786499
0.295776 0.118347 0.786499
0.407684 0.118347 0.786499
0.527863 0.118347 0.786499
0.654510 0.118347 0.786499
0.786499 0.118347 0.786499
0.088043 0.196045 0.786499
0.118347 0.196045 0.786499
0.196045 0.196045 0.786499
0.295776 0.196045 0.786499
0.407684 0.196045 0.786499
0.527863 0.196045 0.786499
0.654510 0.196045 0.786499
0.786499 0.196045 0.786499
0.088043 0.295776 0.786499
0.118347 0.295776 0.786499
0.196045 0.295776 0.786499
0.295776 0.295776 0.786499
0.407684 0.295776 0.786499
0.527863 0.295776 0.786499
0.654510 0.295776 0.786499
0.786499 0.295776 0.786499
0.088043 0.407684 0.786499
0.118347 0.407684 0.786499
0.196045 0.407684 0.786499
0.295776 0.407684 0.786499
0.407684 0.407684 0.786499
0.527863 0.407684 0.786499
0.654510 0.407684 0.786499
0.786499 0.407684 0.786499
0.088043 0.527863 0.786499
0.118347 0.527863 0.786499
0.196045 0.527863 0.786499
0.295776 0.527863 0.786499
0.407684 0.527863 0.786499
0.527863 0.527863 0.786499
0.654510 0.527863 0.786499
0.786499 0.527863 0.786499
0.088043 0.654510 0.786499
0.118347 0.654510 0.786499
0.196045 0.654510 0.786499
0.295776 0.654510 0.786499
0.407684 0.654510 0.786499
0.527863 0.654510 0.786499
0.654510 0.654510 0.786499
0.786499 0.654510 0.786499
0.088043 0.786499 0.786499
0.118347 0.786499 0.786499
0.196045 0.786499 0.786499
0.295776 0.786499 0.786499
0.407684 0.786499 0.786499
0.527863 0.786499 0.786499
0.654510 0.786499 0.786499
0.786499 0.786499 0.786499
