public/luts/Electrification Key Visual - Innovation-Large.CUBE
#Created by: Adobe Photoshop Export Color Lookup Plugin
TITLE "Electrification Key Visual - Innovation-Large.psd"
#LUT size
LUT_3D_SIZE 32
#data domain
DOMAIN_MIN 0.0 0.0 0.0
DOMAIN_MAX 1.0 1.0 1.0
#LUT data points
0.088043 0.088043 0.088043
0.089661 0.088043 0.088043
0.095276 0.088043 0.088043
0.105011 0.088043 0.088043
0.118347 0.088043 0.088043
0.134644 0.088043 0.088043
0.153320 0.088043 0.088043
0.173889 0.088043 0.088043
0.196045 0.088043 0.088043
0.219482 0.088043 0.088043
0.244019 0.088043 0.088043
0.269470 0.088043 0.088043
0.295776 0.088043 0.088043
0.322815 0.088043 0.088043
0.350494 0.088043 0.088043
0.378815 0.088043 0.088043
0.407684 0.088043 0.088043
0.437042 0.088043 0.088043
0.466888 0.088043 0.088043
0.497162 0.088043 0.088043
0.527863 0.088043 0.088043
0.558990 0.088043 0.088043
0.590485 0.088043 0.088043
0.622314 0.088043 0.088043
0.654510 0.088043 0.088043
0.687042 0.088043 0.088043
0.719879 0.088043 0.088043
0.753052 0.088043 0.088043
0.786499 0.088043 0.088043
0.820221 0.088043 0.088043
0.854248 0.088043 0.088043
0.888519 0.088043 0.088043
0.088043 0.089661 0.088043
0.089661 0.089661 0.088043
0.095276 0.089661 0.088043
0.105011 0.089661 0.088043
0.118347 0.089661 0.088043
0.134644 0.089661 0.088043
0.153320 0.089661 0.088043
0.173889 0.089661 0.088043
0.196045 0.089661 0.088043
0.219482 0.089661 0.088043
0.244019 0.089661 0.088043
0.269470 0.089661 0.088043
0.295776 0.089661 0.088043
0.322815 0.089661 0.088043
0.350494 0.089661 0.088043
0.378815 0.089661 0.088043
0.407684 0.089661 0.088043
0.437042 0.089661 0.088043
0.466888 0.089661 0.088043
0.497162 0.089661 0.088043
0.527863 0.089661 0.088043
0.558990 0.089661 0.088043
0.590485 0.089661 0.088043
0.622314 0.089661 0.088043
0.654510 0.089661 0.088043
0.687042 0.089661 0.088043
0.719879 0.089661 0.088043
0.753052 0.089661 0.088043
0.786499 0.089661 0.088043
0.820221 0.089661 0.088043
0.854248 0.089661 0.088043
0.888519 0.089661 0.088043
0.088043 0.095276 0.088043
0.089661 0.095276 0.088043
0.095276 0.095276 0.088043
0.105011 0.095276 0.088043
0.118347 0.095276 0.088043
0.134644 0.095276 0.088043
0.153320 0.095276 0.088043
0.173889 0.095276 0.088043
0.196045 0.095276 0.088043
0.219482 0.095276 0.088043
0.244019 0.095276 0.088043
0.269470 0.095276 0.088043
0.295776 0.095276 0.088043
0.322815 0.095276 0.088043
0.350494 0.095276 0.088043
0.378815 0.095276 0.088043
0.407684 0.095276 0.088043
0.437042 0.095276 0.088043
0.466888 0.095276 0.088043
0.497162 0.095276 0.088043
0.527863 0.095276 0.088043
0.558990 0.095276 0.088043
0.590485 0.095276 0.088043
0.622314 0.095276 0.088043
0.654510 0.095276 0.088043
0.687042 0.095276 0.088043
0.719879 0.095276 0.088043
0.753052 0.095276 0.088043
0.786499 0.095276 0.088043
0.820221 0.095276 0.088043
0.854248 0.095276 0.088043
0.888519 0.095276 0.088043
0.088043 0.105011 0.088043
0.089661 0.105011 0.088043
0.095276 0.105011 0.088043
0.105011 0.105011 0.088043
0.118347 0.105011 0.088043
0.134644 0.105011 0.088043
0.153320 0.105011 0.088043
0.173889 0.105011 0.088043
0.196045 0.105011 0.088043
0.219482 0.105011 0.088043
0.244019 0.105011 0.088043
0.269470 0.105011 0.088043
0.295776 0.105011 0.088043
0.322815 0.105011 0.088043
0.350494 0.105011 0.088043
0.378815 0.105011 0.088043
0.407684 0.105011 0.088043
0.437042 0.105011 0.088043
0.466888 0.105011 0.088043
0.497162 0.105011 0.088043
0.527863 0.105011 0.088043
0.558990 0.105011 0.088043
0.590485 0.105011 0.088043
0.622314 0.105011 0.088043
0.654510 0.105011 0.088043
0.687042 0.105011 0.088043
0.719879 0.105011 0.088043
0.753052 0.105011 0.088043
0.786499 0.105011 0.088043
0.820221 0.105011 0.088043
0.854248 0.105011 0.088043
0.888519 0.105011 0.088043
0.088043 0.118347 0.088043
0.089661 0.118347 0.088043
0.095276 0.118347 0.088043
0.105011 0.118347 0.088043
0.118347 0.118347 0.088043
0.134644 0.118347 0.088043
0.153320 0.118347 0.088043
0.173889 0.118347 0.088043
0.196045 0.118347 0.088043
0.219482 0.118347 0.088043
0.244019 0.118347 0.088043
0.269470 0.118347 0.088043
0.295776 0.118347 0.088043
0.322815 0.118347 0.088043
0.350494 0.118347 0.088043
0.378815 0.118347 0.088043
0.407684 0.118347 0.088043
0.437042 0.118347 0.088043
0.466888 0.118347 0.088043
0.497162 0.118347 0.088043
0.527863 0.118347 0.088043
0.558990 0.118347 0.088043
0.590485 0.118347 0.088043
0.622314 0.118347 0.088043
0.654510 0.118347 0.088043
0.687042 0.118347 0.088043
0.719879 0.118347 0.088043
0.753052 0.118347 0.088043
0.786499 0.118347 0.088043
0.820221 0.118347 0.088043
0.854248 0.118347 0.088043
0.888519 0.118347 0.088043
0.088043 0.134644 0.088043
0.089661 0.134644 0.088043
0.095276 0.134644 0.088043
0.105011 0.134644 0.088043
0.118347 0.134644 0.088043
0.134644 0.134644 0.088043
0.153320 0.134644 0.088043
0.173889 0.134644 0.088043
0.196045 0.134644 0.088043
0.219482 0.134644 0.088043
0.244019 0.134644 0.088043
0.269470 0.134644 0.088043
0.295776 0.134644 0.088043
0.322815 0.134644 0.088043
0.350494 0.134644 0.088043
0.378815 0.134644 0.088043
0.407684 0.134644 0.088043
0.437042 0.134644 0.088043
0.466888 0.134644 0.088043
0.497162 0.134644 0.088043
0.527863 0.134644 0.088043
0.558990 0.134644 0.088043
0.590485 0.134644 0.088043
0.622314 0.134644 0.088043
0.654510 0.134644 0.088043
0.687042 0.134644 0.088043
0.719879 0.134644 0.088043
0.753052 0.134644 0.088043
0.786499 0.134644 0.088043
0.820221 0.134644 0.088043
0.854248 0.134644 0.088043
0.888519 0.134644 0.088043
0.088043 0.153320 0.088043
0.089661 0.153320 0.088043
0.095276 0.153320 0.088043
0.105011 0.153320 0.088043
0.118347 0.153320 0.088043
0.134644 0.153320 0.088043
0.153320 0.153320 0.088043
0.173889 0.153320 0.088043
0.196045 0.153320 0.088043
0.219482 0.153320 0.088043
0.244019 0.153320 0.088043
0.269470 0.153320 0.088043
0.295776 0.153320 0.088043
0.322815 0.153320 0.088043
0.350494 0.153320 0.088043
0.378815 0.153320 0.088043
0.407684 0.153320 0.088043
0.437042 0.153320 0.088043
0.466888 0.153320 0.088043
0.497162 0.153320 0.088043
0.527863 0.153320 0.088043
0.558990 0.153320 0.088043
0.590485 0.153320 0.088043
0.622314 0.153320 0.088043
0.654510 0.153320 0.088043
0.687042 0.153320 0.088043
0.719879 0.153320 0.088043
0.753052 0.153320 0.088043
0.786499 0.153320 0.088043
0.820221 0.153320 0.088043
0.854248 0.153320 0.088043
0.888519 0.153320 0.088043
0.088043 0.173889 0.088043
0.089661 0.173889 0.088043
0.095276 0.173889 0.088043
0.105011 0.173889 0.088043
0.118347 0.173889 0.088043
0.134644 0.173889 0.088043
0.153320 0.173889 0.088043
0.173889 0.173889 0.088043
0.196045 0.173889 0.088043
0.219482 0.173889 0.088043
0.244019 0.173889 0.088043
0.269470 0.173889 0.088043
0.295776 0.173889 0.088043
0.322815 0.173889 0.088043
0.350494 0.173889 0.088043
0.378815 0.173889 0.088043
0.407684 0.173889 0.088043
0.437042 0.173889 0.088043
0.466888 0.173889 0.088043
0.497162 0.173889 0.088043
0.527863 0.173889 0.088043
0.558990 0.173889 0.088043
0.590485 0.173889 0.088043
0.622314 0.173889 0.088043
0.654510 0.173889 0.088043
0.687042 0.173889 0.088043
0.719879 0.173889 0.088043
0.753052 0.173889 0.088043
0.786499 0.173889 0.088043
0.820221 0.173889 0.088043
0.854248 0.173889 0.088043
0.888519 0.173889 0.088043
0.088043 0.196045 0.088043
0.089661 0.196045 0.088043
0.095276 0.196045 0.088043
0.105011 0.196045 0.088043
0.118347 0.196045 0.088043
0.134644 0.196045 0.088043
0.153320 0.196045 0.088043
0.173889 0.196045 0.088043
0.196045 0.196045 0.088043
0.219482 0.196045 0.088043
0.244019 0.196045 0.088043
0.269470 0.196045 0.088043
0.295776 0.196045 0.088043
0.322815 0.196045 0.088043
0.350494 0.196045 0.088043
0.378815 0.196045 0.088043
0.407684 0.196045 0.088043
0.437042 0.196045 0.088043
0.466888 0.196045 0.088043
0.497162 0.196045 0.088043
0.527863 0.196045 0.088043
0.558990 0.196045 0.088043
0.590485 0.196045 0.088043
0.622314 0.196045 0.088043
0.654510 0.196045 0.088043
0.687042 0.196045 0.088043
0.719879 0.196045 0.088043
0.753052 0.196045 0.088043
0.786499 0.196045 0.088043
0.820221 0.196045 0.088043
0.854248 0.196045 0.088043
0.888519 0.196045 0.088043
0.088043 0.219482 0.088043
0.089661 0.219482 0.088043
0.095276 0.219482 0.088043
0.105011 0.219482 0.088043
0.118347 0.219482 0.088043
0.134644 0.219482 0.088043
0.153320 0.219482 0.088043
0.173889 0.219482 0.088043
0.196045 0.219482 0.088043
0.219482 0.219482 0.088043
0.244019 0.219482 0.088043
0.269470 0.219482 0.088043
0.295776 0.219482 0.088043
0.322815 0.219482 0.088043
0.350494 0.219482 0.088043
0.378815 0.219482 0.088043
0.407684 0.219482 0.088043
0.437042 0.219482 0.088043
0.466888 0.219482 0.088043
0.497162 0.219482 0.088043
0.527863 0.219482 0.088043
0.558990 0.219482 0.088043
0.590485 0.219482 0.088043
0.622314 0.219482 0.088043
0.654510 0.219482 0.088043
0.687042 0.219482 0.088043
0.719879 0.219482 0.088043
0.753052 0.219482 0.088043
0.786499 0.219482 0.088043
0.820221 0.219482 0.088043
0.854248 0.219482 0.088043
0.888519 0.219482 0.088043
0.088043 0.244019 0.088043
0.089661 0.244019 0.088043
0.095276 0.244019 0.088043
0.105011 0.244019 0.088043
0.118347 0.244019 0.088043
0.134644 0.244019 0.088043
0.153320 0.244019 0.088043
0.173889 0.244019 0.088043
0.196045 0.244019 0.088043
0.219482 0.244019 0.088043
0.244019 0.244019 0.088043
0.269470 0.244019 0.088043
0.295776 0.244019 0.088043
0.322815 0.244019 0.088043
0.350494 0.244019 0.088043
0.378815 0.244019 0.088043
0.407684 0.244019 0.088043
0.437042 0.244019 0.088043
0.466888 0.244019 0.088043
0.497162 0.244019 0.088043
0.527863 0.244019 0.088043
0.558990 0.244019 0.088043
0.590485 0.244019 0.088043
0.622314 0.244019 0.088043
0.654510 0.244019 0.088043
0.687042 0.244019 0.088043
0.719879 0.244019 0.088043
0.753052 0.244019 0.088043
0.786499 0.244019 0.088043
0.820221 0.244019 0.088043
0.854248 0.244019 0.088043
0.888519 0.244019 0.088043
0.088043 0.269470 0.088043
0.089661 0.269470 0.088043
0.095276 0.269470 0.088043
0.105011 0.269470 0.088043
0.118347 0.269470 0.088043
0.134644 0.269470 0.088043
0.153320 0.269470 0.088043
0.173889 0.269470 0.088043
0.196045 0.269470 0.088043
0.219482 0.269470 0.088043
0.244019 0.269470 0.088043
0.269470 0.269470 0.088043
0.295776 0.269470 0.088043
0.322815 0.269470 0.088043
0.350494 0.269470 0.088043
0.378815 0.269470 0.088043
0.407684 0.269470 0.088043
0.437042 0.269470 0.088043
0.466888 0.269470 0.088043
0.497162 0.269470 0.088043
0.527863 0.269470 0.088043
0.558990 0.269470 0.088043
0.590485 0.269470 0.088043
0.622314 0.269470 0.088043
0.654510 0.269470 0.088043
0.687042 0.269470 0.088043
0.719879 0.269470 0.088043
0.753052 0.269470 0.088043
0.786499 0.269470 0.088043
0.820221 0.269470 0.088043
0.854248 0.269470 0.088043
0.888519 0.269470 0.088043
0.088043 0.295776 0.088043
0.089661 0.295776 0.088043
0.095276 0.295776 0.088043
0.105011 0.295776 0.088043
0.118347 0.295776 0.088043
0.134644 0.295776 0.088043
0.153320 0.295776 0.088043
0.173889 0.295776 0.088043
0.196045 0.295776 0.088043
0.219482 0.295776 0.088043
0.244019 0.295776 0.088043
0.269470 0.295776 0.088043
0.295776 0.295776 0.088043
0.322815 0.295776 0.088043
0.350494 0.295776 0.088043
0.378815 0.295776 0.088043
0.407684 0.295776 0.088043
0.437042 0.295776 0.088043
0.466888 0.295776 0.088043
0.497162 0.295776 0.088043
0.527863 0.295776 0.088043
0.558990 0.295776 0.088043
0.590485 0.295776 0.088043
0.622314 0.295776 0.088043
0.654510 0.295776 0.088043
0.687042 0.295776 0.088043
0.719879 0.295776 0.088043
0.753052 0.295776 0.088043
0.786499 0.295776 0.088043
0.820221 0.295776 0.088043
0.854248 0.295776 0.088043
0.888519 0.295776 0.088043
0.088043 0.322815 0.088043
0.089661 0.322815 0.088043
0.095276 0.322815 0.088043
0.105011 0.322815 0.088043
0.118347 0.322815 0.088043
0.134644 0.322815 0.088043
0.153320 0.322815 0.088043
0.173889 0.322815 0.088043
0.196045 0.322815 0.088043
0.219482 0.322815 0.088043
0.244019 0.322815 0.088043
0.269470 0.322815 0.088043
0.295776 0.322815 0.088043
0.322815 0.322815 0.088043
0.350494 0.322815 0.088043
0.378815 0.322815 0.088043
0.407684 0.322815 0.088043
0.437042 0.322815 0.088043
0.466888 0.322815 0.088043
0.497162 0.322815 0.088043
0.527863 0.322815 0.088043
0.558990 0.322815 0.088043
0.590485 0.322815 0.088043
0.622314 0.322815 0.088043
0.654510 0.322815 0.088043
0.687042 0.322815 0.088043
0.719879 0.322815 0.088043
0.753052 0.322815 0.088043
0.786499 0.322815 0.088043
0.820221 0.322815 0.088043
0.854248 0.322815 0.088043
0.888519 0.322815 0.088043
0.088043 0.350494 0.088043
0.089661 0.350494 0.088043
0.095276 0.350494 0.088043
0.105011 0.350494 0.088043
0.118347 0.350494 0.088043
0.134644 0.350494 0.088043
0.153320 0.350494 0.088043
0.173889 0.350494 0.088043
0.196045 0.350494 0.088043
0.219482 0.350494 0.088043
0.244019 0.350494 0.088043
0.269470 0.350494 0.088043
0.295776 0.350494 0.088043
0.322815 0.350494 0.088043
0.350494 0.350494 0.088043
0.378815 0.350494 0.088043
0.407684 0.350494 0.088043
0.437042 0.350494 0.088043
0.466888 0.350494 0.088043
0.497162 0.350494 0.088043
0.527863 0.350494 0.088043
0.558990 0.350494 0.088043
0.590485 0.350494 0.088043
0.622314 0.350494 0.088043
0.654510 0.350494 0.088043
0.687042 0.350494 0.088043
0.719879 0.350494 0.088043
0.753052 0.350494 0.088043
0.786499 0.350494 0.088043
0.820221 0.350494 0.088043
0.854248 0.350494 0.088043
0.888519 0.350494 0.088043
0.088043 0.378815 0.088043
0.089661 0.378815 0.088043
0.095276 0.378815 0.088043
0.105011 0.378815 0.088043
0.118347 0.378815 0.088043
0.134644 0.378815 0.088043
0.153320 0.378815 0.088043
0.173889 0.378815 0.088043
0.196045 0.378815 0.088043
0.219482 0.378815 0.088043
0.244019 0.378815 0.088043
0.269470 0.378815 0.088043
0.295776 0.378815 0.088043
0.322815 0.378815 0.088043
0.350494 0.378815 0.088043
0.378815 0.378815 0.088043
0.407684 0.378815 0.088043
0.437042 0.378815 0.088043
0.466888 0.378815 0.088043
0.497162 0.378815 0.088043
0.527863 0.378815 0.088043
0.558990 0.378815 0.088043
0.590485 0.378815 0.088043
0.622314 0.378815 0.088043
0.654510 0.378815 0.088043
0.687042 0.378815 0.088043
0.719879 0.378815 0.088043
0.753052 0.378815 0.088043
0.786499 0.378815 0.088043
0.820221 0.378815 0.088043
0.854248 0.378815 0.088043
0.888519 0.378815 0.088043
0.088043 0.407684 0.088043
0.089661 0.407684 0.088043
0.095276 0.407684 0.088043
0.105011 0.407684 0.088043
0.118347 0.407684 0.088043
0.134644 0.407684 0.088043
0.153320 0.407684 0.088043
0.173889 0.407684 0.088043
0.196045 0.407684 0.088043
0.219482 0.407684 0.088043
0.244019 0.407684 0.088043
0.269470 0.407684 0.088043
0.295776 0.407684 0.088043
0.322815 0.407684 0.088043
0.350494 0.407684 0.088043
0.378815 0.407684 0.088043
0.407684 0.407684 0.088043
0.437042 0.407684 0.088043
0.466888 0.407684 0.088043
0.497162 0.407684 0.088043
0.527863 0.407684 0.088043
0.558990 0.407684 0.088043
0.590485 0.407684 0.088043
0.622314 0.407684 0.088043
0.654510 0.407684 0.088043
0.687042 0.407684 0.088043
0.719879 0.407684 0.088043
0.753052 0.407684 0.088043
0.786499 0.407684 0.088043
0.820221 0.407684 0.088043
0.854248 0.407684 0.088043
0.888519 0.407684 0.088043
0.088043 0.437042 0.088043
0.089661 0.437042 0.088043
0.095276 0.437042 0.088043
0.105011 0.437042 0.088043
0.118347 0.437042 0.088043
0.134644 0.437042 0.088043
0.153320 0.437042 0.088043
0.173889 0.437042 0.088043
0.196045 0.437042 0.088043
0.219482 0.437042 0.088043
0.244019 0.437042 0.088043
0.269470 0.437042 0.088043
0.295776 0.437042 0.088043
0.322815 0.437042 0.088043
0.350494 0.437042 0.088043
0.378815 0.437042 0.088043
0.407684 0.437042 0.088043
0.437042 0.437042 0.088043
0.466888 0.437042 0.088043
0.497162 0.437042 0.088043
0.527863 0.437042 0.088043
0.558990 0.437042 0.088043
0.590485 0.437042 0.088043
0.622314 0.437042 0.088043
0.654510 0.437042 0.088043
0.687042 0.437042 0.088043
0.719879 0.437042 0.088043
0.753052 0.437042 0.088043
0.786499 0.437042 0.088043
0.820221 0.437042 0.088043
0.854248 0.437042 0.088043
0.888519 0.437042 0.088043
0.088043 0.466888 0.088043
0.089661 0.466888 0.088043
0.095276 0.466888 0.088043
0.105011 0.466888 0.088043
0.118347 0.466888 0.088043
0.134644 0.466888 0.088043
0.153320 0.466888 0.088043
0.173889 0.466888 0.088043
0.196045 0.466888 0.088043
0.219482 0.466888 0.088043
0.244019 0.466888 0.088043
0.269470 0.466888 0.088043
0.295776 0.466888 0.088043
0.322815 0.466888 0.088043
0.350494 0.466888 0.088043
0.378815 0.466888 0.088043
0.407684 0.466888 0.088043
0.437042 0.466888 0.088043
0.466888 0.466888 0.088043
0.497162 0.466888 0.088043
0.527863 0.466888 0.088043
0.558990 0.466888 0.088043
0.590485 0.466888 0.088043
0.622314 0.466888 0.088043
0.654510 0.466888 0.088043
0.687042 0.466888 0.088043
0.719879 0.466888 0.088043
0.753052 0.466888 0.088043
0.786499 0.466888 0.088043
0.820221 0.466888 0.088043
0.854248 0.466888 0.088043
0.888519 0.466888 0.088043
0.088043 0.497162 0.088043
0.089661 0.497162 0.088043
0.095276 0.497162 0.088043
0.105011 0.497162 0.088043
0.118347 0.497162 0.088043
0.134644 0.497162 0.088043
0.153320 0.497162 0.088043
0.173889 0.497162 0.088043
0.196045 0.497162 0.088043
0.219482 0.497162 0.088043
0.244019 0.497162 0.088043
0.269470 0.497162 0.088043
0.295776 0.497162 0.088043
0.322815 0.497162 0.088043
0.350494 0.497162 0.088043
0.378815 0.497162 0.088043
0.407684 0.497162 0.088043
0.437042 0.497162 0.088043
0.466888 0.497162 0.088043
0.497162 0.497162 0.088043
0.527863 0.497162 0.088043
0.558990 0.497162 0.088043
0.590485 0.497162 0.088043
0.622314 0.497162 0.088043
0.654510 0.497162 0.088043
0.687042 0.497162 0.088043
0.719879 0.497162 0.088043
0.753052 0.497162 0.088043
0.786499 0.497162 0.088043
0.820221 0.497162 0.088043
0.854248 0.497162 0.088043
0.888519 0.497162 0.088043
0.088043 0.527863 0.088043
0.089661 0.527863 0.088043
0.095276 0.527863 0.088043
0.105011 0.527863 0.088043
0.118347 0.527863 0.088043
0.134644 0.527863 0.088043
0.153320 0.527863 0.088043
0.173889 0.527863 0.088043
0.196045 0.527863 0.088043
0.219482 0.527863 0.088043
0.244019 0.527863 0.088043
0.269470 0.527863 0.088043
0.295776 0.527863 0.088043
0.322815 0.527863 0.088043
0.350494 0.527863 0.088043
0.378815 0.527863 0.088043
0.407684 0.527863 0.088043
0.437042 0.527863 0.088043
0.466888 0.527863 0.088043
0.497162 0.527863 0.088043
0.527863 0.527863 0.088043
0.558990 0.527863 0.088043
0.590485 0.527863 0.088043
0.622314 0.527863 0.088043
0.654510 0.527863 0.088043
0.687042 0.527863 0.088043
0.719879 0.527863 0.088043
0.753052 0.527863 0.088043
0.786499 0.527863 0.088043
0.820221 0.527863 0.088043
0.854248 0.527863 0.088043
0.888519 0.527863 0.088043
0.088043 0.558990 0.088043
0.089661 0.558990 0.088043
0.095276 0.558990 0.088043
0.105011 0.558990 0.088043
0.118347 0.558990 0.088043
0.134644 0.558990 0.088043
0.153320 0.558990 0.088043
0.173889 0.558990 0.088043
0.196045 0.558990 0.088043
0.219482 0.558990 0.088043
0.244019 0.558990 0.088043
0.269470 0.558990 0.088043
0.295776 0.558990 0.088043
0.322815 0.558990 0.088043
0.350494 0.558990 0.088043
0.378815 0.558990 0.088043
0.407684 0.558990 0.088043
0.437042 0.558990 0.088043
0.466888 0.558990 0.088043
0.497162 0.558990 0.088043
0.527863 0.558990 0.088043
0.558990 0.558990 0.088043
0.590485 0.558990 0.088043
0.622314 0.558990 0.088043
0.654510 0.558990 0.088043
0.687042 0.558990 0.088043
0.719879 0.558990 0.088043
0.753052 0.558990 0.088043
0.786499 0.558990 0.088043
0.820221 0.558990 0.088043
0.854248 0.558990 0.088043
0.888519 0.558990 0.088043
0.088043 0.590485 0.088043
0.089661 0.590485 0.088043
0.095276 0.590485 0.088043
0.105011 0.590485 0.088043
0.118347 0.590485 0.088043
0.134644 0.590485 0.088043
0.153320 0.590485 0.088043
0.173889 0.590485 0.088043
0.196045 0.590485 0.088043
0.219482 0.590485 0.088043
0.244019 0.590485 0.088043
0.269470 0.590485 0.088043
0.295776 0.590485 0.088043
0.322815 0.590485 0.088043
0.350494 0.590485 0.088043
0.378815 0.590485 0.088043
0.407684 0.590485 0.088043
0.437042 0.590485 0.088043
0.466888 0.590485 0.088043
0.497162 0.590485 0.088043
0.527863 0.590485 0.088043
0.558990 0.590485 0.088043
0.590485 0.590485 0.088043
0.622314 0.590485 0.088043
0.654510 0.590485 0.088043
0.687042 0.590485 0.088043
0.719879 0.590485 0.088043
0.753052 0.590485 0.088043
0.786499 0.590485 0.088043
0.820221 0.590485 0.088043
0.854248 0.590485 0.088043
0.888519 0.590485 0.088043
0.088043 0.622314 0.088043
0.089661 0.622314 0.088043
0.095276 0.622314 0.088043
0.105011 0.622314 0.088043
0.118347 0.622314 0.088043
0.134644 0.622314 0.088043
0.153320 0.622314 0.088043
0.173889 0.622314 0.088043
0.196045 0.622314 0.088043
0.219482 0.622314 0.088043
0.244019 0.622314 0.088043
0.269470 0.622314 0.088043
0.295776 0.622314 0.088043
0.322815 0.622314 0.088043
0.350494 0.622314 0.088043
0.378815 0.622314 0.088043
0.407684 0.622314 0.088043
0.437042 0.622314 0.088043
0.466888 0.622314 0.088043
0.497162 0.622314 0.088043
0.527863 0.622314 0.088043
0.558990 0.622314 0.088043
0.590485 0.622314 0.088043
0.622314 0.622314 0.088043
0.654510 0.622314 0.088043
0.687042 0.622314 0.088043
0.719879 0.622314 0.088043
0.753052 0.622314 0.088043
0.786499 0.622314 0.088043
0.820221 0.622314 0.088043
0.854248 0.622314 0.088043
0.888519 0.622314 0.088043
0.088043 0.654510 0.088043
0.089661 0.654510 0.088043
0.095276 0.654510 0.088043
0.105011 0.654510 0.088043
0.118347 0.654510 0.088043
0.134644 0.654510 0.088043
0.153320 0.654510 0.088043
0.173889 0.654510 0.088043
0.196045 0.654510 0.088043
0.219482 0.654510 0.088043
0.244019 0.654510 0.088043
0.269470 0.654510 0.088043
0.295776 0.654510 0.088043
0.322815 0.654510 0.088043
0.350494 0.654510 0.088043
0.378815 0.654510 0.088043
0.407684 0.654510 0.088043
0.437042 0.654510 0.088043
0.466888 0.654510 0.088043
0.497162 0.654510 0.088043
0.527863 0.654510 0.088043
0.558990 0.654510 0.088043
0.590485 0.654510 0.088043
0.622314 0.654510 0.088043
0.654510 0.654510 0.088043
0.687042 0.654510 0.088043
0.719879 0.654510 0.088043
0.753052 0.654510 0.088043
0.786499 0.654510 0.088043
0.820221 0.654510 0.088043
0.854248 0.654510 0.088043
0.888519 0.654510 0.088043
0.088043 0.687042 0.088043
0.089661 0.687042 0.088043
0.095276 0.687042 0.088043
0.105011 0.687042 0.088043
0.118347 0.687042 0.088043
0.134644 0.687042 0.088043
0.153320 0.687042 0.088043
0.173889 0.687042 0.088043
0.196045 0.687042 0.088043
0.219482 0.687042 0.088043
0.244019 0.687042 0.088043
0.269470 0.687042 0.088043
0.295776 0.687042 0.088043
0.322815 0.687042 0.088043
0.350494 0.687042 0.088043
0.378815 0.687042 0.088043
0.407684 0.687042 0.088043
0.437042 0.687042 0.088043
0.466888 0.687042 0.088043
0.497162 0.687042 0.088043
0.527863 0.687042 0.088043
0.558990 0.687042 0.088043
0.590485 0.687042 0.088043
0.622314 0.687042 0.088043
0.654510 0.687042 0.088043
0.687042 0.687042 0.088043
0.719879 0.687042 0.088043
0.753052 0.687042 0.088043
0.786499 0.687042 0.088043
0.820221 0.687042 0.088043
0.854248 0.687042 0.088043
0.888519 0.687042 0.088043
0.088043 0.719879 0.088043
0.089661 0.719879 0.088043
0.095276 0.719879 0.088043
0.105011 0.719879 0.088043
0.118347 0.719879 0.088043
0.134644 0.719879 0.088043
0.153320 0.719879 0.088043
0.173889 0.719879 0.088043
0.196045 0.719879 0.088043
0.219482 0.719879 0.088043
0.244019 0.719879 0.088043
0.269470 0.719879 0.088043
0.295776 0.719879 0.088043
0.322815 0.719879 0.088043
0.350494 0.719879 0.088043
0.378815 0.719879 0.088043
0.407684 0.719879 0.088043
0.437042 0.719879 0.088043
0.466888 0.719879 0.088043
0.497162 0.719879 0.088043
0.527863 0.719879 0.088043
0.558990 0.719879 0.088043
0.590485 0.719879 0.088043
0.622314 0.719879 0.088043
0.654510 0.719879 0.088043
0.687042 0.719879 0.088043
0.719879 0.719879 0.088043
0.753052 0.719879 0.088043
0.786499 0.719879 0.088043
0.820221 0.719879 0.088043
0.854248 0.719879 0.088043
0.888519 0.719879 0.088043
0.088043 0.753052 0.088043
0.089661 0.753052 0.088043
0.095276 0.753052 0.088043
0.105011 0.753052 0.088043
0.118347 0.753052 0.088043
0.134644 0.753052 0.088043
0.153320 0.753052 0.088043
0.173889 0.753052 0.088043
0.196045 0.753052 0.088043
0.219482 0.753052 0.088043
0.244019 0.753052 0.088043
0.269470 0.753052 0.088043
0.295776 0.753052 0.088043
0.322815 0.753052 0.088043
0.350494 0.753052 0.088043
0.378815 0.753052 0.088043
