public/luts/Electrification Key Visual - Innovation-Large.CUBE
#Created by: Adobe Photoshop Export Color Lookup Plugin
TITLE "Electrification Key Visual - Innovation-Large.psd"
#LUT size
LUT_3D_SIZE 5
#data domain
#LUT data points
DOMAIN_MIN 0.000000 0.000000 0.000000
DOMAIN_MAX 0.903226 0.903226 0.903226
0.088043 0.088043 0.088043
0.173889 0.088043 0.088043
0.350494 0.088043 0.088043
0.558990 0.088043 0.088043
0.786499 0.088043 0.088043
0.088043 0.173889 0.088043
0.173889 0.173889 0.088043
0.350494 0.173889 0.088043
0.558990 0.173889 0.088043
0.786499 0.173889 0.088043
0.088043 0.350494 0.088043
0.173889 0.350494 0.088043
0.350494 0.350494 0.088043
0.558990 0.350494 0.088043
0.786499 0.350494 0.088043
0.088043 0.558990 0.088043
0.173889 0.558990 0.088043
0.350494 0.558990 0.088043
0.558990 0.558990 0.088043
0.786499 0.558990 0.088043
0.088043 0.786499 0.088043
0.173889 0.786499 0.088043
0.350494 0.786499 0.088043
0.558990 0.786499 0.088043
0.786499 0.786499 0.088043
0.088043 0.088043 0.173889
0.173889 0.088043 0.173889
0.350494 0.088043 0.173889
0.558990 0.088043 0.173889
0.786499 0.088043 0.173889
0.088043 0.173889 0.173889
0.173889 0.173889 0.173889
0.350494 0.173889 0.173889
0.558990 0.173889 0.173889
0.786499 0.173889 0.173889
0.088043 0.350494 0.173889
0.173889 0.350494 0.173889
0.350494 0.350494 0.173889
0.558990 0.350494 0.173889
0.786499 0.350494 0.173889
0.088043 0.558990 0.173889
0.173889 0.558990 0.173889
0.350494 0.558990 0.173889
0.558990 0.558990 0.173889
0.786499 0.558990 0.173889
0.088043 0.786499 0.173889
0.173889 0.786499 0.173889
0.350494 0.786499 0.173889
0.558990 0.786499 0.173889
0.786499 0.786499 0.173889
0.088043 0.088043 0.350494
0.173889 0.088043 0.350494
0.350494 0.088043 0.350494
0.558990 0.088043 0.350494
0.786499 0.088043 0.350494
0.088043 0.173889 0.350494
0.173889 0.173889 0.350494
0.350494 0.173889 0.350494
0.558990 0.173889 0.350494
0.786499 0.173889 0.350494
0.088043 0.350494 0.350494
0.173889 0.350494 0.350494
0.350494 0.350494 0.350494
0.558990 0.350494 0.350494
0.786499 0.350494 0.350494
0.088043 0.558990 0.350494
0.173889 0.558990 0.350494
0.350494 0.558990 0.350494
0.558990 0.558990 0.350494
0.786499 0.558990 0.350494
0.088043 0.786499 0.350494
0.173889 0.786499 0.350494
0.350494 0.786499 0.350494
0.558990 0.786499 0.350494
0.786499 0.786499 0.350494
0.088043 0.088043 0.558990
0.173889 0.088043 0.558990
0.350494 0.088043 0.558990
0.558990 0.088043 0.558990
0.786499 0.088043 0.558990
0.088043 0.173889 0.558990
0.173889 0.173889 0.558990
0.350494 0.173889 0.558990
0.558990 0.173889 0.558990
0.786499 0.173889 0.558990
0.088043 0.350494 0.558990
0.173889 0.350494 0.558990
0.350494 0.350494 0.558990
0.558990 0.350494 0.558990
0.786499 0.350494 0.558990
0.088043 0.558990 0.558990
0.173889 0.558990 0.558990
0.350494 0.558990 0.558990
0.558990 0.558990 0.558990
0.786499 0.558990 0.558990
0.088043 0.786499 0.558990
0.173889 0.786499 0.558990
0.350494 0.786499 0.558990
0.558990 0.786499 0.558990
0.786499 0.786499 0.558990
0.088043 0.088043 0.786499
0.173889 0.088043 0.786499
0.350494 0.088043 0.786499
0.558990 0.088043 0.786499
0.786499 0.088043 0.786499
0.088043 0.173889 0.786499
0.173889 0.173889 0.786499
0.350494 0.173889 0.786499
0.558990 0.173889 0.786499
0.786499 0.173889 0.786499
0.088043 0.350494 0.786499
0.173889 0.350494 0.786499
0.350494 0.350494 0.786499
0.558990 0.350494 0.786499
0.786499 0.350494 0.786499
0.088043 0.558990 0.786499
0.173889 0.558990 0.786499
0.350494 0.558990 0.786499
0.558990 0.558990 0.786499
0.786499 0.558990 0.786499
0.088043 0.786499 0.786499
0.173889 0.786499 0.786499
0.350494 0.786499 0.786499
0.558990 0.786499 0.786499
0.786499 0.786499 0.786499
