public/luts/GettyImages_664659401-Large.CUBE
#Created by: Adobe Photoshop Export Color Lookup Plugin
TITLE "GettyImages_664659401-Large.psd"
#LUT size
LUT_3D_SIZE 8
#data domain
#LUT data points
DOMAIN_MIN 0.000000 0.000000 0.000000
DOMAIN_MAX 0.903226 0.903226 0.903226
0.000000 0.000000 0.000000
0.102783 0.000000 0.000000
0.221985 0.000000 0.000000
0.348358 0.000000 0.000000
0.479584 0.000000 0.000000
0.614502 0.000000 0.000000
0.752502 0.000000 0.000000
0.893066 0.000000 0.000000
0.000000 0.126373 0.000000
0.102783 0.126373 0.000000
0.221985 0.126373 0.000000
0.348358 0.126373 0.000000
0.479584 0.126373 0.000000
0.614502 0.126373 0.000000
0.752502 0.126373 0.000000
0.893066 0.126373 0.000000
0.000000 0.254547 0.000000
0.102783 0.254547 0.000000
0.221985 0.254547 0.000000
0.348358 0.254547 0.000000
0.479584 0.254547 0.000000
0.614502 0.254547 0.000000
0.752502 0.254547 0.000000
0.893066 0.254547 0.000000
0.000000 0.383392 0.000000
0.102783 0.383392 0.000000
0.221985 0.383392 0.000000
0.348358 0.383392 0.000000
0.479584 0.383392 0.000000
0.614502 0.383392 0.000000
0.752502 0.383392 0.000000
0.893066 0.383392 0.000000
0.000000 0.512695 0.000000
0.102783 0.512695 0.000000
0.221985 0.512695 0.000000
0.348358 0.512695 0.000000
0.479584 0.512695 0.000000
0.614502 0.512695 0.000000
0.752502 0.512695 0.000000
0.893066 0.512695 0.000000
0.000000 0.642334 0.000000
0.102783 0.642334 0.000000
0.221985 0.642334 0.000000
0.348358 0.642334 0.000000
0.479584 0.642334 0.000000
0.614502 0.642334 0.000000
0.752502 0.642334 0.000000
0.893066 0.642334 0.000000
0.000000 0.772186 0.000000
0.102783 0.772186 0.000000
0.221985 0.772186 0.000000
0.348358 0.772186 0.000000
0.479584 0.772186 0.000000
0.614502 0.772186 0.000000
0.752502 0.772186 0.000000
0.893066 0.772186 0.000000
0.000000 0.902313 0.000000
0.102783 0.902313 0.000000
0.221985 0.902313 0.000000
0.348358 0.902313 0.000000
0.479584 0.902313 0.000000
0.614502 0.902313 0.000000
0.752502 0.902313 0.000000
0.893066 0.902313 0.000000
0.000000 0.000000 0.160706
0.102783 0.000000 0.160706
0.221985 0.000000 0.160706
0.348358 0.000000 0.160706
0.479584 0.000000 0.160706
0.614502 0.000000 0.160706
0.752502 0.000000 0.160706
0.893066 0.000000 0.160706
0.000000 0.126373 0.160706
0.102783 0.126373 0.160706
0.221985 0.126373 0.160706
0.348358 0.126373 0.160706
0.479584 0.126373 0.160706
0.614502 0.126373 0.160706
0.752502 0.126373 0.160706
0.893066 0.126373 0.160706
0.000000 0.254547 0.160706
0.102783 0.254547 0.160706
0.221985 0.254547 0.160706
0.348358 0.254547 0.160706
0.479584 0.254547 0.160706
0.614502 0.254547 0.160706
0.752502 0.254547 0.160706
0.893066 0.254547 0.160706
0.000000 0.383392 0.160706
0.102783 0.383392 0.160706
0.221985 0.383392 0.160706
0.348358 0.383392 0.160706
0.479584 0.383392 0.160706
0.614502 0.383392 0.160706
0.752502 0.383392 0.160706
0.893066 0.383392 0.160706
0.000000 0.512695 0.160706
0.102783 0.512695 0.160706
0.221985 0.512695 0.160706
0.348358 0.512695 0.160706
0.479584 0.512695 0.160706
0.614502 0.512695 0.160706
0.752502 0.512695 0.160706
0.893066 0.512695 0.160706
0.000000 0.642334 0.160706
0.102783 0.642334 0.160706
0.221985 0.642334 0.160706
0.348358 0.642334 0.160706
0.479584 0.642334 0.160706
0.614502 0.642334 0.160706
0.752502 0.642334 0.160706
0.893066 0.642334 0.160706
0.000000 0.772186 0.160706
0.102783 0.772186 0.160706
0.221985 0.772186 0.160706
0.348358 0.772186 0.160706
0.479584 0.772186 0.160706
0.614502 0.772186 0.160706
0.752502 0.772186 0.160706
0.893066 0.772186 0.160706
0.000000 0.902313 0.160706
0.102783 0.902313 0.160706
0.221985 0.902313 0.160706
0.348358 0.902313 0.160706
0.479584 0.902313 0.160706
0.614502 0.902313 0.160706
0.752502 0.902313 0.160706
0.893066 0.902313 0.160706
0.000000 0.000000 0.298370
0.102783 0.000000 0.298370
0.221985 0.000000 0.298370
0.348358 0.000000 0.298370
0.479584 0.000000 0.298370
0.614502 0.000000 0.298370
0.752502 0.000000 0.298370
0.893066 0.000000 0.298370
0.000000 0.126373 0.298370
0.102783 0.126373 0.298370
0.221985 0.126373 0.298370
0.348358 0.126373 0.298370
0.479584 0.126373 0.298370
0.614502 0.126373 0.298370
0.752502 0.126373 0.298370
0.893066 0.126373 0.298370
0.000000 0.254547 0.298370
0.102783 0.254547 0.298370
0.221985 0.254547 0.298370
0.348358 0.254547 0.298370
0.479584 0.254547 0.298370
0.614502 0.254547 0.298370
0.752502 0.254547 0.298370
0.893066 0.254547 0.298370
0.000000 0.383392 0.298370
0.102783 0.383392 0.298370
0.221985 0.383392 0.298370
0.348358 0.383392 0.298370
0.479584 0.383392 0.298370
0.614502 0.383392 0.298370
0.752502 0.383392 0.298370
0.893066 0.383392 0.298370
0.000000 0.512695 0.298370
0.102783 0.512695 0.298370
0.221985 0.512695 0.298370
0.348358 0.512695 0.298370
0.479584 0.512695 0.298370
0.614502 0.512695 0.298370
0.752502 0.512695 0.298370
0.893066 0.512695 0.298370
0.000000 0.642334 0.298370
0.102783 0.642334 0.298370
0.221985 0.642334 0.298370
0.348358 0.642334 0.298370
0.479584 0.642334 0.298370
0.614502 0.642334 0.298370
0.752502 0.642334 0.298370
0.893066 0.642334 0.298370
0.000000 0.772186 0.298370
0.102783 0.772186 0.298370
0.221985 0.772186 0.298370
0.348358 0.772186 0.298370
0.479584 0.772186 0.298370
0.614502 0.772186 0.298370
0.752502 0.772186 0.298370
0.893066 0.772186 0.298370
0.000000 0.902313 0.298370
0.102783 0.902313 0.298370
0.221985 0.902313 0.298370
0.348358 0.902313 0.298370
0.479584 0.902313 0.298370
0.614502 0.902313 0.298370
0.752502 0.902313 0.298370
0.893066 0.902313 0.298370
0.000000 0.000000 0.428528
0.102783 0.000000 0.428528
0.221985 0.000000 0.428528
0.348358 0.000000 0.428528
0.479584 0.000000 0.428528
0.614502 0.000000 0.428528
0.752502 0.000000 0.428528
0.893066 0.000000 0.428528
0.000000 0.126373 0.428528
0.102783 0.126373 0.428528
0.221985 0.126373 0.428528
0.348358 0.126373 0.428528
0.479584 0.126373 0.428528
0.614502 0.126373 0.428528
0.752502 0.126373 0.428528
0.893066 0.126373 0.428528
0.000000 0.254547 0.428528
0.102783 0.254547 0.428528
0.221985 0.254547 0.428528
0.348358 0.254547 0.428528
0.479584 0.254547 0.428528
0.614502 0.254547 0.428528
0.752502 0.254547 0.428528
0.893066 0.254547 0.428528
0.000000 0.383392 0.428528
0.102783 0.383392 0.428528
0.221985 0.383392 0.428528
0.348358 0.383392 0.428528
0.479584 0.383392 0.428528
0.614502 0.383392 0.428528
0.752502 0.383392 0.428528
0.893066 0.383392 0.428528
0.000000 0.512695 0.428528
0.102783 0.512695 0.428528
0.221985 0.512695 0.428528
0.348358 0.512695 0.428528
0.479584 0.512695 0.428528
0.614502 0.512695 0.428528
0.752502 0.512695 0.428528
0.893066 0.512695 0.428528
0.000000 0.642334 0.428528
0.102783 0.642334 0.428528
0.221985 0.642334 0.428528
0.348358 0.642334 0.428528
0.479584 0.642334 0.428528
0.614502 0.642334 0.428528
0.752502 0.642334 0.428528
0.893066 0.642334 0.428528
0.000000 0.772186 0.428528
0.102783 0.772186 0.428528
0.221985 0.772186 0.428528
0.348358 0.772186 0.428528
0.479584 0.772186 0.428528
0.614502 0.772186 0.428528
0.752502 0.772186 0.428528
0.893066 0.772186 0.428528
0.000000 0.902313 0.428528
0.102783 0.902313 0.428528
0.221985 0.902313 0.428528
0.348358 0.902313 0.428528
0.479584 0.902313 0.428528
0.614502 0.902313 0.428528
0.752502 0.902313 0.428528
0.893066 0.902313 0.428528
0.000000 0.000000 0.554047
0.102783 0.000000 0.554047
0.221985 0.000000 0.554047
0.348358 0.000000 0.554047
0.479584 0.000000 0.554047
0.614502 0.000000 0.554047
0.752502 0.000000 0.554047
0.893066 0.000000 0.554047
0.000000 0.126373 0.554047
0.102783 0.126373 0.554047
0.221985 0.126373 0.554047
0.348358 0.126373 0.554047
0.479584 0.126373 0.554047
0.614502 0.126373 0.554047
0.752502 0.126373 0.554047
0.893066 0.126373 0.554047
0.000000 0.254547 0.554047
0.102783 0.254547 0.554047
0.221985 0.254547 0.554047
0.348358 0.254547 0.554047
0.479584 0.254547 0.554047
0.614502 0.254547 0.554047
0.752502 0.254547 0.554047
0.893066 0.254547 0.554047
0.000000 0.383392 0.554047
0.102783 0.383392 0.554047
0.221985 0.383392 0.554047
0.348358 0.383392 0.554047
0.479584 0.383392 0.554047
0.614502 0.383392 0.554047
0.752502 0.383392 0.554047
0.893066 0.383392 0.554047
0.000000 0.512695 0.554047
0.102783 0.512695 0.554047
0.221985 0.512695 0.554047
0.348358 0.512695 0.554047
0.479584 0.512695 0.554047
0.614502 0.512695 0.554047
0.752502 0.512695 0.554047
0.893066 0.512695 0.554047
0.000000 0.642334 0.554047
0.102783 0.642334 0.554047
0.221985 0.642334 0.554047
0.348358 0.642334 0.554047
0.479584 0.642334 0.554047
0.614502 0.642334 0.554047
0.752502 0.642334 0.554047
0.893066 0.642334 0.554047
0.000000 0.772186 0.554047
0.102783 0.772186 0.554047
0.221985 0.772186 0.554047
0.348358 0.772186 0.554047
0.479584 0.772186 0.554047
0.614502 0.772186 0.554047
0.752502 0.772186 0.554047
0.893066 0.772186 0.554047
0.000000 0.902313 0.554047
0.102783 0.902313 0.554047
0.221985 0.902313 0.554047
0.348358 0.902313 0.554047
0.479584 0.902313 0.554047
0.614502 0.902313 0.554047
0.752502 0.902313 0.554047
0.893066 0.902313 0.554047
0.000000 0.000000 0.676178
0.102783 0.000000 0.676178
0.221985 0.000000 0.676178
0.348358 0.000000 0.676178
0.479584 0.000000 0.676178
0.614502 0.000000 0.676178
0.752502 0.000000 0.676178
0.893066 0.000000 0.676178
0.000000 0.126373 0.676178
0.102783 0.126373 0.676178
0.221985 0.126373 0.676178
0.348358 0.126373 0.676178
0.479584 0.126373 0.676178
0.614502 0.126373 0.676178
0.752502 0.126373 0.676178
0.893066 0.126373 0.676178
0.000000 0.254547 0.676178
0.102783 0.254547 0.676178
0.221985 0.254547 0.676178
0.348358 0.254547 0.676178
0.479584 0.254547 0.676178
0.614502 0.254547 0.676178
0.752502 0.254547 0.676178
0.893066 0.254547 0.676178
0.000000 0.383392 0.676178
0.102783 0.383392 0.676178
0.221985 0.383392 0.676178
0.348358 0.383392 0.676178
0.479584 0.383392 0.676178
0.614502 0.383392 0.676178
0.752502 0.383392 0.676178
0.893066 0.383392 0.676178
0.000000 0.512695 0.676178
0.102783 0.512695 0.676178
0.221985 0.512695 0.676178
0.348358 0.512695 0.676178
0.479584 0.512695 0.676178
0.614502 0.512695 0.676178
0.752502 0.512695 0.676178
0.893066 0.512695 0.676178
0.000000 0.642334 0.676178
0.102783 0.642334 0.676178
0.221985 0.642334 0.676178
0.348358 0.642334 0.676178
0.479584 0.642334 0.676178
0.614502 0.642334 0.676178
0.752502 0.642334 0.676178
0.893066 0.642334 0.676178
0.000000 0.772186 0.676178
0.102783 0.772186 0.676178
0.221985 0.772186 0.676178
0.348358 0.772186 0.676178
0.479584 0.772186 0.676178
0.614502 0.772186 0.676178
0.752502 0.772186 0.676178
0.893066 0.772186 0.676178
0.000000 0.902313 0.676178
0.102783 0.902313 0.676178
0.221985 0.902313 0.676178
0.348358 0.902313 0.676178
0.479584 0.902313 0.676178
0.614502 0.902313 0.676178
0.752502 0.902313 0.676178
0.893066 0.902313 0.676178
0.000000 0.000000 0.795715
0.102783 0.000000 0.795715
0.221985 0.000000 0.795715
0.348358 0.000000 0.795715
0.479584 0.000000 0.795715
0.614502 0.000000 0.795715
0.752502 0.000000 0.795715
0.893066 0.000000 0.795715
0.000000 0.126373 0.795715
0.102783 0.126373 0.795715
0.221985 0.126373 0.795715
0.348358 0.126373 0.795715
0.479584 0.126373 0.795715
0.614502 0.126373 0.795715
0.752502 0.126373 0.795715
0.893066 0.126373 0.795715
0.000000 0.254547 0.795715
0.102783 0.254547 0.795715
0.221985 0.254547 0.795715
0.348358 0.254547 0.795715
0.479584 0.254547 0.795715
0.614502 0.254547 0.795715
0.752502 0.254547 0.795715
0.893066 0.254547 0.795715
0.000000 0.383392 0.795715
0.102783 0.383392 0.795715
0.221985 0.383392 0.795715
0.348358 0.383392 0.795715
0.479584 0.383392 0.795715
0.614502 0.383392 0.795715
0.752502 0.383392 0.795715
0.893066 0.383392 0.795715
0.000000 0.512695 0.795715
0.102783 0.512695 0.795715
0.221985 0.512695 0.795715
0.348358 0.512695 0.795715
0.479584 0.512695 0.795715
0.614502 0.512695 0.795715
0.752502 0.512695 0.795715
0.893066 0.512695 0.795715
0.000000 0.642334 0.795715
0.102783 0.642334 0.795715
0.221985 0.642334 0.795715
0.348358 0.642334 0.795715
0.479584 0.642334 0.795715
0.614502 0.642334 0.795715
0.752502 0.642334 0.795715
0.893066 0.642334 0.795715
0.000000 0.772186 0.795715
0.102783 0.772186 0.795715
0.221985 0.772186 0.795715
0.348358 0.772186 0.795715
0.479584 0.772186 0.795715
0.614502 0.772186 0.795715
0.752502 0.772186 0.795715
0.893066 0.772186 0.795715
0.000000 0.902313 0.795715
0.102783 0.902313 0.795715
0.221985 0.902313 0.795715
0.348358 0.902313 0.795715
0.479584 0.902313 0.795715
0.614502 0.902313 0.795715
0.752502 0.902313 0.795715
0.893066 0.902313 0.795715
0.000000 0.000000 0.913116
0.102783 0.000000 0.913116
0.221985 0.000000 0.913116
0.348358 0.000000 0.913116
0.479584 0.000000 0.913116
0.614502 0.000000 0.913116
0.752502 0.000000 0.913116
0.893066 0.000000 0.913116
0.000000 0.126373 0.913116
0.102783 0.126373 0.913116
0.221985 0.126373 0.913116
0.348358 0.126373 0.913116
0.479584 0.126373 0.913116
0.614502 0.126373 0.913116
0.752502 0.126373 0.913116
0.893066 0.126373 0.913116
0.000000 0.254547 0.913116
0.102783 0.254547 0.913116
0.221985 0.254547 0.913116
0.348358 0.254547 0.913116
0.479584 0.254547 0.913116
0.614502 0.254547 0.913116
0.752502 0.254547 0.913116
0.893066 0.254547 0.913116
0.000000 0.383392 0.913116
0.102783 0.383392 0.913116
0.221985 0.383392 0.913116
0.348358 0.383392 0.913116
0.479584 0.383392 0.913116
0.614502 0.383392 0.913116
0.752502 0.383392 0.913116
0.893066 0.383392 0.913116
0.000000 0.512695 0.913116
0.102783 0.512695 0.913116
0.221985 0.512695 0.913116
0.348358 0.512695 0.913116
0.479584 0.512695 0.913116
0.614502 0.512695 0.913116
0.752502 0.512695 0.913116
0.893066 0.512695 0.913116
0.000000 0.642334 0.913116
0.102783 0.642334 0.913116
0.221985 0.642334 0.913116
0.348358 0.642334 0.913116
0.479584 0.642334 0.913116
0.614502 0.642334 0.913116
0.752502 0.642334 0.913116
0.893066 0.642334 0.913116
0.000000 0.772186 0.913116
0.102783 0.772186 0.913116
0.221985 0.772186 0.913116
0.348358 0.772186 0.913116
0.479584 0.772186 0.913116
0.614502 0.772186 0.913116
0.752502 0.772186 0.913116
0.893066 0.772186 0.913116
0.000000 0.902313 0.913116
0.102783 0.902313 0.913116
0.221985 0.902313 0.913116
0.348358 0.902313 0.913116
0.479584 0.902313 0.913116
0.614502 0.902313 0.913116
0.752502 0.902313 0.913116
0.893066 0.902313 0.913116
