public/luts/GettyImages_1279332587-Large.CUBE
#Created by: Adobe Photoshop Export Color Lookup Plugin
TITLE "GettyImages_1279332587-Large.psd"
#LUT size
LUT_3D_SIZE 8
#data domain
#LUT data points
DOMAIN_MIN 0.000000 0.000000 0.000000
DOMAIN_MAX 0.903226 0.903226 0.903226
0.000000 0.000000 0.000000
0.102783 0.000000 0.000000
0.221985 0.000000 0.000000
0.348358 0.000000 0.000000
0.479584 0.000000 0.000000
0.614502 0.000000 0.000000
0.752502 0.000000 0.000000
0.893066 0.000000 0.000000
0.000000 0.121124 0.000000
0.102783 0.121124 0.000000
0.221985 0.121124 0.000000
0.348358 0.121124 0.000000
0.479584 0.121124 0.000000
0.614502 0.121124 0.000000
0.752502 0.121124 0.000000
0.893066 0.121124 0.000000
0.000000 0.247467 0.000000
0.102783 0.247467 0.000000
0.221985 0.247467 0.000000
0.348358 0.247467 0.000000
0.479584 0.247467 0.000000
0.614502 0.247467 0.000000
0.752502 0.247467 0.000000
0.893066 0.247467 0.000000
0.000000 0.375885 0.000000
0.102783 0.375885 0.000000
0.221985 0.375885 0.000000
0.348358 0.375885 0.000000
0.479584 0.375885 0.000000
0.614502 0.375885 0.000000
0.752502 0.375885 0.000000
0.893066 0.375885 0.000000
0.000000 0.505707 0.000000
0.102783 0.505707 0.000000
0.221985 0.505707 0.000000
0.348358 0.505707 0.000000
0.479584 0.505707 0.000000
0.614502 0.505707 0.000000
0.752502 0.505707 0.000000
0.893066 0.505707 0.000000
0.000000 0.636475 0.000000
0.102783 0.636475 0.000000
0.221985 0.636475 0.000000
0.348358 0.636475 0.000000
0.479584 0.636475 0.000000
0.614502 0.636475 0.000000
0.752502 0.636475 0.000000
0.893066 0.636475 0.000000
0.000000 0.768097 0.000000
0.102783 0.768097 0.000000
0.221985 0.768097 0.000000
0.348358 0.768097 0.000000
0.479584 0.768097 0.000000
0.614502 0.768097 0.000000
0.752502 0.768097 0.000000
0.893066 0.768097 0.000000
0.000000 0.900391 0.000000
0.102783 0.900391 0.000000
0.221985 0.900391 0.000000
0.348358 0.900391 0.000000
0.479584 0.900391 0.000000
0.614502 0.900391 0.000000
0.752502 0.900391 0.000000
0.893066 0.900391 0.000000
0.000000 0.000000 0.160706
0.102783 0.000000 0.160706
0.221985 0.000000 0.160706
0.348358 0.000000 0.160706
0.479584 0.000000 0.160706
0.614502 0.000000 0.160706
0.752502 0.000000 0.160706
0.893066 0.000000 0.160706
0.000000 0.121124 0.160706
0.102783 0.121124 0.160706
0.221985 0.121124 0.160706
0.348358 0.121124 0.160706
0.479584 0.121124 0.160706
0.614502 0.121124 0.160706
0.752502 0.121124 0.160706
0.893066 0.121124 0.160706
0.000000 0.247467 0.160706
0.102783 0.247467 0.160706
0.221985 0.247467 0.160706
0.348358 0.247467 0.160706
0.479584 0.247467 0.160706
0.614502 0.247467 0.160706
0.752502 0.247467 0.160706
0.893066 0.247467 0.160706
0.000000 0.375885 0.160706
0.102783 0.375885 0.160706
0.221985 0.375885 0.160706
0.348358 0.375885 0.160706
0.479584 0.375885 0.160706
0.614502 0.375885 0.160706
0.752502 0.375885 0.160706
0.893066 0.375885 0.160706
0.000000 0.505707 0.160706
0.102783 0.505707 0.160706
0.221985 0.505707 0.160706
0.348358 0.505707 0.160706
0.479584 0.505707 0.160706
0.614502 0.505707 0.160706
0.752502 0.505707 0.160706
0.893066 0.505707 0.160706
0.000000 0.636475 0.160706
0.102783 0.636475 0.160706
0.221985 0.636475 0.160706
0.348358 0.636475 0.160706
0.479584 0.636475 0.160706
0.614502 0.636475 0.160706
0.752502 0.636475 0.160706
0.893066 0.636475 0.160706
0.000000 0.768097 0.160706
0.102783 0.768097 0.160706
0.221985 0.768097 0.160706
0.348358 0.768097 0.160706
0.479584 0.768097 0.160706
0.614502 0.768097 0.160706
0.752502 0.768097 0.160706
0.893066 0.768097 0.160706
0.000000 0.900391 0.160706
0.102783 0.900391 0.160706
0.221985 0.900391 0.160706
0.348358 0.900391 0.160706
0.479584 0.900391 0.160706
0.614502 0.900391 0.160706
0.752502 0.900391 0.160706
0.893066 0.900391 0.160706
0.000000 0.000000 0.298370
0.102783 0.000000 0.298370
0.221985 0.000000 0.298370
0.348358 0.000000 0.298370
0.479584 0.000000 0.298370
0.614502 0.000000 0.298370
0.752502 0.000000 0.298370
0.893066 0.000000 0.298370
0.000000 0.121124 0.298370
0.102783 0.121124 0.298370
0.221985 0.121124 0.298370
0.348358 0.121124 0.298370
0.479584 0.121124 0.298370
0.614502 0.121124 0.298370
0.752502 0.121124 0.298370
0.893066 0.121124 0.298370
0.000000 0.247467 0.298370
0.102783 0.247467 0.298370
0.221985 0.247467 0.298370
0.348358 0.247467 0.298370
0.479584 0.247467 0.298370
0.614502 0.247467 0.298370
0.752502 0.247467 0.298370
0.893066 0.247467 0.298370
0.000000 0.375885 0.298370
0.102783 0.375885 0.298370
0.221985 0.375885 0.298370
0.348358 0.375885 0.298370
0.479584 0.375885 0.298370
0.614502 0.375885 0.298370
0.752502 0.375885 0.298370
0.893066 0.375885 0.298370
0.000000 0.505707 0.298370
0.102783 0.505707 0.298370
0.221985 0.505707 0.298370
0.348358 0.505707 0.298370
0.479584 0.505707 0.298370
0.614502 0.505707 0.298370
0.752502 0.505707 0.298370
0.893066 0.505707 0.298370
0.000000 0.636475 0.298370
0.102783 0.636475 0.298370
0.221985 0.636475 0.298370
0.348358 0.636475 0.298370
0.479584 0.636475 0.298370
0.614502 0.636475 0.298370
0.752502 0.636475 0.298370
0.893066 0.636475 0.298370
0.000000 0.768097 0.298370
0.102783 0.768097 0.298370
0.221985 0.768097 0.298370
0.348358 0.768097 0.298370
0.479584 0.768097 0.298370
0.614502 0.768097 0.298370
0.752502 0.768097 0.298370
0.893066 0.768097 0.298370
0.000000 0.900391 0.298370
0.102783 0.900391 0.298370
0.221985 0.900391 0.298370
0.348358 0.900391 0.298370
0.479584 0.900391 0.298370
0.614502 0.900391 0.298370
0.752502 0.900391 0.298370
0.893066 0.900391 0.298370
0.000000 0.000000 0.428528
0.102783 0.000000 0.428528
0.221985 0.000000 0.428528
0.348358 0.000000 0.428528
0.479584 0.000000 0.428528
0.614502 0.000000 0.428528
0.752502 0.000000 0.428528
0.893066 0.000000 0.428528
0.000000 0.121124 0.428528
0.102783 0.121124 0.428528
0.221985 0.121124 0.428528
0.348358 0.121124 0.428528
0.479584 0.121124 0.428528
0.614502 0.121124 0.428528
0.752502 0.121124 0.428528
0.893066 0.121124 0.428528
0.000000 0.247467 0.428528
0.102783 0.247467 0.428528
0.221985 0.247467 0.428528
0.348358 0.247467 0.428528
0.479584 0.247467 0.428528
0.614502 0.247467 0.428528
0.752502 0.247467 0.428528
0.893066 0.247467 0.428528
0.000000 0.375885 0.428528
0.102783 0.375885 0.428528
0.221985 0.375885 0.428528
0.348358 0.375885 0.428528
0.479584 0.375885 0.428528
0.614502 0.375885 0.428528
0.752502 0.375885 0.428528
0.893066 0.375885 0.428528
0.000000 0.505707 0.428528
0.102783 0.505707 0.428528
0.221985 0.505707 0.428528
0.348358 0.505707 0.428528
0.479584 0.505707 0.428528
0.614502 0.505707 0.428528
0.752502 0.505707 0.428528
0.893066 0.505707 0.428528
0.000000 0.636475 0.428528
0.102783 0.636475 0.428528
0.221985 0.636475 0.428528
0.348358 0.636475 0.428528
0.479584 0.636475 0.428528
0.614502 0.636475 0.428528
0.752502 0.636475 0.428528
0.893066 0.636475 0.428528
0.000000 0.768097 0.428528
0.102783 0.768097 0.428528
0.221985 0.768097 0.428528
0.348358 0.768097 0.428528
0.479584 0.768097 0.428528
0.614502 0.768097 0.428528
0.752502 0.768097 0.428528
0.893066 0.768097 0.428528
0.000000 0.900391 0.428528
0.102783 0.900391 0.428528
0.221985 0.900391 0.428528
0.348358 0.900391 0.428528
0.479584 0.900391 0.428528
0.614502 0.900391 0.428528
0.752502 0.900391 0.428528
0.893066 0.900391 0.428528
0.000000 0.000000 0.554047
0.102783 0.000000 0.554047
0.221985 0.000000 0.554047
0.348358 0.000000 0.554047
0.479584 0.000000 0.554047
0.614502 0.000000 0.554047
0.752502 0.000000 0.554047
0.893066 0.000000 0.554047
0.000000 0.121124 0.554047
0.102783 0.121124 0.554047
0.221985 0.121124 0.554047
0.348358 0.121124 0.554047
0.479584 0.121124 0.554047
0.614502 0.121124 0.554047
0.752502 0.121124 0.554047
0.893066 0.121124 0.554047
0.000000 0.247467 0.554047
0.102783 0.247467 0.554047
0.221985 0.247467 0.554047
0.348358 0.247467 0.554047
0.479584 0.247467 0.554047
0.614502 0.247467 0.554047
0.752502 0.247467 0.554047
0.893066 0.247467 0.554047
0.000000 0.375885 0.554047
0.102783 0.375885 0.554047
0.221985 0.375885 0.554047
0.348358 0.375885 0.554047
0.479584 0.375885 0.554047
0.614502 0.375885 0.554047
0.752502 0.375885 0.554047
0.893066 0.375885 0.554047
0.000000 0.505707 0.554047
0.102783 0.505707 0.554047
0.221985 0.505707 0.554047
0.348358 0.505707 0.554047
0.479584 0.505707 0.554047
0.614502 0.505707 0.554047
0.752502 0.505707 0.554047
0.893066 0.505707 0.554047
0.000000 0.636475 0.554047
0.102783 0.636475 0.554047
0.221985 0.636475 0.554047
0.348358 0.636475 0.554047
0.479584 0.636475 0.554047
0.614502 0.636475 0.554047
0.752502 0.636475 0.554047
0.893066 0.636475 0.554047
0.000000 0.768097 0.554047
0.102783 0.768097 0.554047
0.221985 0.768097 0.554047
0.348358 0.768097 0.554047
0.479584 0.768097 0.554047
0.614502 0.768097 0.554047
0.752502 0.768097 0.554047
0.893066 0.768097 0.554047
0.000000 0.900391 0.554047
0.102783 0.900391 0.554047
0.221985 0.900391 0.554047
0.348358 0.900391 0.554047
0.479584 0.900391 0.554047
0.614502 0.900391 0.554047
0.752502 0.900391 0.554047
0.893066 0.900391 0.554047
0.000000 0.000000 0.676178
0.102783 0.000000 0.676178
0.221985 0.000000 0.676178
0.348358 0.000000 0.676178
0.479584 0.000000 0.676178
0.614502 0.000000 0.676178
0.752502 0.000000 0.676178
0.893066 0.000000 0.676178
0.000000 0.121124 0.676178
0.102783 0.121124 0.676178
0.221985 0.121124 0.676178
0.348358 0.121124 0.676178
0.479584 0.121124 0.676178
0.614502 0.121124 0.676178
0.752502 0.121124 0.676178
0.893066 0.121124 0.676178
0.000000 0.247467 0.676178
0.102783 0.247467 0.676178
0.221985 0.247467 0.676178
0.348358 0.247467 0.676178
0.479584 0.247467 0.676178
0.614502 0.247467 0.676178
0.752502 0.247467 0.676178
0.893066 0.247467 0.676178
0.000000 0.375885 0.676178
0.102783 0.375885 0.676178
0.221985 0.375885 0.676178
0.348358 0.375885 0.676178
0.479584 0.375885 0.676178
0.614502 0.375885 0.676178
0.752502 0.375885 0.676178
0.893066 0.375885 0.676178
0.000000 0.505707 0.676178
0.102783 0.505707 0.676178
0.221985 0.505707 0.676178
0.348358 0.505707 0.676178
0.479584 0.505707 0.676178
0.614502 0.505707 0.676178
0.752502 0.505707 0.676178
0.893066 0.505707 0.676178
0.000000 0.636475 0.676178
0.102783 0.636475 0.676178
0.221985 0.636475 0.676178
0.348358 0.636475 0.676178
0.479584 0.636475 0.676178
0.614502 0.636475 0.676178
0.752502 0.636475 0.676178
0.893066 0.636475 0.676178
0.000000 0.768097 0.676178
0.102783 0.768097 0.676178
0.221985 0.768097 0.676178
0.348358 0.768097 0.676178
0.479584 0.768097 0.676178
0.614502 0.768097 0.676178
0.752502 0.768097 0.676178
0.893066 0.768097 0.676178
0.000000 0.900391 0.676178
0.102783 0.900391 0.676178
0.221985 0.900391 0.676178
0.348358 0.900391 0.676178
0.479584 0.900391 0.676178
0.614502 0.900391 0.676178
0.752502 0.900391 0.676178
0.893066 0.900391 0.676178
0.000000 0.000000 0.795715
0.102783 0.000000 0.795715
0.221985 0.000000 0.795715
0.348358 0.000000 0.795715
0.479584 0.000000 0.795715
0.614502 0.000000 0.795715
0.752502 0.000000 0.795715
0.893066 0.000000 0.795715
0.000000 0.121124 0.795715
0.102783 0.121124 0.795715
0.221985 0.121124 0.795715
0.348358 0.121124 0.795715
0.479584 0.121124 0.795715
0.614502 0.121124 0.795715
0.752502 0.121124 0.795715
0.893066 0.121124 0.795715
0.000000 0.247467 0.795715
0.102783 0.247467 0.795715
0.221985 0.247467 0.795715
0.348358 0.247467 0.795715
0.479584 0.247467 0.795715
0.614502 0.247467 0.795715
0.752502 0.247467 0.795715
0.893066 0.247467 0.795715
0.000000 0.375885 0.795715
0.102783 0.375885 0.795715
0.221985 0.375885 0.795715
0.348358 0.375885 0.795715
0.479584 0.375885 0.795715
0.614502 0.375885 0.795715
0.752502 0.375885 0.795715
0.893066 0.375885 0.795715
0.000000 0.505707 0.795715
0.102783 0.505707 0.795715
0.221985 0.505707 0.795715
0.348358 0.505707 0.795715
0.479584 0.505707 0.795715
0.614502 0.505707 0.795715
0.752502 0.505707 0.795715
0.893066 0.505707 0.795715
0.000000 0.636475 0.795715
0.102783 0.636475 0.795715
0.221985 0.636475 0.795715
0.348358 0.636475 0.795715
0.479584 0.636475 0.795715
0.614502 0.636475 0.795715
0.752502 0.636475 0.795715
0.893066 0.636475 0.795715
0.000000 0.768097 0.795715
0.102783 0.768097 0.795715
0.221985 0.768097 0.795715
0.348358 0.768097 0.795715
0.479584 0.768097 0.795715
0.614502 0.768097 0.795715
0.752502 0.768097 0.795715
0.893066 0.768097 0.795715
0.000000 0.900391 0.795715
0.102783 0.900391 0.795715
0.221985 0.900391 0.795715
0.348358 0.900391 0.795715
0.479584 0.900391 0.795715
0.614502 0.900391 0.795715
0.752502 0.900391 0.795715
0.893066 0.900391 0.795715
0.000000 0.000000 0.913116
0.102783 0.000000 0.913116
0.221985 0.000000 0.913116
0.348358 0.000000 0.913116
0.479584 0.000000 0.913116
0.614502 0.000000 0.913116
0.752502 0.000000 0.913116
0.893066 0.000000 0.913116
0.000000 0.121124 0.913116
0.102783 0.121124 0.913116
0.221985 0.121124 0.913116
0.348358 0.121124 0.913116
0.479584 0.121124 0.913116
0.614502 0.121124 0.913116
0.752502 0.121124 0.913116
0.893066 0.121124 0.913116
0.000000 0.247467 0.913116
0.102783 0.247467 0.913116
0.221985 0.247467 0.913116
0.348358 0.247467 0.913116
0.479584 0.247467 0.913116
0.614502 0.247467 0.913116
0.752502 0.247467 0.913116
0.893066 0.247467 0.913116
0.000000 0.375885 0.913116
0.102783 0.375885 0.913116
0.221985 0.375885 0.913116
0.348358 0.375885 0.913116
0.479584 0.375885 0.913116
0.614502 0.375885 0.913116
0.752502 0.375885 0.913116
0.893066 0.375885 0.913116
0.000000 0.505707 0.913116
0.102783 0.505707 0.913116
0.221985 0.505707 0.913116
0.348358 0.505707 0.913116
0.479584 0.505707 0.913116
0.614502 0.505707 0.913116
0.752502 0.505707 0.913116
0.893066 0.505707 0.913116
0.000000 0.636475 0.913116
0.102783 0.636475 0.913116
0.221985 0.636475 0.913116
0.348358 0.636475 0.913116
0.479584 0.636475 0.913116
0.614502 0.636475 0.913116
0.752502 0.636475 0.913116
0.893066 0.636475 0.913116
0.000000 0.768097 0.913116
0.102783 0.768097 0.913116
0.221985 0.768097 0.913116
0.348358 0.768097 0.913116
0.479584 0.768097 0.913116
0.614502 0.768097 0.913116
0.752502 0.768097 0.913116
0.893066 0.768097 0.913116
0.000000 0.900391 0.913116
0.102783 0.900391 0.913116
0.221985 0.900391 0.913116
0.348358 0.900391 0.913116
0.479584 0.900391 0.913116
0.614502 0.900391 0.913116
0.752502 0.900391 0.913116
0.893066 0.900391 0.913116
