public/luts/GettyImages_615332840.CUBE
#Created by: Adobe Photoshop Export Color Lookup Plugin
TITLE "GettyImages_615332840.psd"
#LUT size
LUT_3D_SIZE 5
#data domain
#LUT data points
DOMAIN_MIN 0.000000 0.000000 0.000000
DOMAIN_MAX 0.903226 0.903226 0.903226
0.000000 0.000000 0.000000
0.255310 0.000000 0.000000
0.482239 0.000000 0.000000
0.699554 0.000000 0.000000
0.910858 0.000000 0.000000
0.000000 0.225800 0.000000
0.255310 0.225800 0.000000
0.482239 0.225800 0.000000
0.699554 0.225800 0.000000
0.910858 0.225800 0.000000
0.000000 0.451599 0.000000
0.255310 0.451599 0.000000
0.482239 0.451599 0.000000
0.699554 0.451599 0.000000
0.910858 0.451599 0.000000
0.000000 0.677429 0.000000
0.255310 0.677429 0.000000
0.482239 0.677429 0.000000
0.699554 0.677429 0.000000
0.910858 0.677429 0.000000
0.000000 0.903229 0.000000
0.255310 0.903229 0.000000
0.482239 0.903229 0.000000
0.699554 0.903229 0.000000
0.910858 0.903229 0.000000
0.000000 0.000000 0.198395
0.255310 0.000000 0.198395
0.482239 0.000000 0.198395
0.699554 0.000000 0.198395
0.910858 0.000000 0.198395
0.000000 0.225800 0.198395
0.255310 0.225800 0.198395
0.482239 0.225800 0.198395
0.699554 0.225800 0.198395
0.910858 0.225800 0.198395
0.000000 0.451599 0.198395
0.255310 0.451599 0.198395
0.482239 0.451599 0.198395
0.699554 0.451599 0.198395
0.910858 0.451599 0.198395
0.000000 0.677429 0.198395
0.255310 0.677429 0.198395
0.482239 0.677429 0.198395
0.699554 0.677429 0.198395
0.910858 0.677429 0.198395
0.000000 0.903229 0.198395
0.255310 0.903229 0.198395
0.482239 0.903229 0.198395
0.699554 0.903229 0.198395
0.910858 0.903229 0.198395
0.000000 0.000000 0.421448
0.255310 0.000000 0.421448
0.482239 0.000000 0.421448
0.699554 0.000000 0.421448
0.910858 0.000000 0.421448
0.000000 0.225800 0.421448
0.255310 0.225800 0.421448
0.482239 0.225800 0.421448
0.699554 0.225800 0.421448
0.910858 0.225800 0.421448
0.000000 0.451599 0.421448
0.255310 0.451599 0.421448
0.482239 0.451599 0.421448
0.699554 0.451599 0.421448
0.910858 0.451599 0.421448
0.000000 0.677429 0.421448
0.255310 0.677429 0.421448
0.482239 0.677429 0.421448
0.699554 0.677429 0.421448
0.910858 0.677429 0.421448
0.000000 0.903229 0.421448
0.255310 0.903229 0.421448
0.482239 0.903229 0.421448
0.699554 0.903229 0.421448
0.910858 0.903229 0.421448
0.000000 0.000000 0.654877
0.255310 0.000000 0.654877
0.482239 0.000000 0.654877
0.699554 0.000000 0.654877
0.910858 0.000000 0.654877
0.000000 0.225800 0.654877
0.255310 0.225800 0.654877
0.482239 0.225800 0.654877
0.699554 0.225800 0.654877
0.910858 0.225800 0.654877
0.000000 0.451599 0.654877
0.255310 0.451599 0.654877
0.482239 0.451599 0.654877
0.699554 0.451599 0.654877
0.910858 0.451599 0.654877
0.000000 0.677429 0.654877
0.255310 0.677429 0.654877
0.482239 0.677429 0.654877
0.699554 0.677429 0.654877
0.910858 0.677429 0.654877
0.000000 0.903229 0.654877
0.255310 0.903229 0.654877
0.482239 0.903229 0.654877
0.699554 0.903229 0.654877
0.910858 0.903229 0.654877
0.000000 0.000000 0.895264
0.255310 0.000000 0.895264
0.482239 0.000000 0.895264
0.699554 0.000000 0.895264
0.910858 0.000000 0.895264
0.000000 0.225800 0.895264
0.255310 0.225800 0.895264
0.482239 0.225800 0.895264
0.699554 0.225800 0.895264
0.910858 0.225800 0.895264
0.000000 0.451599 0.895264
0.255310 0.451599 0.895264
0.482239 0.451599 0.895264
0.699554 0.451599 0.895264
0.910858 0.451599 0.895264
0.000000 0.677429 0.895264
0.255310 0.677429 0.895264
0.482239 0.677429 0.895264
0.699554 0.677429 0.895264
0.910858 0.677429 0.895264
0.000000 0.903229 0.895264
0.255310 0.903229 0.895264
0.482239 0.903229 0.895264
0.699554 0.903229 0.895264
0.910858 0.903229 0.895264
