public/luts/GettyImages_664659401-Large.CUBE
#Created by: Adobe Photoshop Export Color Lookup Plugin
TITLE "GettyImages_664659401-Large.psd"
#LUT size
LUT_3D_SIZE 32
#data domain
DOMAIN_MIN 0.0 0.0 0.0
DOMAIN_MAX 1.0 1.0 1.0
#LUT data points
0.000000 0.000000 0.000000
0.022034 0.000000 0.000000
0.047577 0.000000 0.000000
0.074677 0.000000 0.000000
0.102783 0.000000 0.000000
0.131683 0.000000 0.000000
0.161255 0.000000 0.000000
0.191376 0.000000 0.000000
0.221985 0.000000 0.000000
0.253052 0.000000 0.000000
0.284454 0.000000 0.000000
0.316254 0.000000 0.000000
0.348358 0.000000 0.000000
0.380737 0.000000 0.000000
0.413422 0.000000 0.000000
0.446350 0.000000 0.000000
0.479584 0.000000 0.000000
0.513000 0.000000 0.000000
0.546631 0.000000 0.000000
0.580475 0.000000 0.000000
0.614502 0.000000 0.000000
0.648743 0.000000 0.000000
0.683167 0.000000 0.000000
0.717743 0.000000 0.000000
0.752502 0.000000 0.000000
0.787415 0.000000 0.000000
0.822479 0.000000 0.000000
0.857727 0.000000 0.000000
0.893066 0.000000 0.000000
0.928589 0.000000 0.000000
0.964233 0.000000 0.000000
1.000000 0.000000 0.000000
0.000000 0.031158 0.000000
0.022034 0.031158 0.000000
0.047577 0.031158 0.000000
0.074677 0.031158 0.000000
0.102783 0.031158 0.000000
0.131683 0.031158 0.000000
0.161255 0.031158 0.000000
0.191376 0.031158 0.000000
0.221985 0.031158 0.000000
0.253052 0.031158 0.000000
0.284454 0.031158 0.000000
0.316254 0.031158 0.000000
0.348358 0.031158 0.000000
0.380737 0.031158 0.000000
0.413422 0.031158 0.000000
0.446350 0.031158 0.000000
0.479584 0.031158 0.000000
0.513000 0.031158 0.000000
0.546631 0.031158 0.000000
0.580475 0.031158 0.000000
0.614502 0.031158 0.000000
0.648743 0.031158 0.000000
0.683167 0.031158 0.000000
0.717743 0.031158 0.000000
0.752502 0.031158 0.000000
0.787415 0.031158 0.000000
0.822479 0.031158 0.000000
0.857727 0.031158 0.000000
0.893066 0.031158 0.000000
0.928589 0.031158 0.000000
0.964233 0.031158 0.000000
1.000000 0.031158 0.000000
0.000000 0.062744 0.000000
0.022034 0.062744 0.000000
0.047577 0.062744 0.000000
0.074677 0.062744 0.000000
0.102783 0.062744 0.000000
0.131683 0.062744 0.000000
0.161255 0.062744 0.000000
0.191376 0.062744 0.000000
0.221985 0.062744 0.000000
0.253052 0.062744 0.000000
0.284454 0.062744 0.000000
0.316254 0.062744 0.000000
0.348358 0.062744 0.000000
0.380737 0.062744 0.000000
0.413422 0.062744 0.000000
0.446350 0.062744 0.000000
0.479584 0.062744 0.000000
0.513000 0.062744 0.000000
0.546631 0.062744 0.000000
0.580475 0.062744 0.000000
0.614502 0.062744 0.000000
0.648743 0.062744 0.000000
0.683167 0.062744 0.000000
0.717743 0.062744 0.000000
0.752502 0.062744 0.000000
0.787415 0.062744 0.000000
0.822479 0.062744 0.000000
0.857727 0.062744 0.000000
0.893066 0.062744 0.000000
0.928589 0.062744 0.000000
0.964233 0.062744 0.000000
1.000000 0.062744 0.000000
0.000000 0.094513 0.000000
0.022034 0.094513 0.000000
0.047577 0.094513 0.000000
0.074677 0.094513 0.000000
0.102783 0.094513 0.000000
0.131683 0.094513 0.000000
0.161255 0.094513 0.000000
0.191376 0.094513 0.000000
0.221985 0.094513 0.000000
0.253052 0.094513 0.000000
0.284454 0.094513 0.000000
0.316254 0.094513 0.000000
0.348358 0.094513 0.000000
0.380737 0.094513 0.000000
0.413422 0.094513 0.000000
0.446350 0.094513 0.000000
0.479584 0.094513 0.000000
0.513000 0.094513 0.000000
0.546631 0.094513 0.000000
0.580475 0.094513 0.000000
0.614502 0.094513 0.000000
0.648743 0.094513 0.000000
0.683167 0.094513 0.000000
0.717743 0.094513 0.000000
0.752502 0.094513 0.000000
0.787415 0.094513 0.000000
0.822479 0.094513 0.000000
0.857727 0.094513 0.000000
0.893066 0.094513 0.000000
0.928589 0.094513 0.000000
0.964233 0.094513 0.000000
1.000000 0.094513 0.000000
0.000000 0.126373 0.000000
0.022034 0.126373 0.000000
0.047577 0.126373 0.000000
0.074677 0.126373 0.000000
0.102783 0.126373 0.000000
0.131683 0.126373 0.000000
0.161255 0.126373 0.000000
0.191376 0.126373 0.000000
0.221985 0.126373 0.000000
0.253052 0.126373 0.000000
0.284454 0.126373 0.000000
0.316254 0.126373 0.000000
0.348358 0.126373 0.000000
0.380737 0.126373 0.000000
0.413422 0.126373 0.000000
0.446350 0.126373 0.000000
0.479584 0.126373 0.000000
0.513000 0.126373 0.000000
0.546631 0.126373 0.000000
0.580475 0.126373 0.000000
0.614502 0.126373 0.000000
0.648743 0.126373 0.000000
0.683167 0.126373 0.000000
0.717743 0.126373 0.000000
0.752502 0.126373 0.000000
0.787415 0.126373 0.000000
0.822479 0.126373 0.000000
0.857727 0.126373 0.000000
0.893066 0.126373 0.000000
0.928589 0.126373 0.000000
0.964233 0.126373 0.000000
1.000000 0.126373 0.000000
0.000000 0.158325 0.000000
0.022034 0.158325 0.000000
0.047577 0.158325 0.000000
0.074677 0.158325 0.000000
0.102783 0.158325 0.000000
0.131683 0.158325 0.000000
0.161255 0.158325 0.000000
0.191376 0.158325 0.000000
0.221985 0.158325 0.000000
0.253052 0.158325 0.000000
0.284454 0.158325 0.000000
0.316254 0.158325 0.000000
0.348358 0.158325 0.000000
0.380737 0.158325 0.000000
0.413422 0.158325 0.000000
0.446350 0.158325 0.000000
0.479584 0.158325 0.000000
0.513000 0.158325 0.000000
0.546631 0.158325 0.000000
0.580475 0.158325 0.000000
0.614502 0.158325 0.000000
0.648743 0.158325 0.000000
0.683167 0.158325 0.000000
0.717743 0.158325 0.000000
0.752502 0.158325 0.000000
0.787415 0.158325 0.000000
0.822479 0.158325 0.000000
0.857727 0.158325 0.000000
0.893066 0.158325 0.000000
0.928589 0.158325 0.000000
0.964233 0.158325 0.000000
1.000000 0.158325 0.000000
0.000000 0.190369 0.000000
0.022034 0.190369 0.000000
0.047577 0.190369 0.000000
0.074677 0.190369 0.000000
0.102783 0.190369 0.000000
0.131683 0.190369 0.000000
0.161255 0.190369 0.000000
0.191376 0.190369 0.000000
0.221985 0.190369 0.000000
0.253052 0.190369 0.000000
0.284454 0.190369 0.000000
0.316254 0.190369 0.000000
0.348358 0.190369 0.000000
0.380737 0.190369 0.000000
0.413422 0.190369 0.000000
0.446350 0.190369 0.000000
0.479584 0.190369 0.000000
0.513000 0.190369 0.000000
0.546631 0.190369 0.000000
0.580475 0.190369 0.000000
0.614502 0.190369 0.000000
0.648743 0.190369 0.000000
0.683167 0.190369 0.000000
0.717743 0.190369 0.000000
0.752502 0.190369 0.000000
0.787415 0.190369 0.000000
0.822479 0.190369 0.000000
0.857727 0.190369 0.000000
0.893066 0.190369 0.000000
0.928589 0.190369 0.000000
0.964233 0.190369 0.000000
1.000000 0.190369 0.000000
0.000000 0.222443 0.000000
0.022034 0.222443 0.000000
0.047577 0.222443 0.000000
0.074677 0.222443 0.000000
0.102783 0.222443 0.000000
0.131683 0.222443 0.000000
0.161255 0.222443 0.000000
0.191376 0.222443 0.000000
0.221985 0.222443 0.000000
0.253052 0.222443 0.000000
0.284454 0.222443 0.000000
0.316254 0.222443 0.000000
0.348358 0.222443 0.000000
0.380737 0.222443 0.000000
0.413422 0.222443 0.000000
0.446350 0.222443 0.000000
0.479584 0.222443 0.000000
0.513000 0.222443 0.000000
0.546631 0.222443 0.000000
0.580475 0.222443 0.000000
0.614502 0.222443 0.000000
0.648743 0.222443 0.000000
0.683167 0.222443 0.000000
0.717743 0.222443 0.000000
0.752502 0.222443 0.000000
0.787415 0.222443 0.000000
0.822479 0.222443 0.000000
0.857727 0.222443 0.000000
0.893066 0.222443 0.000000
0.928589 0.222443 0.000000
0.964233 0.222443 0.000000
1.000000 0.222443 0.000000
0.000000 0.254547 0.000000
0.022034 0.254547 0.000000
0.047577 0.254547 0.000000
0.074677 0.254547 0.000000
0.102783 0.254547 0.000000
0.131683 0.254547 0.000000
0.161255 0.254547 0.000000
0.191376 0.254547 0.000000
0.221985 0.254547 0.000000
0.253052 0.254547 0.000000
0.284454 0.254547 0.000000
0.316254 0.254547 0.000000
0.348358 0.254547 0.000000
0.380737 0.254547 0.000000
0.413422 0.254547 0.000000
0.446350 0.254547 0.000000
0.479584 0.254547 0.000000
0.513000 0.254547 0.000000
0.546631 0.254547 0.000000
0.580475 0.254547 0.000000
0.614502 0.254547 0.000000
0.648743 0.254547 0.000000
0.683167 0.254547 0.000000
0.717743 0.254547 0.000000
0.752502 0.254547 0.000000
0.787415 0.254547 0.000000
0.822479 0.254547 0.000000
0.857727 0.254547 0.000000
0.893066 0.254547 0.000000
0.928589 0.254547 0.000000
0.964233 0.254547 0.000000
1.000000 0.254547 0.000000
0.000000 0.286713 0.000000
0.022034 0.286713 0.000000
0.047577 0.286713 0.000000
0.074677 0.286713 0.000000
0.102783 0.286713 0.000000
0.131683 0.286713 0.000000
0.161255 0.286713 0.000000
0.191376 0.286713 0.000000
0.221985 0.286713 0.000000
0.253052 0.286713 0.000000
0.284454 0.286713 0.000000
0.316254 0.286713 0.000000
0.348358 0.286713 0.000000
0.380737 0.286713 0.000000
0.413422 0.286713 0.000000
0.446350 0.286713 0.000000
0.479584 0.286713 0.000000
0.513000 0.286713 0.000000
0.546631 0.286713 0.000000
0.580475 0.286713 0.000000
0.614502 0.286713 0.000000
0.648743 0.286713 0.000000
0.683167 0.286713 0.000000
0.717743 0.286713 0.000000
0.752502 0.286713 0.000000
0.787415 0.286713 0.000000
0.822479 0.286713 0.000000
0.857727 0.286713 0.000000
0.893066 0.286713 0.000000
0.928589 0.286713 0.000000
0.964233 0.286713 0.000000
1.000000 0.286713 0.000000
0.000000 0.318909 0.000000
0.022034 0.318909 0.000000
0.047577 0.318909 0.000000
0.074677 0.318909 0.000000
0.102783 0.318909 0.000000
0.131683 0.318909 0.000000
0.161255 0.318909 0.000000
0.191376 0.318909 0.000000
0.221985 0.318909 0.000000
0.253052 0.318909 0.000000
0.284454 0.318909 0.000000
0.316254 0.318909 0.000000
0.348358 0.318909 0.000000
0.380737 0.318909 0.000000
0.413422 0.318909 0.000000
0.446350 0.318909 0.000000
0.479584 0.318909 0.000000
0.513000 0.318909 0.000000
0.546631 0.318909 0.000000
0.580475 0.318909 0.000000
0.614502 0.318909 0.000000
0.648743 0.318909 0.000000
0.683167 0.318909 0.000000
0.717743 0.318909 0.000000
0.752502 0.318909 0.000000
0.787415 0.318909 0.000000
0.822479 0.318909 0.000000
0.857727 0.318909 0.000000
0.893066 0.318909 0.000000
0.928589 0.318909 0.000000
0.964233 0.318909 0.000000
1.000000 0.318909 0.000000
0.000000 0.351135 0.000000
0.022034 0.351135 0.000000
0.047577 0.351135 0.000000
0.074677 0.351135 0.000000
0.102783 0.351135 0.000000
0.131683 0.351135 0.000000
0.161255 0.351135 0.000000
0.191376 0.351135 0.000000
0.221985 0.351135 0.000000
0.253052 0.351135 0.000000
0.284454 0.351135 0.000000
0.316254 0.351135 0.000000
0.348358 0.351135 0.000000
0.380737 0.351135 0.000000
0.413422 0.351135 0.000000
0.446350 0.351135 0.000000
0.479584 0.351135 0.000000
0.513000 0.351135 0.000000
0.546631 0.351135 0.000000
0.580475 0.351135 0.000000
0.614502 0.351135 0.000000
0.648743 0.351135 0.000000
0.683167 0.351135 0.000000
0.717743 0.351135 0.000000
0.752502 0.351135 0.000000
0.787415 0.351135 0.000000
0.822479 0.351135 0.000000
0.857727 0.351135 0.000000
0.893066 0.351135 0.000000
0.928589 0.351135 0.000000
0.964233 0.351135 0.000000
1.000000 0.351135 0.000000
0.000000 0.383392 0.000000
0.022034 0.383392 0.000000
0.047577 0.383392 0.000000
0.074677 0.383392 0.000000
0.102783 0.383392 0.000000
0.131683 0.383392 0.000000
0.161255 0.383392 0.000000
0.191376 0.383392 0.000000
0.221985 0.383392 0.000000
0.253052 0.383392 0.000000
0.284454 0.383392 0.000000
0.316254 0.383392 0.000000
0.348358 0.383392 0.000000
0.380737 0.383392 0.000000
0.413422 0.383392 0.000000
0.446350 0.383392 0.000000
0.479584 0.383392 0.000000
0.513000 0.383392 0.000000
0.546631 0.383392 0.000000
0.580475 0.383392 0.000000
0.614502 0.383392 0.000000
0.648743 0.383392 0.000000
0.683167 0.383392 0.000000
0.717743 0.383392 0.000000
0.752502 0.383392 0.000000
0.787415 0.383392 0.000000
0.822479 0.383392 0.000000
0.857727 0.383392 0.000000
0.893066 0.383392 0.000000
0.928589 0.383392 0.000000
0.964233 0.383392 0.000000
1.000000 0.383392 0.000000
0.000000 0.415680 0.000000
0.022034 0.415680 0.000000
0.047577 0.415680 0.000000
0.074677 0.415680 0.000000
0.102783 0.415680 0.000000
0.131683 0.415680 0.000000
0.161255 0.415680 0.000000
0.191376 0.415680 0.000000
0.221985 0.415680 0.000000
0.253052 0.415680 0.000000
0.284454 0.415680 0.000000
0.316254 0.415680 0.000000
0.348358 0.415680 0.000000
0.380737 0.415680 0.000000
0.413422 0.415680 0.000000
0.446350 0.415680 0.000000
0.479584 0.415680 0.000000
0.513000 0.415680 0.000000
0.546631 0.415680 0.000000
0.580475 0.415680 0.000000
0.614502 0.415680 0.000000
0.648743 0.415680 0.000000
0.683167 0.415680 0.000000
0.717743 0.415680 0.000000
0.752502 0.415680 0.000000
0.787415 0.415680 0.000000
0.822479 0.415680 0.000000
0.857727 0.415680 0.000000
0.893066 0.415680 0.000000
0.928589 0.415680 0.000000
0.964233 0.415680 0.000000
1.000000 0.415680 0.000000
0.000000 0.447998 0.000000
0.022034 0.447998 0.000000
0.047577 0.447998 0.000000
0.074677 0.447998 0.000000
0.102783 0.447998 0.000000
0.131683 0.447998 0.000000
0.161255 0.447998 0.000000
0.191376 0.447998 0.000000
0.221985 0.447998 0.000000
0.253052 0.447998 0.000000
0.284454 0.447998 0.000000
0.316254 0.447998 0.000000
0.348358 0.447998 0.000000
0.380737 0.447998 0.000000
0.413422 0.447998 0.000000
0.446350 0.447998 0.000000
0.479584 0.447998 0.000000
0.513000 0.447998 0.000000
0.546631 0.447998 0.000000
0.580475 0.447998 0.000000
0.614502 0.447998 0.000000
0.648743 0.447998 0.000000
0.683167 0.447998 0.000000
0.717743 0.447998 0.000000
0.752502 0.447998 0.000000
0.787415 0.447998 0.000000
0.822479 0.447998 0.000000
0.857727 0.447998 0.000000
0.893066 0.447998 0.000000
0.928589 0.447998 0.000000
0.964233 0.447998 0.000000
1.000000 0.447998 0.000000
0.000000 0.480316 0.000000
0.022034 0.480316 0.000000
0.047577 0.480316 0.000000
0.074677 0.480316 0.000000
0.102783 0.480316 0.000000
0.131683 0.480316 0.000000
0.161255 0.480316 0.000000
0.191376 0.480316 0.000000
0.221985 0.480316 0.000000
0.253052 0.480316 0.000000
0.284454 0.480316 0.000000
0.316254 0.480316 0.000000
0.348358 0.480316 0.000000
0.380737 0.480316 0.000000
0.413422 0.480316 0.000000
0.446350 0.480316 0.000000
0.479584 0.480316 0.000000
0.513000 0.480316 0.000000
0.546631 0.480316 0.000000
0.580475 0.480316 0.000000
0.614502 0.480316 0.000000
0.648743 0.480316 0.000000
0.683167 0.480316 0.000000
0.717743 0.480316 0.000000
0.752502 0.480316 0.000000
0.787415 0.480316 0.000000
0.822479 0.480316 0.000000
0.857727 0.480316 0.000000
0.893066 0.480316 0.000000
0.928589 0.480316 0.000000
0.964233 0.480316 0.000000
1.000000 0.480316 0.000000
0.000000 0.512695 0.000000
0.022034 0.512695 0.000000
0.047577 0.512695 0.000000
0.074677 0.512695 0.000000
0.102783 0.512695 0.000000
0.131683 0.512695 0.000000
0.161255 0.512695 0.000000
0.191376 0.512695 0.000000
0.221985 0.512695 0.000000
0.253052 0.512695 0.000000
0.284454 0.512695 0.000000
0.316254 0.512695 0.000000
0.348358 0.512695 0.000000
0.380737 0.512695 0.000000
0.413422 0.512695 0.000000
0.446350 0.512695 0.000000
0.479584 0.512695 0.000000
0.513000 0.512695 0.000000
0.546631 0.512695 0.000000
0.580475 0.512695 0.000000
0.614502 0.512695 0.000000
0.648743 0.512695 0.000000
0.683167 0.512695 0.000000
0.717743 0.512695 0.000000
0.752502 0.512695 0.000000
0.787415 0.512695 0.000000
0.822479 0.512695 0.000000
0.857727 0.512695 0.000000
0.893066 0.512695 0.000000
0.928589 0.512695 0.000000
0.964233 0.512695 0.000000
1.000000 0.512695 0.000000
0.000000 0.545074 0.000000
0.022034 0.545074 0.000000
0.047577 0.545074 0.000000
0.074677 0.545074 0.000000
0.102783 0.545074 0.000000
0.131683 0.545074 0.000000
0.161255 0.545074 0.000000
0.191376 0.545074 0.000000
0.221985 0.545074 0.000000
0.253052 0.545074 0.000000
0.284454 0.545074 0.000000
0.316254 0.545074 0.000000
0.348358 0.545074 0.000000
0.380737 0.545074 0.000000
0.413422 0.545074 0.000000
0.446350 0.545074 0.000000
0.479584 0.545074 0.000000
0.513000 0.545074 0.000000
0.546631 0.545074 0.000000
0.580475 0.545074 0.000000
0.614502 0.545074 0.000000
0.648743 0.545074 0.000000
0.683167 0.545074 0.000000
0.717743 0.545074 0.000000
0.752502 0.545074 0.000000
0.787415 0.545074 0.000000
0.822479 0.545074 0.000000
0.857727 0.545074 0.000000
0.893066 0.545074 0.000000
0.928589 0.545074 0.000000
0.964233 0.545074 0.000000
1.000000 0.545074 0.000000
0.000000 0.577484 0.000000
0.022034 0.577484 0.000000
0.047577 0.577484 0.000000
0.074677 0.577484 0.000000
0.102783 0.577484 0.000000
0.131683 0.577484 0.000000
0.161255 0.577484 0.000000
0.191376 0.577484 0.000000
0.221985 0.577484 0.000000
0.253052 0.577484 0.000000
0.284454 0.577484 0.000000
0.316254 0.577484 0.000000
0.348358 0.577484 0.000000
0.380737 0.577484 0.000000
0.413422 0.577484 0.000000
0.446350 0.577484 0.000000
0.479584 0.577484 0.000000
0.513000 0.577484 0.000000
0.546631 0.577484 0.000000
0.580475 0.577484 0.000000
0.614502 0.577484 0.000000
0.648743 0.577484 0.000000
0.683167 0.577484 0.000000
0.717743 0.577484 0.000000
0.752502 0.577484 0.000000
0.787415 0.577484 0.000000
0.822479 0.577484 0.000000
0.857727 0.577484 0.000000
0.893066 0.577484 0.000000
0.928589 0.577484 0.000000
0.964233 0.577484 0.000000
1.000000 0.577484 0.000000
0.000000 0.609894 0.000000
0.022034 0.609894 0.000000
0.047577 0.609894 0.000000
0.074677 0.609894 0.000000
0.102783 0.609894 0.000000
0.131683 0.609894 0.000000
0.161255 0.609894 0.000000
0.191376 0.609894 0.000000
0.221985 0.609894 0.000000
0.253052 0.609894 0.000000
0.284454 0.609894 0.000000
0.316254 0.609894 0.000000
0.348358 0.609894 0.000000
0.380737 0.609894 0.000000
0.413422 0.609894 0.000000
0.446350 0.609894 0.000000
0.479584 0.609894 0.000000
0.513000 0.609894 0.000000
0.546631 0.609894 0.000000
0.580475 0.609894 0.000000
0.614502 0.609894 0.000000
0.648743 0.609894 0.000000
0.683167 0.609894 0.000000
0.717743 0.609894 0.000000
0.752502 0.609894 0.000000
0.787415 0.609894 0.000000
0.822479 0.609894 0.000000
0.857727 0.609894 0.000000
0.893066 0.609894 0.000000
0.928589 0.609894 0.000000
0.964233 0.609894 0.000000
1.000000 0.609894 0.000000
0.000000 0.642334 0.000000
0.022034 0.642334 0.000000
0.047577 0.642334 0.000000
0.074677 0.642334 0.000000
0.102783 0.642334 0.000000
0.131683 0.642334 0.000000
0.161255 0.642334 0.000000
0.191376 0.642334 0.000000
0.221985 0.642334 0.000000
0.253052 0.642334 0.000000
0.284454 0.642334 0.000000
0.316254 0.642334 0.000000
0.348358 0.642334 0.000000
0.380737 0.642334 0.000000
0.413422 0.642334 0.000000
0.446350 0.642334 0.000000
0.479584 0.642334 0.000000
0.513000 0.642334 0.000000
0.546631 0.642334 0.000000
0.580475 0.642334 0.000000
0.614502 0.642334 0.000000
0.648743 0.642334 0.000000
0.683167 0.642334 0.000000
0.717743 0.642334 0.000000
0.752502 0.642334 0.000000
0.787415 0.642334 0.000000
0.822479 0.642334 0.000000
0.857727 0.642334 0.000000
0.893066 0.642334 0.000000
0.928589 0.642334 0.000000
0.964233 0.642334 0.000000
1.000000 0.642334 0.000000
0.000000 0.674774 0.000000
0.022034 0.674774 0.000000
0.047577 0.674774 0.000000
0.074677 0.674774 0.000000
0.102783 0.674774 0.000000
0.131683 0.674774 0.000000
0.161255 0.674774 0.000000
0.191376 0.674774 0.000000
0.221985 0.674774 0.000000
0.253052 0.674774 0.000000
0.284454 0.674774 0.000000
0.316254 0.674774 0.000000
0.348358 0.674774 0.000000
0.380737 0.674774 0.000000
0.413422 0.674774 0.000000
0.446350 0.674774 0.000000
0.479584 0.674774 0.000000
0.513000 0.674774 0.000000
0.546631 0.674774 0.000000
0.580475 0.674774 0.000000
0.614502 0.674774 0.000000
0.648743 0.674774 0.000000
0.683167 0.674774 0.000000
0.717743 0.674774 0.000000
0.752502 0.674774 0.000000
0.787415 0.674774 0.000000
0.822479 0.674774 0.000000
0.857727 0.674774 0.000000
0.893066 0.674774 0.000000
0.928589 0.674774 0.000000
0.964233 0.674774 0.000000
1.000000 0.674774 0.000000
0.000000 0.707245 0.000000
0.022034 0.707245 0.000000
0.047577 0.707245 0.000000
0.074677 0.707245 0.000000
0.102783 0.707245 0.000000
0.131683 0.707245 0.000000
0.161255 0.707245 0.000000
0.191376 0.707245 0.000000
0.221985 0.707245 0.000000
0.253052 0.707245 0.000000
0.284454 0.707245 0.000000
0.316254 0.707245 0.000000
0.348358 0.707245 0.000000
0.380737 0.707245 0.000000
0.413422 0.707245 0.000000
0.446350 0.707245 0.000000
0.479584 0.707245 0.000000
0.513000 0.707245 0.000000
0.546631 0.707245 0.000000
0.580475 0.707245 0.000000
0.614502 0.707245 0.000000
0.648743 0.707245 0.000000
0.683167 0.707245 0.000000
0.717743 0.707245 0.000000
0.752502 0.707245 0.000000
0.787415 0.707245 0.000000
0.822479 0.707245 0.000000
0.857727 0.707245 0.000000
0.893066 0.707245 0.000000
0.928589 0.707245 0.000000
0.964233 0.707245 0.000000
1.000000 0.707245 0.000000
0.000000 0.739716 0.000000
0.022034 0.739716 0.000000
0.047577 0.739716 0.000000
0.074677 0.739716 0.000000
0.102783 0.739716 0.000000
0.131683 0.739716 0.000000
0.161255 0.739716 0.000000
0.191376 0.739716 0.000000
0.221985 0.739716 0.000000
0.253052 0.739716 0.000000
0.284454 0.739716 0.000000
0.316254 0.739716 0.000000
0.348358 0.739716 0.000000
0.380737 0.739716 0.000000
0.413422 0.739716 0.000000
0.446350 0.739716 0.000000
0.479584 0.739716 0.000000
0.513000 0.739716 0.000000
0.546631 0.739716 0.000000
0.580475 0.739716 0.000000
0.614502 0.739716 0.000000
0.648743 0.739716 0.000000
0.683167 0.739716 0.000000
0.717743 0.739716 0.000000
0.752502 0.739716 0.000000
0.787415 0.739716 0.000000
0.822479 0.739716 0.000000
0.857727 0.739716 0.000000
0.893066 0.739716 0.000000
0.928589 0.739716 0.000000
0.964233 0.739716 0.000000
1.000000 0.739716 0.000000
0.000000 0.772186 0.000000
0.022034 0.772186 0.000000
0.047577 0.772186 0.000000
0.074677 0.772186 0.000000
0.102783 0.772186 0.000000
0.131683 0.772186 0.000000
0.161255 0.772186 0.000000
0.191376 0.772186 0.000000
0.221985 0.772186 0.000000
0.253052 0.772186 0.000000
0.284454 0.772186 0.000000
0.316254 0.772186 0.000000
0.348358 0.772186 0.000000
0.380737 0.772186 0.000000
0.413422 0.772186 0.000000
0.446350 0.772186 0.000000
0.479584 0.772186 0.000000
0.513000 0.772186 0.000000
0.546631 0.772186 0.000000
0.580475 0.772186 0.000000
0.614502 0.772186 0.000000
0.648743 0.772186 0.000000
0.683167 0.772186 0.000000
0.717743 0.772186 0.000000
0.752502 0.772186 0.000000
0.787415 0.772186 0.000000
0.822479 0.772186 0.000000
0.857727 0.772186 0.000000
0.893066 0.772186 0.000000
0.928589 0.772186 0.000000
0.964233 0.772186 0.000000
1.000000 0.772186 0.000000
0.000000 0.804718 0.000000
0.022034 0.804718 0.000000
0.047577 0.804718 0.000000
0.074677 0.804718 0.000000
0.102783 0.804718 0.000000
0.131683 0.804718 0.000000
0.161255 0.804718 0.000000
0.191376 0.804718 0.000000
0.221985 0.804718 0.000000
0.253052 0.804718 0.000000
0.284454 0.804718 0.000000
0.316254 0.804718 0.000000
0.348358 0.804718 0.000000
0.380737 0.804718 0.000000
0.413422 0.804718 0.000000
0.446350 0.804718 0.000000
0.479584 0.804718 0.000000
0.513000 0.804718 0.000000
0.546631 0.804718 0.000000
0.580475 0.804718 0.000000
0.614502 0.804718 0.000000
0.648743 0.804718 0.000000
0.683167 0.804718 0.000000
0.717743 0.804718 0.000000
0.752502 0.804718 0.000000
0.787415 0.804718 0.000000
0.822479 0.804718 0.000000
0.857727 0.804718 0.000000
0.893066 0.804718 0.000000
0.928589 0.804718 0.000000
0.964233 0.804718 0.000000
1.000000 0.804718 0.000000
0.000000 0.837219 0.000000
0.022034 0.837219 0.000000
0.047577 0.837219 0.000000
0.074677 0.837219 0.000000
0.102783 0.837219 0.000000
0.131683 0.837219 0.000000
0.161255 0.837219 0.000000
0.191376 0.837219 0.000000
0.221985 0.837219 0.000000
0.253052 0.837219 0.000000
0.284454 0.837219 0.000000
0.316254 0.837219 0.000000
0.348358 0.837219 0.000000
0.380737 0.837219 0.000000
0.413422 0.837219 0.000000
0.446350 0.837219 0.000000
0.479584 0.837219 0.000000
0.513000 0.837219 0.000000
0.546631 0.837219 0.000000
0.580475 0.837219 0.000000
0.614502 0.837219 0.000000
0.648743 0.837219 0.000000
0.683167 0.837219 0.000000
0.717743 0.837219 0.000000
0.752502 0.837219 0.000000
0.787415 0.837219 0.000000
0.822479 0.837219 0.000000
0.857727 0.837219 0.000000
0.893066 0.837219 0.000000
0.928589 0.837219 0.000000
0.964233 0.837219 0.000000
1.000000 0.837219 0.000000
0.000000 0.869751 0.000000
0.022034 0.869751 0.000000
0.047577 0.869751 0.000000
0.074677 0.869751 0.000000
0.102783 0.869751 0.000000
0.131683 0.869751 0.000000
0.161255 0.869751 0.000000
0.191376 0.869751 0.000000
0.221985 0.869751 0.000000
0.253052 0.869751 0.000000
0.284454 0.869751 0.000000
0.316254 0.869751 0.000000
0.348358 0.869751 0.000000
0.380737 0.869751 0.000000
0.413422 0.869751 0.000000
0.446350 0.869751 0.000000
0.479584 0.869751 0.000000
