public/luts/GettyImages_1279332587-Large.CUBE
#Created by: Adobe Photoshop Export Color Lookup Plugin
TITLE "GettyImages_1279332587-Large.psd"
#LUT size
LUT_3D_SIZE 32
#data domain
DOMAIN_MIN 0.0 0.0 0.0
DOMAIN_MAX 1.0 1.0 1.0
#LUT data points
0.000000 0.000000 0.000000
0.022034 0.000000 0.000000
0.047577 0.000000 0.000000
0.074677 0.000000 0.000000
0.102783 0.000000 0.000000
0.131683 0.000000 0.000000
0.161255 0.000000 0.000000
0.191376 0.000000 0.000000
0.221985 0.000000 0.000000
0.253052 0.000000 0.000000
0.284454 0.000000 0.000000
0.316254 0.000000 0.000000
0.348358 0.000000 0.000000
0.380737 0.000000 0.000000
0.413422 0.000000 0.000000
0.446350 0.000000 0.000000
0.479584 0.000000 0.000000
0.513000 0.000000 0.000000
0.546631 0.000000 0.000000
0.580475 0.000000 0.000000
0.614502 0.000000 0.000000
0.648743 0.000000 0.000000
0.683167 0.000000 0.000000
0.717743 0.000000 0.000000
0.752502 0.000000 0.000000
0.787415 0.000000 0.000000
0.822479 0.000000 0.000000
0.857727 0.000000 0.000000
0.893066 0.000000 0.000000
0.928589 0.000000 0.000000
0.964233 0.000000 0.000000
1.000000 0.000000 0.000000
0.000000 0.029022 0.000000
0.022034 0.029022 0.000000
0.047577 0.029022 0.000000
0.074677 0.029022 0.000000
0.102783 0.029022 0.000000
0.131683 0.029022 0.000000
0.161255 0.029022 0.000000
0.191376 0.029022 0.000000
0.221985 0.029022 0.000000
0.253052 0.029022 0.000000
0.284454 0.029022 0.000000
0.316254 0.029022 0.000000
0.348358 0.029022 0.000000
0.380737 0.029022 0.000000
0.413422 0.029022 0.000000
0.446350 0.029022 0.000000
0.479584 0.029022 0.000000
0.513000 0.029022 0.000000
0.546631 0.029022 0.000000
0.580475 0.029022 0.000000
0.614502 0.029022 0.000000
0.648743 0.029022 0.000000
0.683167 0.029022 0.000000
0.717743 0.029022 0.000000
0.752502 0.029022 0.000000
0.787415 0.029022 0.000000
0.822479 0.029022 0.000000
0.857727 0.029022 0.000000
0.893066 0.029022 0.000000
0.928589 0.029022 0.000000
0.964233 0.029022 0.000000
1.000000 0.029022 0.000000
0.000000 0.059265 0.000000
0.022034 0.059265 0.000000
0.047577 0.059265 0.000000
0.074677 0.059265 0.000000
0.102783 0.059265 0.000000
0.131683 0.059265 0.000000
0.161255 0.059265 0.000000
0.191376 0.059265 0.000000
0.221985 0.059265 0.000000
0.253052 0.059265 0.000000
0.284454 0.059265 0.000000
0.316254 0.059265 0.000000
0.348358 0.059265 0.000000
0.380737 0.059265 0.000000
0.413422 0.059265 0.000000
0.446350 0.059265 0.000000
0.479584 0.059265 0.000000
0.513000 0.059265 0.000000
0.546631 0.059265 0.000000
0.580475 0.059265 0.000000
0.614502 0.059265 0.000000
0.648743 0.059265 0.000000
0.683167 0.059265 0.000000
0.717743 0.059265 0.000000
0.752502 0.059265 0.000000
0.787415 0.059265 0.000000
0.822479 0.059265 0.000000
0.857727 0.059265 0.000000
0.893066 0.059265 0.000000
0.928589 0.059265 0.000000
0.964233 0.059265 0.000000
1.000000 0.059265 0.000000
0.000000 0.090027 0.000000
0.022034 0.090027 0.000000
0.047577 0.090027 0.000000
0.074677 0.090027 0.000000
0.102783 0.090027 0.000000
0.131683 0.090027 0.000000
0.161255 0.090027 0.000000
0.191376 0.090027 0.000000
0.221985 0.090027 0.000000
0.253052 0.090027 0.000000
0.284454 0.090027 0.000000
0.316254 0.090027 0.000000
0.348358 0.090027 0.000000
0.380737 0.090027 0.000000
0.413422 0.090027 0.000000
0.446350 0.090027 0.000000
0.479584 0.090027 0.000000
0.513000 0.090027 0.000000
0.546631 0.090027 0.000000
0.580475 0.090027 0.000000
0.614502 0.090027 0.000000
0.648743 0.090027 0.000000
0.683167 0.090027 0.000000
0.717743 0.090027 0.000000
0.752502 0.090027 0.000000
0.787415 0.090027 0.000000
0.822479 0.090027 0.000000
0.857727 0.090027 0.000000
0.893066 0.090027 0.000000
0.928589 0.090027 0.000000
0.964233 0.090027 0.000000
1.000000 0.090027 0.000000
0.000000 0.121124 0.000000
0.022034 0.121124 0.000000
0.047577 0.121124 0.000000
0.074677 0.121124 0.000000
0.102783 0.121124 0.000000
0.131683 0.121124 0.000000
0.161255 0.121124 0.000000
0.191376 0.121124 0.000000
0.221985 0.121124 0.000000
0.253052 0.121124 0.000000
0.284454 0.121124 0.000000
0.316254 0.121124 0.000000
0.348358 0.121124 0.000000
0.380737 0.121124 0.000000
0.413422 0.121124 0.000000
0.446350 0.121124 0.000000
0.479584 0.121124 0.000000
0.513000 0.121124 0.000000
0.546631 0.121124 0.000000
0.580475 0.121124 0.000000
0.614502 0.121124 0.000000
0.648743 0.121124 0.000000
0.683167 0.121124 0.000000
0.717743 0.121124 0.000000
0.752502 0.121124 0.000000
0.787415 0.121124 0.000000
0.822479 0.121124 0.000000
0.857727 0.121124 0.000000
0.893066 0.121124 0.000000
0.928589 0.121124 0.000000
0.964233 0.121124 0.000000
1.000000 0.121124 0.000000
0.000000 0.152435 0.000000
0.022034 0.152435 0.000000
0.047577 0.152435 0.000000
0.074677 0.152435 0.000000
0.102783 0.152435 0.000000
0.131683 0.152435 0.000000
0.161255 0.152435 0.000000
0.191376 0.152435 0.000000
0.221985 0.152435 0.000000
0.253052 0.152435 0.000000
0.284454 0.152435 0.000000
0.316254 0.152435 0.000000
0.348358 0.152435 0.000000
0.380737 0.152435 0.000000
0.413422 0.152435 0.000000
0.446350 0.152435 0.000000
0.479584 0.152435 0.000000
0.513000 0.152435 0.000000
0.546631 0.152435 0.000000
0.580475 0.152435 0.000000
0.614502 0.152435 0.000000
0.648743 0.152435 0.000000
0.683167 0.152435 0.000000
0.717743 0.152435 0.000000
0.752502 0.152435 0.000000
0.787415 0.152435 0.000000
0.822479 0.152435 0.000000
0.857727 0.152435 0.000000
0.893066 0.152435 0.000000
0.928589 0.152435 0.000000
0.964233 0.152435 0.000000
1.000000 0.152435 0.000000
0.000000 0.183960 0.000000
0.022034 0.183960 0.000000
0.047577 0.183960 0.000000
0.074677 0.183960 0.000000
0.102783 0.183960 0.000000
0.131683 0.183960 0.000000
0.161255 0.183960 0.000000
0.191376 0.183960 0.000000
0.221985 0.183960 0.000000
0.253052 0.183960 0.000000
0.284454 0.183960 0.000000
0.316254 0.183960 0.000000
0.348358 0.183960 0.000000
0.380737 0.183960 0.000000
0.413422 0.183960 0.000000
0.446350 0.183960 0.000000
0.479584 0.183960 0.000000
0.513000 0.183960 0.000000
0.546631 0.183960 0.000000
0.580475 0.183960 0.000000
0.614502 0.183960 0.000000
0.648743 0.183960 0.000000
0.683167 0.183960 0.000000
0.717743 0.183960 0.000000
0.752502 0.183960 0.000000
0.787415 0.183960 0.000000
0.822479 0.183960 0.000000
0.857727 0.183960 0.000000
0.893066 0.183960 0.000000
0.928589 0.183960 0.000000
0.964233 0.183960 0.000000
1.000000 0.183960 0.000000
0.000000 0.215637 0.000000
0.022034 0.215637 0.000000
0.047577 0.215637 0.000000
0.074677 0.215637 0.000000
0.102783 0.215637 0.000000
0.131683 0.215637 0.000000
0.161255 0.215637 0.000000
0.191376 0.215637 0.000000
0.221985 0.215637 0.000000
0.253052 0.215637 0.000000
0.284454 0.215637 0.000000
0.316254 0.215637 0.000000
0.348358 0.215637 0.000000
0.380737 0.215637 0.000000
0.413422 0.215637 0.000000
0.446350 0.215637 0.000000
0.479584 0.215637 0.000000
0.513000 0.215637 0.000000
0.546631 0.215637 0.000000
0.580475 0.215637 0.000000
0.614502 0.215637 0.000000
0.648743 0.215637 0.000000
0.683167 0.215637 0.000000
0.717743 0.215637 0.000000
0.752502 0.215637 0.000000
0.787415 0.215637 0.000000
0.822479 0.215637 0.000000
0.857727 0.215637 0.000000
0.893066 0.215637 0.000000
0.928589 0.215637 0.000000
0.964233 0.215637 0.000000
1.000000 0.215637 0.000000
0.000000 0.247467 0.000000
0.022034 0.247467 0.000000
0.047577 0.247467 0.000000
0.074677 0.247467 0.000000
0.102783 0.247467 0.000000
0.131683 0.247467 0.000000
0.161255 0.247467 0.000000
0.191376 0.247467 0.000000
0.221985 0.247467 0.000000
0.253052 0.247467 0.000000
0.284454 0.247467 0.000000
0.316254 0.247467 0.000000
0.348358 0.247467 0.000000
0.380737 0.247467 0.000000
0.413422 0.247467 0.000000
0.446350 0.247467 0.000000
0.479584 0.247467 0.000000
0.513000 0.247467 0.000000
0.546631 0.247467 0.000000
0.580475 0.247467 0.000000
0.614502 0.247467 0.000000
0.648743 0.247467 0.000000
0.683167 0.247467 0.000000
0.717743 0.247467 0.000000
0.752502 0.247467 0.000000
0.787415 0.247467 0.000000
0.822479 0.247467 0.000000
0.857727 0.247467 0.000000
0.893066 0.247467 0.000000
0.928589 0.247467 0.000000
0.964233 0.247467 0.000000
1.000000 0.247467 0.000000
0.000000 0.279419 0.000000
0.022034 0.279419 0.000000
0.047577 0.279419 0.000000
0.074677 0.279419 0.000000
0.102783 0.279419 0.000000
0.131683 0.279419 0.000000
0.161255 0.279419 0.000000
0.191376 0.279419 0.000000
0.221985 0.279419 0.000000
0.253052 0.279419 0.000000
0.284454 0.279419 0.000000
0.316254 0.279419 0.000000
0.348358 0.279419 0.000000
0.380737 0.279419 0.000000
0.413422 0.279419 0.000000
0.446350 0.279419 0.000000
0.479584 0.279419 0.000000
0.513000 0.279419 0.000000
0.546631 0.279419 0.000000
0.580475 0.279419 0.000000
0.614502 0.279419 0.000000
0.648743 0.279419 0.000000
0.683167 0.279419 0.000000
0.717743 0.279419 0.000000
0.752502 0.279419 0.000000
0.787415 0.279419 0.000000
0.822479 0.279419 0.000000
0.857727 0.279419 0.000000
0.893066 0.279419 0.000000
0.928589 0.279419 0.000000
0.964233 0.279419 0.000000
1.000000 0.279419 0.000000
0.000000 0.311493 0.000000
0.022034 0.311493 0.000000
0.047577 0.311493 0.000000
0.074677 0.311493 0.000000
0.102783 0.311493 0.000000
0.131683 0.311493 0.000000
0.161255 0.311493 0.000000
0.191376 0.311493 0.000000
0.221985 0.311493 0.000000
0.253052 0.311493 0.000000
0.284454 0.311493 0.000000
0.316254 0.311493 0.000000
0.348358 0.311493 0.000000
0.380737 0.311493 0.000000
0.413422 0.311493 0.000000
0.446350 0.311493 0.000000
0.479584 0.311493 0.000000
0.513000 0.311493 0.000000
0.546631 0.311493 0.000000
0.580475 0.311493 0.000000
0.614502 0.311493 0.000000
0.648743 0.311493 0.000000
0.683167 0.311493 0.000000
0.717743 0.311493 0.000000
0.752502 0.311493 0.000000
0.787415 0.311493 0.000000
0.822479 0.311493 0.000000
0.857727 0.311493 0.000000
0.893066 0.311493 0.000000
0.928589 0.311493 0.000000
0.964233 0.311493 0.000000
1.000000 0.311493 0.000000
0.000000 0.343628 0.000000
0.022034 0.343628 0.000000
0.047577 0.343628 0.000000
0.074677 0.343628 0.000000
0.102783 0.343628 0.000000
0.131683 0.343628 0.000000
0.161255 0.343628 0.000000
0.191376 0.343628 0.000000
0.221985 0.343628 0.000000
0.253052 0.343628 0.000000
0.284454 0.343628 0.000000
0.316254 0.343628 0.000000
0.348358 0.343628 0.000000
0.380737 0.343628 0.000000
0.413422 0.343628 0.000000
0.446350 0.343628 0.000000
0.479584 0.343628 0.000000
0.513000 0.343628 0.000000
0.546631 0.343628 0.000000
0.580475 0.343628 0.000000
0.614502 0.343628 0.000000
0.648743 0.343628 0.000000
0.683167 0.343628 0.000000
0.717743 0.343628 0.000000
0.752502 0.343628 0.000000
0.787415 0.343628 0.000000
0.822479 0.343628 0.000000
0.857727 0.343628 0.000000
0.893066 0.343628 0.000000
0.928589 0.343628 0.000000
0.964233 0.343628 0.000000
1.000000 0.343628 0.000000
0.000000 0.375885 0.000000
0.022034 0.375885 0.000000
0.047577 0.375885 0.000000
0.074677 0.375885 0.000000
0.102783 0.375885 0.000000
0.131683 0.375885 0.000000
0.161255 0.375885 0.000000
0.191376 0.375885 0.000000
0.221985 0.375885 0.000000
0.253052 0.375885 0.000000
0.284454 0.375885 0.000000
0.316254 0.375885 0.000000
0.348358 0.375885 0.000000
0.380737 0.375885 0.000000
0.413422 0.375885 0.000000
0.446350 0.375885 0.000000
0.479584 0.375885 0.000000
0.513000 0.375885 0.000000
0.546631 0.375885 0.000000
0.580475 0.375885 0.000000
0.614502 0.375885 0.000000
0.648743 0.375885 0.000000
0.683167 0.375885 0.000000
0.717743 0.375885 0.000000
0.752502 0.375885 0.000000
0.787415 0.375885 0.000000
0.822479 0.375885 0.000000
0.857727 0.375885 0.000000
0.893066 0.375885 0.000000
0.928589 0.375885 0.000000
0.964233 0.375885 0.000000
1.000000 0.375885 0.000000
0.000000 0.408234 0.000000
0.022034 0.408234 0.000000
0.047577 0.408234 0.000000
0.074677 0.408234 0.000000
0.102783 0.408234 0.000000
0.131683 0.408234 0.000000
0.161255 0.408234 0.000000
0.191376 0.408234 0.000000
0.221985 0.408234 0.000000
0.253052 0.408234 0.000000
0.284454 0.408234 0.000000
0.316254 0.408234 0.000000
0.348358 0.408234 0.000000
0.380737 0.408234 0.000000
0.413422 0.408234 0.000000
0.446350 0.408234 0.000000
0.479584 0.408234 0.000000
0.513000 0.408234 0.000000
0.546631 0.408234 0.000000
0.580475 0.408234 0.000000
0.614502 0.408234 0.000000
0.648743 0.408234 0.000000
0.683167 0.408234 0.000000
0.717743 0.408234 0.000000
0.752502 0.408234 0.000000
0.787415 0.408234 0.000000
0.822479 0.408234 0.000000
0.857727 0.408234 0.000000
0.893066 0.408234 0.000000
0.928589 0.408234 0.000000
0.964233 0.408234 0.000000
1.000000 0.408234 0.000000
0.000000 0.440643 0.000000
0.022034 0.440643 0.000000
0.047577 0.440643 0.000000
0.074677 0.440643 0.000000
0.102783 0.440643 0.000000
0.131683 0.440643 0.000000
0.161255 0.440643 0.000000
0.191376 0.440643 0.000000
0.221985 0.440643 0.000000
0.253052 0.440643 0.000000
0.284454 0.440643 0.000000
0.316254 0.440643 0.000000
0.348358 0.440643 0.000000
0.380737 0.440643 0.000000
0.413422 0.440643 0.000000
0.446350 0.440643 0.000000
0.479584 0.440643 0.000000
0.513000 0.440643 0.000000
0.546631 0.440643 0.000000
0.580475 0.440643 0.000000
0.614502 0.440643 0.000000
0.648743 0.440643 0.000000
0.683167 0.440643 0.000000
0.717743 0.440643 0.000000
0.752502 0.440643 0.000000
0.787415 0.440643 0.000000
0.822479 0.440643 0.000000
0.857727 0.440643 0.000000
0.893066 0.440643 0.000000
0.928589 0.440643 0.000000
0.964233 0.440643 0.000000
1.000000 0.440643 0.000000
0.000000 0.473114 0.000000
0.022034 0.473114 0.000000
0.047577 0.473114 0.000000
0.074677 0.473114 0.000000
0.102783 0.473114 0.000000
0.131683 0.473114 0.000000
0.161255 0.473114 0.000000
0.191376 0.473114 0.000000
0.221985 0.473114 0.000000
0.253052 0.473114 0.000000
0.284454 0.473114 0.000000
0.316254 0.473114 0.000000
0.348358 0.473114 0.000000
0.380737 0.473114 0.000000
0.413422 0.473114 0.000000
0.446350 0.473114 0.000000
0.479584 0.473114 0.000000
0.513000 0.473114 0.000000
0.546631 0.473114 0.000000
0.580475 0.473114 0.000000
0.614502 0.473114 0.000000
0.648743 0.473114 0.000000
0.683167 0.473114 0.000000
0.717743 0.473114 0.000000
0.752502 0.473114 0.000000
0.787415 0.473114 0.000000
0.822479 0.473114 0.000000
0.857727 0.473114 0.000000
0.893066 0.473114 0.000000
0.928589 0.473114 0.000000
0.964233 0.473114 0.000000
1.000000 0.473114 0.000000
0.000000 0.505707 0.000000
0.022034 0.505707 0.000000
0.047577 0.505707 0.000000
0.074677 0.505707 0.000000
0.102783 0.505707 0.000000
0.131683 0.505707 0.000000
0.161255 0.505707 0.000000
0.191376 0.505707 0.000000
0.221985 0.505707 0.000000
0.253052 0.505707 0.000000
0.284454 0.505707 0.000000
0.316254 0.505707 0.000000
0.348358 0.505707 0.000000
0.380737 0.505707 0.000000
0.413422 0.505707 0.000000
0.446350 0.505707 0.000000
0.479584 0.505707 0.000000
0.513000 0.505707 0.000000
0.546631 0.505707 0.000000
0.580475 0.505707 0.000000
0.614502 0.505707 0.000000
0.648743 0.505707 0.000000
0.683167 0.505707 0.000000
0.717743 0.505707 0.000000
0.752502 0.505707 0.000000
0.787415 0.505707 0.000000
0.822479 0.505707 0.000000
0.857727 0.505707 0.000000
0.893066 0.505707 0.000000
0.928589 0.505707 0.000000
0.964233 0.505707 0.000000
1.000000 0.505707 0.000000
0.000000 0.538300 0.000000
0.022034 0.538300 0.000000
0.047577 0.538300 0.000000
0.074677 0.538300 0.000000
0.102783 0.538300 0.000000
0.131683 0.538300 0.000000
0.161255 0.538300 0.000000
0.191376 0.538300 0.000000
0.221985 0.538300 0.000000
0.253052 0.538300 0.000000
0.284454 0.538300 0.000000
0.316254 0.538300 0.000000
0.348358 0.538300 0.000000
0.380737 0.538300 0.000000
0.413422 0.538300 0.000000
0.446350 0.538300 0.000000
0.479584 0.538300 0.000000
0.513000 0.538300 0.000000
0.546631 0.538300 0.000000
0.580475 0.538300 0.000000
0.614502 0.538300 0.000000
0.648743 0.538300 0.000000
0.683167 0.538300 0.000000
0.717743 0.538300 0.000000
0.752502 0.538300 0.000000
0.787415 0.538300 0.000000
0.822479 0.538300 0.000000
0.857727 0.538300 0.000000
0.893066 0.538300 0.000000
0.928589 0.538300 0.000000
0.964233 0.538300 0.000000
1.000000 0.538300 0.000000
0.000000 0.570984 0.000000
0.022034 0.570984 0.000000
0.047577 0.570984 0.000000
0.074677 0.570984 0.000000
0.102783 0.570984 0.000000
0.131683 0.570984 0.000000
0.161255 0.570984 0.000000
0.191376 0.570984 0.000000
0.221985 0.570984 0.000000
0.253052 0.570984 0.000000
0.284454 0.570984 0.000000
0.316254 0.570984 0.000000
0.348358 0.570984 0.000000
0.380737 0.570984 0.000000
0.413422 0.570984 0.000000
0.446350 0.570984 0.000000
0.479584 0.570984 0.000000
0.513000 0.570984 0.000000
0.546631 0.570984 0.000000
0.580475 0.570984 0.000000
0.614502 0.570984 0.000000
0.648743 0.570984 0.000000
0.683167 0.570984 0.000000
0.717743 0.570984 0.000000
0.752502 0.570984 0.000000
0.787415 0.570984 0.000000
0.822479 0.570984 0.000000
0.857727 0.570984 0.000000
0.893066 0.570984 0.000000
0.928589 0.570984 0.000000
0.964233 0.570984 0.000000
1.000000 0.570984 0.000000
0.000000 0.603699 0.000000
0.022034 0.603699 0.000000
0.047577 0.603699 0.000000
0.074677 0.603699 0.000000
0.102783 0.603699 0.000000
0.131683 0.603699 0.000000
0.161255 0.603699 0.000000
0.191376 0.603699 0.000000
0.221985 0.603699 0.000000
0.253052 0.603699 0.000000
0.284454 0.603699 0.000000
0.316254 0.603699 0.000000
0.348358 0.603699 0.000000
0.380737 0.603699 0.000000
0.413422 0.603699 0.000000
0.446350 0.603699 0.000000
0.479584 0.603699 0.000000
0.513000 0.603699 0.000000
0.546631 0.603699 0.000000
0.580475 0.603699 0.000000
0.614502 0.603699 0.000000
0.648743 0.603699 0.000000
0.683167 0.603699 0.000000
0.717743 0.603699 0.000000
0.752502 0.603699 0.000000
0.787415 0.603699 0.000000
0.822479 0.603699 0.000000
0.857727 0.603699 0.000000
0.893066 0.603699 0.000000
0.928589 0.603699 0.000000
0.964233 0.603699 0.000000
1.000000 0.603699 0.000000
0.000000 0.636475 0.000000
0.022034 0.636475 0.000000
0.047577 0.636475 0.000000
0.074677 0.636475 0.000000
0.102783 0.636475 0.000000
0.131683 0.636475 0.000000
0.161255 0.636475 0.000000
0.191376 0.636475 0.000000
0.221985 0.636475 0.000000
0.253052 0.636475 0.000000
0.284454 0.636475 0.000000
0.316254 0.636475 0.000000
0.348358 0.636475 0.000000
0.380737 0.636475 0.000000
0.413422 0.636475 0.000000
0.446350 0.636475 0.000000
0.479584 0.636475 0.000000
0.513000 0.636475 0.000000
0.546631 0.636475 0.000000
0.580475 0.636475 0.000000
0.614502 0.636475 0.000000
0.648743 0.636475 0.000000
0.683167 0.636475 0.000000
0.717743 0.636475 0.000000
0.752502 0.636475 0.000000
0.787415 0.636475 0.000000
0.822479 0.636475 0.000000
0.857727 0.636475 0.000000
0.893066 0.636475 0.000000
0.928589 0.636475 0.000000
0.964233 0.636475 0.000000
1.000000 0.636475 0.000000
0.000000 0.669312 0.000000
0.022034 0.669312 0.000000
0.047577 0.669312 0.000000
0.074677 0.669312 0.000000
0.102783 0.669312 0.000000
0.131683 0.669312 0.000000
0.161255 0.669312 0.000000
0.191376 0.669312 0.000000
0.221985 0.669312 0.000000
0.253052 0.669312 0.000000
0.284454 0.669312 0.000000
0.316254 0.669312 0.000000
0.348358 0.669312 0.000000
0.380737 0.669312 0.000000
0.413422 0.669312 0.000000
0.446350 0.669312 0.000000
0.479584 0.669312 0.000000
0.513000 0.669312 0.000000
0.546631 0.669312 0.000000
0.580475 0.669312 0.000000
0.614502 0.669312 0.000000
0.648743 0.669312 0.000000
0.683167 0.669312 0.000000
0.717743 0.669312 0.000000
0.752502 0.669312 0.000000
0.787415 0.669312 0.000000
0.822479 0.669312 0.000000
0.857727 0.669312 0.000000
0.893066 0.669312 0.000000
0.928589 0.669312 0.000000
0.964233 0.669312 0.000000
1.000000 0.669312 0.000000
0.000000 0.702209 0.000000
0.022034 0.702209 0.000000
0.047577 0.702209 0.000000
0.074677 0.702209 0.000000
0.102783 0.702209 0.000000
0.131683 0.702209 0.000000
0.161255 0.702209 0.000000
0.191376 0.702209 0.000000
0.221985 0.702209 0.000000
0.253052 0.702209 0.000000
0.284454 0.702209 0.000000
0.316254 0.702209 0.000000
0.348358 0.702209 0.000000
0.380737 0.702209 0.000000
0.413422 0.702209 0.000000
0.446350 0.702209 0.000000
0.479584 0.702209 0.000000
0.513000 0.702209 0.000000
0.546631 0.702209 0.000000
0.580475 0.702209 0.000000
0.614502 0.702209 0.000000
0.648743 0.702209 0.000000
0.683167 0.702209 0.000000
0.717743 0.702209 0.000000
0.752502 0.702209 0.000000
0.787415 0.702209 0.000000
0.822479 0.702209 0.000000
0.857727 0.702209 0.000000
0.893066 0.702209 0.000000
0.928589 0.702209 0.000000
0.964233 0.702209 0.000000
1.000000 0.702209 0.000000
0.000000 0.735138 0.000000
0.022034 0.735138 0.000000
0.047577 0.735138 0.000000
0.074677 0.735138 0.000000
0.102783 0.735138 0.000000
0.131683 0.735138 0.000000
0.161255 0.735138 0.000000
0.191376 0.735138 0.000000
0.221985 0.735138 0.000000
0.253052 0.735138 0.000000
0.284454 0.735138 0.000000
0.316254 0.735138 0.000000
0.348358 0.735138 0.000000
0.380737 0.735138 0.000000
0.413422 0.735138 0.000000
0.446350 0.735138 0.000000
0.479584 0.735138 0.000000
0.513000 0.735138 0.000000
0.546631 0.735138 0.000000
0.580475 0.735138 0.000000
0.614502 0.735138 0.000000
0.648743 0.735138 0.000000
0.683167 0.735138 0.000000
0.717743 0.735138 0.000000
0.752502 0.735138 0.000000
0.787415 0.735138 0.000000
0.822479 0.735138 0.000000
0.857727 0.735138 0.000000
0.893066 0.735138 0.000000
0.928589 0.735138 0.000000
0.964233 0.735138 0.000000
1.000000 0.735138 0.000000
0.000000 0.768097 0.000000
0.022034 0.768097 0.000000
0.047577 0.768097 0.000000
0.074677 0.768097 0.000000
0.102783 0.768097 0.000000
0.131683 0.768097 0.000000
0.161255 0.768097 0.000000
0.191376 0.768097 0.000000
0.221985 0.768097 0.000000
0.253052 0.768097 0.000000
0.284454 0.768097 0.000000
0.316254 0.768097 0.000000
0.348358 0.768097 0.000000
0.380737 0.768097 0.000000
0.413422 0.768097 0.000000
0.446350 0.768097 0.000000
0.479584 0.768097 0.000000
0.513000 0.768097 0.000000
0.546631 0.768097 0.000000
0.580475 0.768097 0.000000
0.614502 0.768097 0.000000
0.648743 0.768097 0.000000
0.683167 0.768097 0.000000
0.717743 0.768097 0.000000
0.752502 0.768097 0.000000
0.787415 0.768097 0.000000
0.822479 0.768097 0.000000
0.857727 0.768097 0.000000
0.893066 0.768097 0.000000
0.928589 0.768097 0.000000
0.964233 0.768097 0.000000
1.000000 0.768097 0.000000
0.000000 0.801117 0.000000
0.022034 0.801117 0.000000
0.047577 0.801117 0.000000
0.074677 0.801117 0.000000
0.102783 0.801117 0.000000
0.131683 0.801117 0.000000
0.161255 0.801117 0.000000
0.191376 0.801117 0.000000
0.221985 0.801117 0.000000
0.253052 0.801117 0.000000
0.284454 0.801117 0.000000
0.316254 0.801117 0.000000
0.348358 0.801117 0.000000
0.380737 0.801117 0.000000
0.413422 0.801117 0.000000
0.446350 0.801117 0.000000
0.479584 0.801117 0.000000
0.513000 0.801117 0.000000
0.546631 0.801117 0.000000
0.580475 0.801117 0.000000
0.614502 0.801117 0.000000
0.648743 0.801117 0.000000
0.683167 0.801117 0.000000
0.717743 0.801117 0.000000
0.752502 0.801117 0.000000
0.787415 0.801117 0.000000
0.822479 0.801117 0.000000
0.857727 0.801117 0.000000
0.893066 0.801117 0.000000
0.928589 0.801117 0.000000
0.964233 0.801117 0.000000
1.000000 0.801117 0.000000
0.000000 0.834167 0.000000
0.022034 0.834167 0.000000
0.047577 0.834167 0.000000
0.074677 0.834167 0.000000
0.102783 0.834167 0.000000
0.131683 0.834167 0.000000
0.161255 0.834167 0.000000
0.191376 0.834167 0.000000
0.221985 0.834167 0.000000
0.253052 0.834167 0.000000
0.284454 0.834167 0.000000
0.316254 0.834167 0.000000
0.348358 0.834167 0.000000
0.380737 0.834167 0.000000
0.413422 0.834167 0.000000
0.446350 0.834167 0.000000
0.479584 0.834167 0.000000
0.513000 0.834167 0.000000
0.546631 0.834167 0.000000
0.580475 0.834167 0.000000
0.614502 0.834167 0.000000
0.648743 0.834167 0.000000
0.683167 0.834167 0.000000
0.717743 0.834167 0.000000
0.752502 0.834167 0.000000
0.787415 0.834167 0.000000
0.822479 0.834167 0.000000
0.857727 0.834167 0.000000
0.893066 0.834167 0.000000
0.928589 0.834167 0.000000
0.964233 0.834167 0.000000
1.000000 0.834167 0.000000
0.000000 0.867249 0.000000
0.022034 0.867249 0.000000
0.047577 0.867249 0.000000
0.074677 0.867249 0.000000
0.102783 0.867249 0.000000
0.131683 0.867249 0.000000
0.161255 0.867249 0.000000
0.191376 0.867249 0.000000
0.221985 0.867249 0.000000
0.253052 0.867249 0.000000
0.284454 0.867249 0.000000
0.316254 0.867249 0.000000
0.348358 0.867249 0.000000
0.380737 0.867249 0.000000
0.413422 0.867249 0.000000
0.446350 0.867249 0.000000
0.479584 0.867249 0.000000
