public/luts/GettyImages_1341998535-Large.CUBE
#Created by: Adobe Photoshop Export Color Lookup Plugin
TITLE "GettyImages_1341998535-Large.psd"
#LUT size
LUT_3D_SIZE 5
#data domain
#LUT data points
DOMAIN_MIN 0.000000 0.000000 0.000000
DOMAIN_MAX 0.903226 0.903226 0.903226
0.000000 0.000000 0.000000
0.198395 0.000000 0.000000
0.421448 0.000000 0.000000
0.654877 0.000000 0.000000
0.895264 0.000000 0.000000
0.000000 0.215637 0.000000
0.198395 0.215637 0.000000
0.421448 0.215637 0.000000
0.654877 0.215637 0.000000
0.895264 0.215637 0.000000
0.000000 0.440643 0.000000
0.198395 0.440643 0.000000
0.421448 0.440643 0.000000
0.654877 0.440643 0.000000
0.895264 0.440643 0.000000
0.000000 0.669312 0.000000
0.198395 0.669312 0.000000
0.421448 0.669312 0.000000
0.654877 0.669312 0.000000
0.895264 0.669312 0.000000
0.000000 0.900391 0.000000
0.198395 0.900391 0.000000
0.421448 0.900391 0.000000
0.654877 0.900391 0.000000
0.895264 0.900391 0.000000
0.000000 0.000000 0.255310
0.198395 0.000000 0.255310
0.421448 0.000000 0.255310
0.654877 0.000000 0.255310
0.895264 0.000000 0.255310
0.000000 0.215637 0.255310
0.198395 0.215637 0.255310
0.421448 0.215637 0.255310
0.654877 0.215637 0.255310
0.895264 0.215637 0.255310
0.000000 0.440643 0.255310
0.198395 0.440643 0.255310
0.421448 0.440643 0.255310
0.654877 0.440643 0.255310
0.895264 0.440643 0.255310
0.000000 0.669312 0.255310
0.198395 0.669312 0.255310
0.421448 0.669312 0.255310
0.654877 0.669312 0.255310
0.895264 0.669312 0.255310
0.000000 0.900391 0.255310
0.198395 0.900391 0.255310
0.421448 0.900391 0.255310
0.654877 0.900391 0.255310
0.895264 0.900391 0.255310
0.000000 0.000000 0.482239
0.198395 0.000000 0.482239
0.421448 0.000000 0.482239
0.654877 0.000000 0.482239
0.895264 0.000000 0.482239
0.000000 0.215637 0.482239
0.198395 0.215637 0.482239
0.421448 0.215637 0.482239
0.654877 0.215637 0.482239
0.895264 0.215637 0.482239
0.000000 0.440643 0.482239
0.198395 0.440643 0.482239
0.421448 0.440643 0.482239
0.654877 0.440643 0.482239
0.895264 0.440643 0.482239
0.000000 0.669312 0.482239
0.198395 0.669312 0.482239
0.421448 0.669312 0.482239
0.654877 0.669312 0.482239
0.895264 0.669312 0.482239
0.000000 0.900391 0.482239
0.198395 0.900391 0.482239
0.421448 0.900391 0.482239
0.654877 0.900391 0.482239
0.895264 0.900391 0.482239
0.000000 0.000000 0.699554
0.198395 0.000000 0.699554
0.421448 0.000000 0.699554
0.654877 0.000000 0.699554
0.895264 0.000000 0.699554
0.000000 0.215637 0.699554
0.198395 0.215637 0.699554
0.421448 0.215637 0.699554
0.654877 0.215637 0.699554
0.895264 0.215637 0.699554
0.000000 0.440643 0.699554
0.198395 0.440643 0.699554
0.421448 0.440643 0.699554
0.654877 0.440643 0.699554
0.895264 0.440643 0.699554
0.000000 0.669312 0.699554
0.198395 0.669312 0.699554
0.421448 0.669312 0.699554
0.654877 0.669312 0.699554
0.895264 0.669312 0.699554
0.000000 0.900391 0.699554
0.198395 0.900391 0.699554
0.421448 0.900391 0.699554
0.654877 0.900391 0.699554
0.895264 0.900391 0.699554
0.000000 0.000000 0.910858
0.198395 0.000000 0.910858
0.421448 0.000000 0.910858
0.654877 0.000000 0.910858
0.895264 0.000000 0.910858
0.000000 0.215637 0.910858
0.198395 0.215637 0.910858
0.421448 0.215637 0.910858
0.654877 0.215637 0.910858
0.895264 0.215637 0.910858
0.000000 0.440643 0.910858
0.198395 0.440643 0.910858
0.421448 0.440643 0.910858
0.654877 0.440643 0.910858
0.895264 0.440643 0.910858
0.000000 0.669312 0.910858
0.198395 0.669312 0.910858
0.421448 0.669312 0.910858
0.654877 0.669312 0.910858
0.895264 0.669312 0.910858
0.000000 0.900391 0.910858
0.198395 0.900391 0.910858
0.421448 0.900391 0.910858
0.654877 0.900391 0.910858
0.895264 0.900391 0.910858
