public/luts/GettyImages_1303695549-Large.CUBE
#Created by: Adobe Photoshop Export Color Lookup Plugin
TITLE "GettyImages_1303695549-Large.psd"
#LUT size
LUT_3D_SIZE 5
#data domain
#LUT data points
DOMAIN_MIN 0.000000 0.000000 0.000000
DOMAIN_MAX 0.903226 0.903226 0.903226
0.000000 0.000000 0.000000
0.176880 0.000000 0.000000
0.392395 0.000000 0.000000
0.625397 0.000000 0.000000
0.870483 0.000000 0.000000
0.000000 0.176880 0.000000
0.176880 0.176880 0.000000
0.392395 0.176880 0.000000
0.625397 0.176880 0.000000
0.870483 0.176880 0.000000
0.000000 0.392395 0.000000
0.176880 0.392395 0.000000
0.392395 0.392395 0.000000
0.625397 0.392395 0.000000
0.870483 0.392395 0.000000
0.000000 0.625397 0.000000
0.176880 0.625397 0.000000
0.392395 0.625397 0.000000
0.625397 0.625397 0.000000
0.870483 0.625397 0.000000
0.000000 0.870483 0.000000
0.176880 0.870483 0.000000
0.392395 0.870483 0.000000
0.625397 0.870483 0.000000
0.870483 0.870483 0.000000
0.000000 0.000000 0.176880
0.176880 0.000000 0.176880
0.392395 0.000000 0.176880
0.625397 0.000000 0.176880
0.870483 0.000000 0.176880
0.000000 0.176880 0.176880
0.176880 0.176880 0.176880
0.392395 0.176880 0.176880
0.625397 0.176880 0.176880
0.870483 0.176880 0.176880
0.000000 0.392395 0.176880
0.176880 0.392395 0.176880
0.392395 0.392395 0.176880
0.625397 0.392395 0.176880
0.870483 0.392395 0.176880
0.000000 0.625397 0.176880
0.176880 0.625397 0.176880
0.392395 0.625397 0.176880
0.625397 0.625397 0.176880
0.870483 0.625397 0.176880
0.000000 0.870483 0.176880
0.176880 0.870483 0.176880
0.392395 0.870483 0.176880
0.625397 0.870483 0.176880
0.870483 0.870483 0.176880
0.000000 0.000000 0.392395
0.176880 0.000000 0.392395
0.392395 0.000000 0.392395
0.625397 0.000000 0.392395
0.870483 0.000000 0.392395
0.000000 0.176880 0.392395
0.176880 0.176880 0.392395
0.392395 0.176880 0.392395
0.625397 0.176880 0.392395
0.870483 0.176880 0.392395
0.000000 0.392395 0.392395
0.176880 0.392395 0.392395
0.392395 0.392395 0.392395
0.625397 0.392395 0.392395
0.870483 0.392395 0.392395
0.000000 0.625397 0.392395
0.176880 0.625397 0.392395
0.392395 0.625397 0.392395
0.625397 0.625397 0.392395
0.870483 0.625397 0.392395
0.000000 0.870483 0.392395
0.176880 0.870483 0.392395
0.392395 0.870483 0.392395
0.625397 0.870483 0.392395
0.870483 0.870483 0.392395
0.000000 0.000000 0.625397
0.176880 0.000000 0.625397
0.392395 0.000000 0.625397
0.625397 0.000000 0.625397
0.870483 0.000000 0.625397
0.000000 0.176880 0.625397
0.176880 0.176880 0.625397
0.392395 0.176880 0.625397
0.625397 0.176880 0.625397
0.870483 0.176880 0.625397
0.000000 0.392395 0.625397
0.176880 0.392395 0.625397
0.392395 0.392395 0.625397
0.625397 0.392395 0.625397
0.870483 0.392395 0.625397
0.000000 0.625397 0.625397
0.176880 0.625397 0.625397
0.392395 0.625397 0.625397
0.625397 0.625397 0.625397
0.870483 0.625397 0.625397
0.000000 0.870483 0.625397
0.176880 0.870483 0.625397
0.392395 0.870483 0.625397
0.625397 0.870483 0.625397
0.870483 0.870483 0.625397
0.000000 0.000000 0.870483
0.176880 0.000000 0.870483
0.392395 0.000000 0.870483
0.625397 0.000000 0.870483
0.870483 0.000000 0.870483
0.000000 0.176880 0.870483
0.176880 0.176880 0.870483
0.392395 0.176880 0.870483
0.625397 0.176880 0.870483
0.870483 0.176880 0.870483
0.000000 0.392395 0.870483
0.176880 0.392395 0.870483
0.392395 0.392395 0.870483
0.625397 0.392395 0.870483
0.870483 0.392395 0.870483
0.000000 0.625397 0.870483
0.176880 0.625397 0.870483
0.392395 0.625397 0.870483
0.625397 0.625397 0.870483
0.870483 0.625397 0.870483
0.000000 0.870483 0.870483
0.176880 0.870483 0.870483
0.392395 0.870483 0.870483
0.625397 0.870483 0.870483
0.870483 0.870483 0.870483
