public/luts/GettyImages_1341998535-Large.CUBE
#Created by: Adobe Photoshop Export Color Lookup Plugin
TITLE "GettyImages_1341998535-Large.psd"
#LUT size
LUT_3D_SIZE 8
#data domain
#LUT data points
DOMAIN_MIN 0.000000 0.000000 0.000000
DOMAIN_MAX 0.903226 0.903226 0.903226
0.000000 0.000000 0.000000
0.108002 0.000000 0.000000
0.229370 0.000000 0.000000
0.356415 0.000000 0.000000
0.487305 0.000000 0.000000
0.621063 0.000000 0.000000
0.757172 0.000000 0.000000
0.895264 0.000000 0.000000
0.000000 0.121124 0.000000
0.108002 0.121124 0.000000
0.229370 0.121124 0.000000
0.356415 0.121124 0.000000
0.487305 0.121124 0.000000
0.621063 0.121124 0.000000
0.757172 0.121124 0.000000
0.895264 0.121124 0.000000
0.000000 0.247467 0.000000
0.108002 0.247467 0.000000
0.229370 0.247467 0.000000
0.356415 0.247467 0.000000
0.487305 0.247467 0.000000
0.621063 0.247467 0.000000
0.757172 0.247467 0.000000
0.895264 0.247467 0.000000
0.000000 0.375885 0.000000
0.108002 0.375885 0.000000
0.229370 0.375885 0.000000
0.356415 0.375885 0.000000
0.487305 0.375885 0.000000
0.621063 0.375885 0.000000
0.757172 0.375885 0.000000
0.895264 0.375885 0.000000
0.000000 0.505707 0.000000
0.108002 0.505707 0.000000
0.229370 0.505707 0.000000
0.356415 0.505707 0.000000
0.487305 0.505707 0.000000
0.621063 0.505707 0.000000
0.757172 0.505707 0.000000
0.895264 0.505707 0.000000
0.000000 0.636475 0.000000
0.108002 0.636475 0.000000
0.229370 0.636475 0.000000
0.356415 0.636475 0.000000
0.487305 0.636475 0.000000
0.621063 0.636475 0.000000
0.757172 0.636475 0.000000
0.895264 0.636475 0.000000
0.000000 0.768097 0.000000
0.108002 0.768097 0.000000
0.229370 0.768097 0.000000
0.356415 0.768097 0.000000
0.487305 0.768097 0.000000
0.621063 0.768097 0.000000
0.757172 0.768097 0.000000
0.895264 0.768097 0.000000
0.000000 0.900391 0.000000
0.108002 0.900391 0.000000
0.229370 0.900391 0.000000
0.356415 0.900391 0.000000
0.487305 0.900391 0.000000
0.621063 0.900391 0.000000
0.757172 0.900391 0.000000
0.895264 0.900391 0.000000
0.000000 0.000000 0.152802
0.108002 0.000000 0.152802
0.229370 0.000000 0.152802
0.356415 0.000000 0.152802
0.487305 0.000000 0.152802
0.621063 0.000000 0.152802
0.757172 0.000000 0.152802
0.895264 0.000000 0.152802
0.000000 0.121124 0.152802
0.108002 0.121124 0.152802
0.229370 0.121124 0.152802
0.356415 0.121124 0.152802
0.487305 0.121124 0.152802
0.621063 0.121124 0.152802
0.757172 0.121124 0.152802
0.895264 0.121124 0.152802
0.000000 0.247467 0.152802
0.108002 0.247467 0.152802
0.229370 0.247467 0.152802
0.356415 0.247467 0.152802
0.487305 0.247467 0.152802
0.621063 0.247467 0.152802
0.757172 0.247467 0.152802
0.895264 0.247467 0.152802
0.000000 0.375885 0.152802
0.108002 0.375885 0.152802
0.229370 0.375885 0.152802
0.356415 0.375885 0.152802
0.487305 0.375885 0.152802
0.621063 0.375885 0.152802
0.757172 0.375885 0.152802
0.895264 0.375885 0.152802
0.000000 0.505707 0.152802
0.108002 0.505707 0.152802
0.229370 0.505707 0.152802
0.356415 0.505707 0.152802
0.487305 0.505707 0.152802
0.621063 0.505707 0.152802
0.757172 0.505707 0.152802
0.895264 0.505707 0.152802
0.000000 0.636475 0.152802
0.108002 0.636475 0.152802
0.229370 0.636475 0.152802
0.356415 0.636475 0.152802
0.487305 0.636475 0.152802
0.621063 0.636475 0.152802
0.757172 0.636475 0.152802
0.895264 0.636475 0.152802
0.000000 0.768097 0.152802
0.108002 0.768097 0.152802
0.229370 0.768097 0.152802
0.356415 0.768097 0.152802
0.487305 0.768097 0.152802
0.621063 0.768097 0.152802
0.757172 0.768097 0.152802
0.895264 0.768097 0.152802
0.000000 0.900391 0.152802
0.108002 0.900391 0.152802
0.229370 0.900391 0.152802
0.356415 0.900391 0.152802
0.487305 0.900391 0.152802
0.621063 0.900391 0.152802
0.757172 0.900391 0.152802
0.895264 0.900391 0.152802
0.000000 0.000000 0.288605
0.108002 0.000000 0.288605
0.229370 0.000000 0.288605
0.356415 0.000000 0.288605
0.487305 0.000000 0.288605
0.621063 0.000000 0.288605
0.757172 0.000000 0.288605
0.895264 0.000000 0.288605
0.000000 0.121124 0.288605
0.108002 0.121124 0.288605
0.229370 0.121124 0.288605
0.356415 0.121124 0.288605
0.487305 0.121124 0.288605
0.621063 0.121124 0.288605
0.757172 0.121124 0.288605
0.895264 0.121124 0.288605
0.000000 0.247467 0.288605
0.108002 0.247467 0.288605
0.229370 0.247467 0.288605
0.356415 0.247467 0.288605
0.487305 0.247467 0.288605
0.621063 0.247467 0.288605
0.757172 0.247467 0.288605
0.895264 0.247467 0.288605
0.000000 0.375885 0.288605
0.108002 0.375885 0.288605
0.229370 0.375885 0.288605
0.356415 0.375885 0.288605
0.487305 0.375885 0.288605
0.621063 0.375885 0.288605
0.757172 0.375885 0.288605
0.895264 0.375885 0.288605
0.000000 0.505707 0.288605
0.108002 0.505707 0.288605
0.229370 0.505707 0.288605
0.356415 0.505707 0.288605
0.487305 0.505707 0.288605
0.621063 0.505707 0.288605
0.757172 0.505707 0.288605
0.895264 0.505707 0.288605
0.000000 0.636475 0.288605
0.108002 0.636475 0.288605
0.229370 0.636475 0.288605
0.356415 0.636475 0.288605
0.487305 0.636475 0.288605
0.621063 0.636475 0.288605
0.757172 0.636475 0.288605
0.895264 0.636475 0.288605
0.000000 0.768097 0.288605
0.108002 0.768097 0.288605
0.229370 0.768097 0.288605
0.356415 0.768097 0.288605
0.487305 0.768097 0.288605
0.621063 0.768097 0.288605
0.757172 0.768097 0.288605
0.895264 0.768097 0.288605
0.000000 0.900391 0.288605
0.108002 0.900391 0.288605
0.229370 0.900391 0.288605
0.356415 0.900391 0.288605
0.487305 0.900391 0.288605
0.621063 0.900391 0.288605
0.757172 0.900391 0.288605
0.895264 0.900391 0.288605
0.000000 0.000000 0.418640
0.108002 0.000000 0.418640
0.229370 0.000000 0.418640
0.356415 0.000000 0.418640
0.487305 0.000000 0.418640
0.621063 0.000000 0.418640
0.757172 0.000000 0.418640
0.895264 0.000000 0.418640
0.000000 0.121124 0.418640
0.108002 0.121124 0.418640
0.229370 0.121124 0.418640
0.356415 0.121124 0.418640
0.487305 0.121124 0.418640
0.621063 0.121124 0.418640
0.757172 0.121124 0.418640
0.895264 0.121124 0.418640
0.000000 0.247467 0.418640
0.108002 0.247467 0.418640
0.229370 0.247467 0.418640
0.356415 0.247467 0.418640
0.487305 0.247467 0.418640
0.621063 0.247467 0.418640
0.757172 0.247467 0.418640
0.895264 0.247467 0.418640
0.000000 0.375885 0.418640
0.108002 0.375885 0.418640
0.229370 0.375885 0.418640
0.356415 0.375885 0.418640
0.487305 0.375885 0.418640
0.621063 0.375885 0.418640
0.757172 0.375885 0.418640
0.895264 0.375885 0.418640
0.000000 0.505707 0.418640
0.108002 0.505707 0.418640
0.229370 0.505707 0.418640
0.356415 0.505707 0.418640
0.487305 0.505707 0.418640
0.621063 0.505707 0.418640
0.757172 0.505707 0.418640
0.895264 0.505707 0.418640
0.000000 0.636475 0.418640
0.108002 0.636475 0.418640
0.229370 0.636475 0.418640
0.356415 0.636475 0.418640
0.487305 0.636475 0.418640
0.621063 0.636475 0.418640
0.757172 0.636475 0.418640
0.895264 0.636475 0.418640
0.000000 0.768097 0.418640
0.108002 0.768097 0.418640
0.229370 0.768097 0.418640
0.356415 0.768097 0.418640
0.487305 0.768097 0.418640
0.621063 0.768097 0.418640
0.757172 0.768097 0.418640
0.895264 0.768097 0.418640
0.000000 0.900391 0.418640
0.108002 0.900391 0.418640
0.229370 0.900391 0.418640
0.356415 0.900391 0.418640
0.487305 0.900391 0.418640
0.621063 0.900391 0.418640
0.757172 0.900391 0.418640
0.895264 0.900391 0.418640
0.000000 0.000000 0.545105
0.108002 0.000000 0.545105
0.229370 0.000000 0.545105
0.356415 0.000000 0.545105
0.487305 0.000000 0.545105
0.621063 0.000000 0.545105
0.757172 0.000000 0.545105
0.895264 0.000000 0.545105
0.000000 0.121124 0.545105
0.108002 0.121124 0.545105
0.229370 0.121124 0.545105
0.356415 0.121124 0.545105
0.487305 0.121124 0.545105
0.621063 0.121124 0.545105
0.757172 0.121124 0.545105
0.895264 0.121124 0.545105
0.000000 0.247467 0.545105
0.108002 0.247467 0.545105
0.229370 0.247467 0.545105
0.356415 0.247467 0.545105
0.487305 0.247467 0.545105
0.621063 0.247467 0.545105
0.757172 0.247467 0.545105
0.895264 0.247467 0.545105
0.000000 0.375885 0.545105
0.108002 0.375885 0.545105
0.229370 0.375885 0.545105
0.356415 0.375885 0.545105
0.487305 0.375885 0.545105
0.621063 0.375885 0.545105
0.757172 0.375885 0.545105
0.895264 0.375885 0.545105
0.000000 0.505707 0.545105
0.108002 0.505707 0.545105
0.229370 0.505707 0.545105
0.356415 0.505707 0.545105
0.487305 0.505707 0.545105
0.621063 0.505707 0.545105
0.757172 0.505707 0.545105
0.895264 0.505707 0.545105
0.000000 0.636475 0.545105
0.108002 0.636475 0.545105
0.229370 0.636475 0.545105
0.356415 0.636475 0.545105
0.487305 0.636475 0.545105
0.621063 0.636475 0.545105
0.757172 0.636475 0.545105
0.895264 0.636475 0.545105
0.000000 0.768097 0.545105
0.108002 0.768097 0.545105
0.229370 0.768097 0.545105
0.356415 0.768097 0.545105
0.487305 0.768097 0.545105
0.621063 0.768097 0.545105
0.757172 0.768097 0.545105
0.895264 0.768097 0.545105
0.000000 0.900391 0.545105
0.108002 0.900391 0.545105
0.229370 0.900391 0.545105
0.356415 0.900391 0.545105
0.487305 0.900391 0.545105
0.621063 0.900391 0.545105
0.757172 0.900391 0.545105
0.895264 0.900391 0.545105
0.000000 0.000000 0.668945
0.108002 0.000000 0.668945
0.229370 0.000000 0.668945
0.356415 0.000000 0.668945
0.487305 0.000000 0.668945
0.621063 0.000000 0.668945
0.757172 0.000000 0.668945
0.895264 0.000000 0.668945
0.000000 0.121124 0.668945
0.108002 0.121124 0.668945
0.229370 0.121124 0.668945
0.356415 0.121124 0.668945
0.487305 0.121124 0.668945
0.621063 0.121124 0.668945
0.757172 0.121124 0.668945
0.895264 0.121124 0.668945
0.000000 0.247467 0.668945
0.108002 0.247467 0.668945
0.229370 0.247467 0.668945
0.356415 0.247467 0.668945
0.487305 0.247467 0.668945
0.621063 0.247467 0.668945
0.757172 0.247467 0.668945
0.895264 0.247467 0.668945
0.000000 0.375885 0.668945
0.108002 0.375885 0.668945
0.229370 0.375885 0.668945
0.356415 0.375885 0.668945
0.487305 0.375885 0.668945
0.621063 0.375885 0.668945
0.757172 0.375885 0.668945
0.895264 0.375885 0.668945
0.000000 0.505707 0.668945
0.108002 0.505707 0.668945
0.229370 0.505707 0.668945
0.356415 0.505707 0.668945
0.487305 0.505707 0.668945
0.621063 0.505707 0.668945
0.757172 0.505707 0.668945
0.895264 0.505707 0.668945
0.000000 0.636475 0.668945
0.108002 0.636475 0.668945
0.229370 0.636475 0.668945
0.356415 0.636475 0.668945
0.487305 0.636475 0.668945
0.621063 0.636475 0.668945
0.757172 0.636475 0.668945
0.895264 0.636475 0.668945
0.000000 0.768097 0.668945
0.108002 0.768097 0.668945
0.229370 0.768097 0.668945
0.356415 0.768097 0.668945
0.487305 0.768097 0.668945
0.621063 0.768097 0.668945
0.757172 0.768097 0.668945
0.895264 0.768097 0.668945
0.000000 0.900391 0.668945
0.108002 0.900391 0.668945
0.229370 0.900391 0.668945
0.356415 0.900391 0.668945
0.487305 0.900391 0.668945
0.621063 0.900391 0.668945
0.757172 0.900391 0.668945
0.895264 0.900391 0.668945
0.000000 0.000000 0.790741
0.108002 0.000000 0.790741
0.229370 0.000000 0.790741
0.356415 0.000000 0.790741
0.487305 0.000000 0.790741
0.621063 0.000000 0.790741
0.757172 0.000000 0.790741
0.895264 0.000000 0.790741
0.000000 0.121124 0.790741
0.108002 0.121124 0.790741
0.229370 0.121124 0.790741
0.356415 0.121124 0.790741
0.487305 0.121124 0.790741
0.621063 0.121124 0.790741
0.757172 0.121124 0.790741
0.895264 0.121124 0.790741
0.000000 0.247467 0.790741
0.108002 0.247467 0.790741
0.229370 0.247467 0.790741
0.356415 0.247467 0.790741
0.487305 0.247467 0.790741
0.621063 0.247467 0.790741
0.757172 0.247467 0.790741
0.895264 0.247467 0.790741
0.000000 0.375885 0.790741
0.108002 0.375885 0.790741
0.229370 0.375885 0.790741
0.356415 0.375885 0.790741
0.487305 0.375885 0.790741
0.621063 0.375885 0.790741
0.757172 0.375885 0.790741
0.895264 0.375885 0.790741
0.000000 0.505707 0.790741
0.108002 0.505707 0.790741
0.229370 0.505707 0.790741
0.356415 0.505707 0.790741
0.487305 0.505707 0.790741
0.621063 0.505707 0.790741
0.757172 0.505707 0.790741
0.895264 0.505707 0.790741
0.000000 0.636475 0.790741
0.108002 0.636475 0.790741
0.229370 0.636475 0.790741
0.356415 0.636475 0.790741
0.487305 0.636475 0.790741
0.621063 0.636475 0.790741
0.757172 0.636475 0.790741
0.895264 0.636475 0.790741
0.000000 0.768097 0.790741
0.108002 0.768097 0.790741
0.229370 0.768097 0.790741
0.356415 0.768097 0.790741
0.487305 0.768097 0.790741
0.621063 0.768097 0.790741
0.757172 0.768097 0.790741
0.895264 0.768097 0.790741
0.000000 0.900391 0.790741
0.108002 0.900391 0.790741
0.229370 0.900391 0.790741
0.356415 0.900391 0.790741
0.487305 0.900391 0.790741
0.621063 0.900391 0.790741
0.757172 0.900391 0.790741
0.895264 0.900391 0.790741
0.000000 0.000000 0.910858
0.108002 0.000000 0.910858
0.229370 0.000000 0.910858
0.356415 0.000000 0.910858
0.487305 0.000000 0.910858
0.621063 0.000000 0.910858
0.757172 0.000000 0.910858
0.895264 0.000000 0.910858
0.000000 0.121124 0.910858
0.108002 0.121124 0.910858
0.229370 0.121124 0.910858
0.356415 0.121124 0.910858
0.487305 0.121124 0.910858
0.621063 0.121124 0.910858
0.757172 0.121124 0.910858
0.895264 0.121124 0.910858
0.000000 0.247467 0.910858
0.108002 0.247467 0.910858
0.229370 0.247467 0.910858
0.356415 0.247467 0.910858
0.487305 0.247467 0.910858
0.621063 0.247467 0.910858
0.757172 0.247467 0.910858
0.895264 0.247467 0.910858
0.000000 0.375885 0.910858
0.108002 0.375885 0.910858
0.229370 0.375885 0.910858
0.356415 0.375885 0.910858
0.487305 0.375885 0.910858
0.621063 0.375885 0.910858
0.757172 0.375885 0.910858
0.895264 0.375885 0.910858
0.000000 0.505707 0.910858
0.108002 0.505707 0.910858
0.229370 0.505707 0.910858
0.356415 0.505707 0.910858
0.487305 0.505707 0.910858
0.621063 0.505707 0.910858
0.757172 0.505707 0.910858
0.895264 0.505707 0.910858
0.000000 0.636475 0.910858
0.108002 0.636475 0.910858
0.229370 0.636475 0.910858
0.356415 0.636475 0.910858
0.487305 0.636475 0.910858
0.621063 0.636475 0.910858
0.757172 0.636475 0.910858
0.895264 0.636475 0.910858
0.000000 0.768097 0.910858
0.108002 0.768097 0.910858
0.229370 0.768097 0.910858
0.356415 0.768097 0.910858
0.487305 0.768097 0.910858
0.621063 0.768097 0.910858
0.757172 0.768097 0.910858
0.895264 0.768097 0.910858
0.000000 0.900391 0.910858
0.108002 0.900391 0.910858
0.229370 0.900391 0.910858
0.356415 0.900391 0.910858
0.487305 0.900391 0.910858
0.621063 0.900391 0.910858
0.757172 0.900391 0.910858
0.895264 0.900391 0.910858
