public/luts/GettyImages_1279332587-Large.CUBE
#Created by: Adobe Photoshop Export Color Lookup Plugin
TITLE "GettyImages_1279332587-Large.psd"
#LUT size
LUT_3D_SIZE 5
#data domain
#LUT data points
DOMAIN_MIN 0.000000 0.000000 0.000000
DOMAIN_MAX 0.903226 0.903226 0.903226
0.000000 0.000000 0.000000
0.191376 0.000000 0.000000
0.413422 0.000000 0.000000
0.648743 0.000000 0.000000
0.893066 0.000000 0.000000
0.000000 0.215637 0.000000
0.191376 0.215637 0.000000
0.413422 0.215637 0.000000
0.648743 0.215637 0.000000
0.893066 0.215637 0.000000
0.000000 0.440643 0.000000
0.191376 0.440643 0.000000
0.413422 0.440643 0.000000
0.648743 0.440643 0.000000
0.893066 0.440643 0.000000
0.000000 0.669312 0.000000
0.191376 0.669312 0.000000
0.413422 0.669312 0.000000
0.648743 0.669312 0.000000
0.893066 0.669312 0.000000
0.000000 0.900391 0.000000
0.191376 0.900391 0.000000
0.413422 0.900391 0.000000
0.648743 0.900391 0.000000
0.893066 0.900391 0.000000
0.000000 0.000000 0.264832
0.191376 0.000000 0.264832
0.413422 0.000000 0.264832
0.648743 0.000000 0.264832
0.893066 0.000000 0.264832
0.000000 0.215637 0.264832
0.191376 0.215637 0.264832
0.413422 0.215637 0.264832
0.648743 0.215637 0.264832
0.893066 0.215637 0.264832
0.000000 0.440643 0.264832
0.191376 0.440643 0.264832
0.413422 0.440643 0.264832
0.648743 0.440643 0.264832
0.893066 0.440643 0.264832
0.000000 0.669312 0.264832
0.191376 0.669312 0.264832
0.413422 0.669312 0.264832
0.648743 0.669312 0.264832
0.893066 0.669312 0.264832
0.000000 0.900391 0.264832
0.191376 0.900391 0.264832
0.413422 0.900391 0.264832
0.648743 0.900391 0.264832
0.893066 0.900391 0.264832
0.000000 0.000000 0.491760
0.191376 0.000000 0.491760
0.413422 0.000000 0.491760
0.648743 0.000000 0.491760
0.893066 0.000000 0.491760
0.000000 0.215637 0.491760
0.191376 0.215637 0.491760
0.413422 0.215637 0.491760
0.648743 0.215637 0.491760
0.893066 0.215637 0.491760
0.000000 0.440643 0.491760
0.191376 0.440643 0.491760
0.413422 0.440643 0.491760
0.648743 0.440643 0.491760
0.893066 0.440643 0.491760
0.000000 0.669312 0.491760
0.191376 0.669312 0.491760
0.413422 0.669312 0.491760
0.648743 0.669312 0.491760
0.893066 0.669312 0.491760
0.000000 0.900391 0.491760
0.191376 0.900391 0.491760
0.413422 0.900391 0.491760
0.648743 0.900391 0.491760
0.893066 0.900391 0.491760
0.000000 0.000000 0.706299
0.191376 0.000000 0.706299
0.413422 0.000000 0.706299
0.648743 0.000000 0.706299
0.893066 0.000000 0.706299
0.000000 0.215637 0.706299
0.191376 0.215637 0.706299
0.413422 0.215637 0.706299
0.648743 0.215637 0.706299
0.893066 0.215637 0.706299
0.000000 0.440643 0.706299
0.191376 0.440643 0.706299
0.413422 0.440643 0.706299
0.648743 0.440643 0.706299
0.893066 0.440643 0.706299
0.000000 0.669312 0.706299
0.191376 0.669312 0.706299
0.413422 0.669312 0.706299
0.648743 0.669312 0.706299
0.893066 0.669312 0.706299
0.000000 0.900391 0.706299
0.191376 0.900391 0.706299
0.413422 0.900391 0.706299
0.648743 0.900391 0.706299
0.893066 0.900391 0.706299
0.000000 0.000000 0.913116
0.191376 0.000000 0.913116
0.413422 0.000000 0.913116
0.648743 0.000000 0.913116
0.893066 0.000000 0.913116
0.000000 0.215637 0.913116
0.191376 0.215637 0.913116
0.413422 0.215637 0.913116
0.648743 0.215637 0.913116
0.893066 0.215637 0.913116
0.000000 0.440643 0.913116
0.191376 0.440643 0.913116
0.413422 0.440643 0.913116
0.648743 0.440643 0.913116
0.893066 0.440643 0.913116
0.000000 0.669312 0.913116
0.191376 0.669312 0.913116
0.413422 0.669312 0.913116
0.648743 0.669312 0.913116
0.893066 0.669312 0.913116
0.000000 0.900391 0.913116
0.191376 0.900391 0.913116
0.413422 0.900391 0.913116
0.648743 0.900391 0.913116
0.893066 0.900391 0.913116
