public/luts/GettyImages_1303695549-Large.CUBE
#Created by: Adobe Photoshop Export Color Lookup Plugin
TITLE "GettyImages_1303695549-Large.psd"
#LUT size
LUT_3D_SIZE 32
#data domain
DOMAIN_MIN 0.0 0.0 0.0
DOMAIN_MAX 1.0 1.0 1.0
#LUT data points
0.000000 0.000000 0.000000
0.015106 0.000000 0.000000
0.041870 0.000000 0.000000
0.066772 0.000000 0.000000
0.092987 0.000000 0.000000
0.120148 0.000000 0.000000
0.148163 0.000000 0.000000
0.176880 0.000000 0.000000
0.206238 0.000000 0.000000
0.236145 0.000000 0.000000
0.266541 0.000000 0.000000
0.297394 0.000000 0.000000
0.328674 0.000000 0.000000
0.360352 0.000000 0.000000
0.392395 0.000000 0.000000
0.424774 0.000000 0.000000
0.457520 0.000000 0.000000
0.490540 0.000000 0.000000
0.523834 0.000000 0.000000
0.557434 0.000000 0.000000
0.591278 0.000000 0.000000
0.625397 0.000000 0.000000
0.659729 0.000000 0.000000
0.694336 0.000000 0.000000
0.729126 0.000000 0.000000
0.764160 0.000000 0.000000
0.799377 0.000000 0.000000
0.834839 0.000000 0.000000
0.870483 0.000000 0.000000
0.906281 0.000000 0.000000
0.942291 0.000000 0.000000
0.978485 0.000000 0.000000
0.000000 0.015106 0.000000
0.015106 0.015106 0.000000
0.041870 0.015106 0.000000
0.066772 0.015106 0.000000
0.092987 0.015106 0.000000
0.120148 0.015106 0.000000
0.148163 0.015106 0.000000
0.176880 0.015106 0.000000
0.206238 0.015106 0.000000
0.236145 0.015106 0.000000
0.266541 0.015106 0.000000
0.297394 0.015106 0.000000
0.328674 0.015106 0.000000
0.360352 0.015106 0.000000
0.392395 0.015106 0.000000
0.424774 0.015106 0.000000
0.457520 0.015106 0.000000
0.490540 0.015106 0.000000
0.523834 0.015106 0.000000
0.557434 0.015106 0.000000
0.591278 0.015106 0.000000
0.625397 0.015106 0.000000
0.659729 0.015106 0.000000
0.694336 0.015106 0.000000
0.729126 0.015106 0.000000
0.764160 0.015106 0.000000
0.799377 0.015106 0.000000
0.834839 0.015106 0.000000
0.870483 0.015106 0.000000
0.906281 0.015106 0.000000
0.942291 0.015106 0.000000
0.978485 0.015106 0.000000
0.000000 0.041870 0.000000
0.015106 0.041870 0.000000
0.041870 0.041870 0.000000
0.066772 0.041870 0.000000
0.092987 0.041870 0.000000
0.120148 0.041870 0.000000
0.148163 0.041870 0.000000
0.176880 0.041870 0.000000
0.206238 0.041870 0.000000
0.236145 0.041870 0.000000
0.266541 0.041870 0.000000
0.297394 0.041870 0.000000
0.328674 0.041870 0.000000
0.360352 0.041870 0.000000
0.392395 0.041870 0.000000
0.424774 0.041870 0.000000
0.457520 0.041870 0.000000
0.490540 0.041870 0.000000
0.523834 0.041870 0.000000
0.557434 0.041870 0.000000
0.591278 0.041870 0.000000
0.625397 0.041870 0.000000
0.659729 0.041870 0.000000
0.694336 0.041870 0.000000
0.729126 0.041870 0.000000
0.764160 0.041870 0.000000
0.799377 0.041870 0.000000
0.834839 0.041870 0.000000
0.870483 0.041870 0.000000
0.906281 0.041870 0.000000
0.942291 0.041870 0.000000
0.978485 0.041870 0.000000
0.000000 0.066772 0.000000
0.015106 0.066772 0.000000
0.041870 0.066772 0.000000
0.066772 0.066772 0.000000
0.092987 0.066772 0.000000
0.120148 0.066772 0.000000
0.148163 0.066772 0.000000
0.176880 0.066772 0.000000
0.206238 0.066772 0.000000
0.236145 0.066772 0.000000
0.266541 0.066772 0.000000
0.297394 0.066772 0.000000
0.328674 0.066772 0.000000
0.360352 0.066772 0.000000
0.392395 0.066772 0.000000
0.424774 0.066772 0.000000
0.457520 0.066772 0.000000
0.490540 0.066772 0.000000
0.523834 0.066772 0.000000
0.557434 0.066772 0.000000
0.591278 0.066772 0.000000
0.625397 0.066772 0.000000
0.659729 0.066772 0.000000
0.694336 0.066772 0.000000
0.729126 0.066772 0.000000
0.764160 0.066772 0.000000
0.799377 0.066772 0.000000
0.834839 0.066772 0.000000
0.870483 0.066772 0.000000
0.906281 0.066772 0.000000
0.942291 0.066772 0.000000
0.978485 0.066772 0.000000
0.000000 0.092987 0.000000
0.015106 0.092987 0.000000
0.041870 0.092987 0.000000
0.066772 0.092987 0.000000
0.092987 0.092987 0.000000
0.120148 0.092987 0.000000
0.148163 0.092987 0.000000
0.176880 0.092987 0.000000
0.206238 0.092987 0.000000
0.236145 0.092987 0.000000
0.266541 0.092987 0.000000
0.297394 0.092987 0.000000
0.328674 0.092987 0.000000
0.360352 0.092987 0.000000
0.392395 0.092987 0.000000
0.424774 0.092987 0.000000
0.457520 0.092987 0.000000
0.490540 0.092987 0.000000
0.523834 0.092987 0.000000
0.557434 0.092987 0.000000
0.591278 0.092987 0.000000
0.625397 0.092987 0.000000
0.659729 0.092987 0.000000
0.694336 0.092987 0.000000
0.729126 0.092987 0.000000
0.764160 0.092987 0.000000
0.799377 0.092987 0.000000
0.834839 0.092987 0.000000
0.870483 0.092987 0.000000
0.906281 0.092987 0.000000
0.942291 0.092987 0.000000
0.978485 0.092987 0.000000
0.000000 0.120148 0.000000
0.015106 0.120148 0.000000
0.041870 0.120148 0.000000
0.066772 0.120148 0.000000
0.092987 0.120148 0.000000
0.120148 0.120148 0.000000
0.148163 0.120148 0.000000
0.176880 0.120148 0.000000
0.206238 0.120148 0.000000
0.236145 0.120148 0.000000
0.266541 0.120148 0.000000
0.297394 0.120148 0.000000
0.328674 0.120148 0.000000
0.360352 0.120148 0.000000
0.392395 0.120148 0.000000
0.424774 0.120148 0.000000
0.457520 0.120148 0.000000
0.490540 0.120148 0.000000
0.523834 0.120148 0.000000
0.557434 0.120148 0.000000
0.591278 0.120148 0.000000
0.625397 0.120148 0.000000
0.659729 0.120148 0.000000
0.694336 0.120148 0.000000
0.729126 0.120148 0.000000
0.764160 0.120148 0.000000
0.799377 0.120148 0.000000
0.834839 0.120148 0.000000
0.870483 0.120148 0.000000
0.906281 0.120148 0.000000
0.942291 0.120148 0.000000
0.978485 0.120148 0.000000
0.000000 0.148163 0.000000
0.015106 0.148163 0.000000
0.041870 0.148163 0.000000
0.066772 0.148163 0.000000
0.092987 0.148163 0.000000
0.120148 0.148163 0.000000
0.148163 0.148163 0.000000
0.176880 0.148163 0.000000
0.206238 0.148163 0.000000
0.236145 0.148163 0.000000
0.266541 0.148163 0.000000
0.297394 0.148163 0.000000
0.328674 0.148163 0.000000
0.360352 0.148163 0.000000
0.392395 0.148163 0.000000
0.424774 0.148163 0.000000
0.457520 0.148163 0.000000
0.490540 0.148163 0.000000
0.523834 0.148163 0.000000
0.557434 0.148163 0.000000
0.591278 0.148163 0.000000
0.625397 0.148163 0.000000
0.659729 0.148163 0.000000
0.694336 0.148163 0.000000
0.729126 0.148163 0.000000
0.764160 0.148163 0.000000
0.799377 0.148163 0.000000
0.834839 0.148163 0.000000
0.870483 0.148163 0.000000
0.906281 0.148163 0.000000
0.942291 0.148163 0.000000
0.978485 0.148163 0.000000
0.000000 0.176880 0.000000
0.015106 0.176880 0.000000
0.041870 0.176880 0.000000
0.066772 0.176880 0.000000
0.092987 0.176880 0.000000
0.120148 0.176880 0.000000
0.148163 0.176880 0.000000
0.176880 0.176880 0.000000
0.206238 0.176880 0.000000
0.236145 0.176880 0.000000
0.266541 0.176880 0.000000
0.297394 0.176880 0.000000
0.328674 0.176880 0.000000
0.360352 0.176880 0.000000
0.392395 0.176880 0.000000
0.424774 0.176880 0.000000
0.457520 0.176880 0.000000
0.490540 0.176880 0.000000
0.523834 0.176880 0.000000
0.557434 0.176880 0.000000
0.591278 0.176880 0.000000
0.625397 0.176880 0.000000
0.659729 0.176880 0.000000
0.694336 0.176880 0.000000
0.729126 0.176880 0.000000
0.764160 0.176880 0.000000
0.799377 0.176880 0.000000
0.834839 0.176880 0.000000
0.870483 0.176880 0.000000
0.906281 0.176880 0.000000
0.942291 0.176880 0.000000
0.978485 0.176880 0.000000
0.000000 0.206238 0.000000
0.015106 0.206238 0.000000
0.041870 0.206238 0.000000
0.066772 0.206238 0.000000
0.092987 0.206238 0.000000
0.120148 0.206238 0.000000
0.148163 0.206238 0.000000
0.176880 0.206238 0.000000
0.206238 0.206238 0.000000
0.236145 0.206238 0.000000
0.266541 0.206238 0.000000
0.297394 0.206238 0.000000
0.328674 0.206238 0.000000
0.360352 0.206238 0.000000
0.392395 0.206238 0.000000
0.424774 0.206238 0.000000
0.457520 0.206238 0.000000
0.490540 0.206238 0.000000
0.523834 0.206238 0.000000
0.557434 0.206238 0.000000
0.591278 0.206238 0.000000
0.625397 0.206238 0.000000
0.659729 0.206238 0.000000
0.694336 0.206238 0.000000
0.729126 0.206238 0.000000
0.764160 0.206238 0.000000
0.799377 0.206238 0.000000
0.834839 0.206238 0.000000
0.870483 0.206238 0.000000
0.906281 0.206238 0.000000
0.942291 0.206238 0.000000
0.978485 0.206238 0.000000
0.000000 0.236145 0.000000
0.015106 0.236145 0.000000
0.041870 0.236145 0.000000
0.066772 0.236145 0.000000
0.092987 0.236145 0.000000
0.120148 0.236145 0.000000
0.148163 0.236145 0.000000
0.176880 0.236145 0.000000
0.206238 0.236145 0.000000
0.236145 0.236145 0.000000
0.266541 0.236145 0.000000
0.297394 0.236145 0.000000
0.328674 0.236145 0.000000
0.360352 0.236145 0.000000
0.392395 0.236145 0.000000
0.424774 0.236145 0.000000
0.457520 0.236145 0.000000
0.490540 0.236145 0.000000
0.523834 0.236145 0.000000
0.557434 0.236145 0.000000
0.591278 0.236145 0.000000
0.625397 0.236145 0.000000
0.659729 0.236145 0.000000
0.694336 0.236145 0.000000
0.729126 0.236145 0.000000
0.764160 0.236145 0.000000
0.799377 0.236145 0.000000
0.834839 0.236145 0.000000
0.870483 0.236145 0.000000
0.906281 0.236145 0.000000
0.942291 0.236145 0.000000
0.978485 0.236145 0.000000
0.000000 0.266541 0.000000
0.015106 0.266541 0.000000
0.041870 0.266541 0.000000
0.066772 0.266541 0.000000
0.092987 0.266541 0.000000
0.120148 0.266541 0.000000
0.148163 0.266541 0.000000
0.176880 0.266541 0.000000
0.206238 0.266541 0.000000
0.236145 0.266541 0.000000
0.266541 0.266541 0.000000
0.297394 0.266541 0.000000
0.328674 0.266541 0.000000
0.360352 0.266541 0.000000
0.392395 0.266541 0.000000
0.424774 0.266541 0.000000
0.457520 0.266541 0.000000
0.490540 0.266541 0.000000
0.523834 0.266541 0.000000
0.557434 0.266541 0.000000
0.591278 0.266541 0.000000
0.625397 0.266541 0.000000
0.659729 0.266541 0.000000
0.694336 0.266541 0.000000
0.729126 0.266541 0.000000
0.764160 0.266541 0.000000
0.799377 0.266541 0.000000
0.834839 0.266541 0.000000
0.870483 0.266541 0.000000
0.906281 0.266541 0.000000
0.942291 0.266541 0.000000
0.978485 0.266541 0.000000
0.000000 0.297394 0.000000
0.015106 0.297394 0.000000
0.041870 0.297394 0.000000
0.066772 0.297394 0.000000
0.092987 0.297394 0.000000
0.120148 0.297394 0.000000
0.148163 0.297394 0.000000
0.176880 0.297394 0.000000
0.206238 0.297394 0.000000
0.236145 0.297394 0.000000
0.266541 0.297394 0.000000
0.297394 0.297394 0.000000
0.328674 0.297394 0.000000
0.360352 0.297394 0.000000
0.392395 0.297394 0.000000
0.424774 0.297394 0.000000
0.457520 0.297394 0.000000
0.490540 0.297394 0.000000
0.523834 0.297394 0.000000
0.557434 0.297394 0.000000
0.591278 0.297394 0.000000
0.625397 0.297394 0.000000
0.659729 0.297394 0.000000
0.694336 0.297394 0.000000
0.729126 0.297394 0.000000
0.764160 0.297394 0.000000
0.799377 0.297394 0.000000
0.834839 0.297394 0.000000
0.870483 0.297394 0.000000
0.906281 0.297394 0.000000
0.942291 0.297394 0.000000
0.978485 0.297394 0.000000
0.000000 0.328674 0.000000
0.015106 0.328674 0.000000
0.041870 0.328674 0.000000
0.066772 0.328674 0.000000
0.092987 0.328674 0.000000
0.120148 0.328674 0.000000
0.148163 0.328674 0.000000
0.176880 0.328674 0.000000
0.206238 0.328674 0.000000
0.236145 0.328674 0.000000
0.266541 0.328674 0.000000
0.297394 0.328674 0.000000
0.328674 0.328674 0.000000
0.360352 0.328674 0.000000
0.392395 0.328674 0.000000
0.424774 0.328674 0.000000
0.457520 0.328674 0.000000
0.490540 0.328674 0.000000
0.523834 0.328674 0.000000
0.557434 0.328674 0.000000
0.591278 0.328674 0.000000
0.625397 0.328674 0.000000
0.659729 0.328674 0.000000
0.694336 0.328674 0.000000
0.729126 0.328674 0.000000
0.764160 0.328674 0.000000
0.799377 0.328674 0.000000
0.834839 0.328674 0.000000
0.870483 0.328674 0.000000
0.906281 0.328674 0.000000
0.942291 0.328674 0.000000
0.978485 0.328674 0.000000
0.000000 0.360352 0.000000
0.015106 0.360352 0.000000
0.041870 0.360352 0.000000
0.066772 0.360352 0.000000
0.092987 0.360352 0.000000
0.120148 0.360352 0.000000
0.148163 0.360352 0.000000
0.176880 0.360352 0.000000
0.206238 0.360352 0.000000
0.236145 0.360352 0.000000
0.266541 0.360352 0.000000
0.297394 0.360352 0.000000
0.328674 0.360352 0.000000
0.360352 0.360352 0.000000
0.392395 0.360352 0.000000
0.424774 0.360352 0.000000
0.457520 0.360352 0.000000
0.490540 0.360352 0.000000
0.523834 0.360352 0.000000
0.557434 0.360352 0.000000
0.591278 0.360352 0.000000
0.625397 0.360352 0.000000
0.659729 0.360352 0.000000
0.694336 0.360352 0.000000
0.729126 0.360352 0.000000
0.764160 0.360352 0.000000
0.799377 0.360352 0.000000
0.834839 0.360352 0.000000
0.870483 0.360352 0.000000
0.906281 0.360352 0.000000
0.942291 0.360352 0.000000
0.978485 0.360352 0.000000
0.000000 0.392395 0.000000
0.015106 0.392395 0.000000
0.041870 0.392395 0.000000
0.066772 0.392395 0.000000
0.092987 0.392395 0.000000
0.120148 0.392395 0.000000
0.148163 0.392395 0.000000
0.176880 0.392395 0.000000
0.206238 0.392395 0.000000
0.236145 0.392395 0.000000
0.266541 0.392395 0.000000
0.297394 0.392395 0.000000
0.328674 0.392395 0.000000
0.360352 0.392395 0.000000
0.392395 0.392395 0.000000
0.424774 0.392395 0.000000
0.457520 0.392395 0.000000
0.490540 0.392395 0.000000
0.523834 0.392395 0.000000
0.557434 0.392395 0.000000
0.591278 0.392395 0.000000
0.625397 0.392395 0.000000
0.659729 0.392395 0.000000
0.694336 0.392395 0.000000
0.729126 0.392395 0.000000
0.764160 0.392395 0.000000
0.799377 0.392395 0.000000
0.834839 0.392395 0.000000
0.870483 0.392395 0.000000
0.906281 0.392395 0.000000
0.942291 0.392395 0.000000
0.978485 0.392395 0.000000
0.000000 0.424774 0.000000
0.015106 0.424774 0.000000
0.041870 0.424774 0.000000
0.066772 0.424774 0.000000
0.092987 0.424774 0.000000
0.120148 0.424774 0.000000
0.148163 0.424774 0.000000
0.176880 0.424774 0.000000
0.206238 0.424774 0.000000
0.236145 0.424774 0.000000
0.266541 0.424774 0.000000
0.297394 0.424774 0.000000
0.328674 0.424774 0.000000
0.360352 0.424774 0.000000
0.392395 0.424774 0.000000
0.424774 0.424774 0.000000
0.457520 0.424774 0.000000
0.490540 0.424774 0.000000
0.523834 0.424774 0.000000
0.557434 0.424774 0.000000
0.591278 0.424774 0.000000
0.625397 0.424774 0.000000
0.659729 0.424774 0.000000
0.694336 0.424774 0.000000
0.729126 0.424774 0.000000
0.764160 0.424774 0.000000
0.799377 0.424774 0.000000
0.834839 0.424774 0.000000
0.870483 0.424774 0.000000
0.906281 0.424774 0.000000
0.942291 0.424774 0.000000
0.978485 0.424774 0.000000
0.000000 0.457520 0.000000
0.015106 0.457520 0.000000
0.041870 0.457520 0.000000
0.066772 0.457520 0.000000
0.092987 0.457520 0.000000
0.120148 0.457520 0.000000
0.148163 0.457520 0.000000
0.176880 0.457520 0.000000
0.206238 0.457520 0.000000
0.236145 0.457520 0.000000
0.266541 0.457520 0.000000
0.297394 0.457520 0.000000
0.328674 0.457520 0.000000
0.360352 0.457520 0.000000
0.392395 0.457520 0.000000
0.424774 0.457520 0.000000
0.457520 0.457520 0.000000
0.490540 0.457520 0.000000
0.523834 0.457520 0.000000
0.557434 0.457520 0.000000
0.591278 0.457520 0.000000
0.625397 0.457520 0.000000
0.659729 0.457520 0.000000
0.694336 0.457520 0.000000
0.729126 0.457520 0.000000
0.764160 0.457520 0.000000
0.799377 0.457520 0.000000
0.834839 0.457520 0.000000
0.870483 0.457520 0.000000
0.906281 0.457520 0.000000
0.942291 0.457520 0.000000
0.978485 0.457520 0.000000
0.000000 0.490540 0.000000
0.015106 0.490540 0.000000
0.041870 0.490540 0.000000
0.066772 0.490540 0.000000
0.092987 0.490540 0.000000
0.120148 0.490540 0.000000
0.148163 0.490540 0.000000
0.176880 0.490540 0.000000
0.206238 0.490540 0.000000
0.236145 0.490540 0.000000
0.266541 0.490540 0.000000
0.297394 0.490540 0.000000
0.328674 0.490540 0.000000
0.360352 0.490540 0.000000
0.392395 0.490540 0.000000
0.424774 0.490540 0.000000
0.457520 0.490540 0.000000
0.490540 0.490540 0.000000
0.523834 0.490540 0.000000
0.557434 0.490540 0.000000
0.591278 0.490540 0.000000
0.625397 0.490540 0.000000
0.659729 0.490540 0.000000
0.694336 0.490540 0.000000
0.729126 0.490540 0.000000
0.764160 0.490540 0.000000
0.799377 0.490540 0.000000
0.834839 0.490540 0.000000
0.870483 0.490540 0.000000
0.906281 0.490540 0.000000
0.942291 0.490540 0.000000
0.978485 0.490540 0.000000
0.000000 0.523834 0.000000
0.015106 0.523834 0.000000
0.041870 0.523834 0.000000
0.066772 0.523834 0.000000
0.092987 0.523834 0.000000
0.120148 0.523834 0.000000
0.148163 0.523834 0.000000
0.176880 0.523834 0.000000
0.206238 0.523834 0.000000
0.236145 0.523834 0.000000
0.266541 0.523834 0.000000
0.297394 0.523834 0.000000
0.328674 0.523834 0.000000
0.360352 0.523834 0.000000
0.392395 0.523834 0.000000
0.424774 0.523834 0.000000
0.457520 0.523834 0.000000
0.490540 0.523834 0.000000
0.523834 0.523834 0.000000
0.557434 0.523834 0.000000
0.591278 0.523834 0.000000
0.625397 0.523834 0.000000
0.659729 0.523834 0.000000
0.694336 0.523834 0.000000
0.729126 0.523834 0.000000
0.764160 0.523834 0.000000
0.799377 0.523834 0.000000
0.834839 0.523834 0.000000
0.870483 0.523834 0.000000
0.906281 0.523834 0.000000
0.942291 0.523834 0.000000
0.978485 0.523834 0.000000
0.000000 0.557434 0.000000
0.015106 0.557434 0.000000
0.041870 0.557434 0.000000
0.066772 0.557434 0.000000
0.092987 0.557434 0.000000
0.120148 0.557434 0.000000
0.148163 0.557434 0.000000
0.176880 0.557434 0.000000
0.206238 0.557434 0.000000
0.236145 0.557434 0.000000
0.266541 0.557434 0.000000
0.297394 0.557434 0.000000
0.328674 0.557434 0.000000
0.360352 0.557434 0.000000
0.392395 0.557434 0.000000
0.424774 0.557434 0.000000
0.457520 0.557434 0.000000
0.490540 0.557434 0.000000
0.523834 0.557434 0.000000
0.557434 0.557434 0.000000
0.591278 0.557434 0.000000
0.625397 0.557434 0.000000
0.659729 0.557434 0.000000
0.694336 0.557434 0.000000
0.729126 0.557434 0.000000
0.764160 0.557434 0.000000
0.799377 0.557434 0.000000
0.834839 0.557434 0.000000
0.870483 0.557434 0.000000
0.906281 0.557434 0.000000
0.942291 0.557434 0.000000
0.978485 0.557434 0.000000
0.000000 0.591278 0.000000
0.015106 0.591278 0.000000
0.041870 0.591278 0.000000
0.066772 0.591278 0.000000
0.092987 0.591278 0.000000
0.120148 0.591278 0.000000
0.148163 0.591278 0.000000
0.176880 0.591278 0.000000
0.206238 0.591278 0.000000
0.236145 0.591278 0.000000
0.266541 0.591278 0.000000
0.297394 0.591278 0.000000
0.328674 0.591278 0.000000
0.360352 0.591278 0.000000
0.392395 0.591278 0.000000
0.424774 0.591278 0.000000
0.457520 0.591278 0.000000
0.490540 0.591278 0.000000
0.523834 0.591278 0.000000
0.557434 0.591278 0.000000
0.591278 0.591278 0.000000
0.625397 0.591278 0.000000
0.659729 0.591278 0.000000
0.694336 0.591278 0.000000
0.729126 0.591278 0.000000
0.764160 0.591278 0.000000
0.799377 0.591278 0.000000
0.834839 0.591278 0.000000
0.870483 0.591278 0.000000
0.906281 0.591278 0.000000
0.942291 0.591278 0.000000
0.978485 0.591278 0.000000
0.000000 0.625397 0.000000
0.015106 0.625397 0.000000
0.041870 0.625397 0.000000
0.066772 0.625397 0.000000
0.092987 0.625397 0.000000
0.120148 0.625397 0.000000
0.148163 0.625397 0.000000
0.176880 0.625397 0.000000
0.206238 0.625397 0.000000
0.236145 0.625397 0.000000
0.266541 0.625397 0.000000
0.297394 0.625397 0.000000
0.328674 0.625397 0.000000
0.360352 0.625397 0.000000
0.392395 0.625397 0.000000
0.424774 0.625397 0.000000
0.457520 0.625397 0.000000
0.490540 0.625397 0.000000
0.523834 0.625397 0.000000
0.557434 0.625397 0.000000
0.591278 0.625397 0.000000
0.625397 0.625397 0.000000
0.659729 0.625397 0.000000
0.694336 0.625397 0.000000
0.729126 0.625397 0.000000
0.764160 0.625397 0.000000
0.799377 0.625397 0.000000
0.834839 0.625397 0.000000
0.870483 0.625397 0.000000
0.906281 0.625397 0.000000
0.942291 0.625397 0.000000
0.978485 0.625397 0.000000
0.000000 0.659729 0.000000
0.015106 0.659729 0.000000
0.041870 0.659729 0.000000
0.066772 0.659729 0.000000
0.092987 0.659729 0.000000
0.120148 0.659729 0.000000
0.148163 0.659729 0.000000
0.176880 0.659729 0.000000
0.206238 0.659729 0.000000
0.236145 0.659729 0.000000
0.266541 0.659729 0.000000
0.297394 0.659729 0.000000
0.328674 0.659729 0.000000
0.360352 0.659729 0.000000
0.392395 0.659729 0.000000
0.424774 0.659729 0.000000
0.457520 0.659729 0.000000
0.490540 0.659729 0.000000
0.523834 0.659729 0.000000
0.557434 0.659729 0.000000
0.591278 0.659729 0.000000
0.625397 0.659729 0.000000
0.659729 0.659729 0.000000
0.694336 0.659729 0.000000
0.729126 0.659729 0.000000
0.764160 0.659729 0.000000
0.799377 0.659729 0.000000
0.834839 0.659729 0.000000
0.870483 0.659729 0.000000
0.906281 0.659729 0.000000
0.942291 0.659729 0.000000
0.978485 0.659729 0.000000
0.000000 0.694336 0.000000
0.015106 0.694336 0.000000
0.041870 0.694336 0.000000
0.066772 0.694336 0.000000
0.092987 0.694336 0.000000
0.120148 0.694336 0.000000
0.148163 0.694336 0.000000
0.176880 0.694336 0.000000
0.206238 0.694336 0.000000
0.236145 0.694336 0.000000
0.266541 0.694336 0.000000
0.297394 0.694336 0.000000
0.328674 0.694336 0.000000
0.360352 0.694336 0.000000
0.392395 0.694336 0.000000
0.424774 0.694336 0.000000
0.457520 0.694336 0.000000
0.490540 0.694336 0.000000
0.523834 0.694336 0.000000
0.557434 0.694336 0.000000
0.591278 0.694336 0.000000
0.625397 0.694336 0.000000
0.659729 0.694336 0.000000
0.694336 0.694336 0.000000
0.729126 0.694336 0.000000
0.764160 0.694336 0.000000
0.799377 0.694336 0.000000
0.834839 0.694336 0.000000
0.870483 0.694336 0.000000
0.906281 0.694336 0.000000
0.942291 0.694336 0.000000
0.978485 0.694336 0.000000
0.000000 0.729126 0.000000
0.015106 0.729126 0.000000
0.041870 0.729126 0.000000
0.066772 0.729126 0.000000
0.092987 0.729126 0.000000
0.120148 0.729126 0.000000
0.148163 0.729126 0.000000
0.176880 0.729126 0.000000
0.206238 0.729126 0.000000
0.236145 0.729126 0.000000
0.266541 0.729126 0.000000
0.297394 0.729126 0.000000
0.328674 0.729126 0.000000
0.360352 0.729126 0.000000
0.392395 0.729126 0.000000
0.424774 0.729126 0.000000
0.457520 0.729126 0.000000
0.490540 0.729126 0.000000
0.523834 0.729126 0.000000
0.557434 0.729126 0.000000
0.591278 0.729126 0.000000
0.625397 0.729126 0.000000
0.659729 0.729126 0.000000
0.694336 0.729126 0.000000
0.729126 0.729126 0.000000
0.764160 0.729126 0.000000
0.799377 0.729126 0.000000
0.834839 0.729126 0.000000
0.870483 0.729126 0.000000
0.906281 0.729126 0.000000
0.942291 0.729126 0.000000
0.978485 0.729126 0.000000
0.000000 0.764160 0.000000
0.015106 0.764160 0.000000
0.041870 0.764160 0.000000
0.066772 0.764160 0.000000
0.092987 0.764160 0.000000
0.120148 0.764160 0.000000
0.148163 0.764160 0.000000
0.176880 0.764160 0.000000
0.206238 0.764160 0.000000
0.236145 0.764160 0.000000
0.266541 0.764160 0.000000
0.297394 0.764160 0.000000
0.328674 0.764160 0.000000
0.360352 0.764160 0.000000
0.392395 0.764160 0.000000
0.424774 0.764160 0.000000
0.457520 0.764160 0.000000
0.490540 0.764160 0.000000
0.523834 0.764160 0.000000
0.557434 0.764160 0.000000
0.591278 0.764160 0.000000
0.625397 0.764160 0.000000
0.659729 0.764160 0.000000
0.694336 0.764160 0.000000
0.729126 0.764160 0.000000
0.764160 0.764160 0.000000
0.799377 0.764160 0.000000
0.834839 0.764160 0.000000
0.870483 0.764160 0.000000
0.906281 0.764160 0.000000
0.942291 0.764160 0.000000
0.978485 0.764160 0.000000
0.000000 0.799377 0.000000
0.015106 0.799377 0.000000
0.041870 0.799377 0.000000
0.066772 0.799377 0.000000
0.092987 0.799377 0.000000
0.120148 0.799377 0.000000
0.148163 0.799377 0.000000
0.176880 0.799377 0.000000
0.206238 0.799377 0.000000
0.236145 0.799377 0.000000
0.266541 0.799377 0.000000
0.297394 0.799377 0.000000
0.328674 0.799377 0.000000
0.360352 0.799377 0.000000
0.392395 0.799377 0.000000
0.424774 0.799377 0.000000
0.457520 0.799377 0.000000
0.490540 0.799377 0.000000
0.523834 0.799377 0.000000
0.557434 0.799377 0.000000
0.591278 0.799377 0.000000
0.625397 0.799377 0.000000
0.659729 0.799377 0.000000
0.694336 0.799377 0.000000
0.729126 0.799377 0.000000
0.764160 0.799377 0.000000
0.799377 0.799377 0.000000
0.834839 0.799377 0.000000
0.870483 0.799377 0.000000
0.906281 0.799377 0.000000
0.942291 0.799377 0.000000
0.978485 0.799377 0.000000
0.000000 0.834839 0.000000
0.015106 0.834839 0.000000
0.041870 0.834839 0.000000
0.066772 0.834839 0.000000
0.092987 0.834839 0.000000
0.120148 0.834839 0.000000
0.148163 0.834839 0.000000
0.176880 0.834839 0.000000
0.206238 0.834839 0.000000
0.236145 0.834839 0.000000
0.266541 0.834839 0.000000
0.297394 0.834839 0.000000
0.328674 0.834839 0.000000
0.360352 0.834839 0.000000
0.392395 0.834839 0.000000
0.424774 0.834839 0.000000
0.457520 0.834839 0.000000
