public/luts/GettyImages_1303695549-Large.CUBE
#Created by: Adobe Photoshop Export Color Lookup Plugin
TITLE "GettyImages_1303695549-Large.psd"
#LUT size
LUT_3D_SIZE 8
#data domain
#LUT data points
DOMAIN_MIN 0.000000 0.000000 0.000000
DOMAIN_MAX 0.903226 0.903226 0.903226
0.000000 0.000000 0.000000
0.092987 0.000000 0.000000
0.206238 0.000000 0.000000
0.328674 0.000000 0.000000
0.457520 0.000000 0.000000
0.591278 0.000000 0.000000
0.729126 0.000000 0.000000
0.870483 0.000000 0.000000
0.000000 0.092987 0.000000
0.092987 0.092987 0.000000
0.206238 0.092987 0.000000
0.328674 0.092987 0.000000
0.457520 0.092987 0.000000
0.591278 0.092987 0.000000
0.729126 0.092987 0.000000
0.870483 0.092987 0.000000
0.000000 0.206238 0.000000
0.092987 0.206238 0.000000
0.206238 0.206238 0.000000
0.328674 0.206238 0.000000
0.457520 0.206238 0.000000
0.591278 0.206238 0.000000
0.729126 0.206238 0.000000
0.870483 0.206238 0.000000
0.000000 0.328674 0.000000
0.092987 0.328674 0.000000
0.206238 0.328674 0.000000
0.328674 0.328674 0.000000
0.457520 0.328674 0.000000
0.591278 0.328674 0.000000
0.729126 0.328674 0.000000
0.870483 0.328674 0.000000
0.000000 0.457520 0.000000
0.092987 0.457520 0.000000
0.206238 0.457520 0.000000
0.328674 0.457520 0.000000
0.457520 0.457520 0.000000
0.591278 0.457520 0.000000
0.729126 0.457520 0.000000
0.870483 0.457520 0.000000
0.000000 0.591278 0.000000
0.092987 0.591278 0.000000
0.206238 0.591278 0.000000
0.328674 0.591278 0.000000
0.457520 0.591278 0.000000
0.591278 0.591278 0.000000
0.729126 0.591278 0.000000
0.870483 0.591278 0.000000
0.000000 0.729126 0.000000
0.092987 0.729126 0.000000
0.206238 0.729126 0.000000
0.328674 0.729126 0.000000
0.457520 0.729126 0.000000
0.591278 0.729126 0.000000
0.729126 0.729126 0.000000
0.870483 0.729126 0.000000
0.000000 0.870483 0.000000
0.092987 0.870483 0.000000
0.206238 0.870483 0.000000
0.328674 0.870483 0.000000
0.457520 0.870483 0.000000
0.591278 0.870483 0.000000
0.729126 0.870483 0.000000
0.870483 0.870483 0.000000
0.000000 0.000000 0.092987
0.092987 0.000000 0.092987
0.206238 0.000000 0.092987
0.328674 0.000000 0.092987
0.457520 0.000000 0.092987
0.591278 0.000000 0.092987
0.729126 0.000000 0.092987
0.870483 0.000000 0.092987
0.000000 0.092987 0.092987
0.092987 0.092987 0.092987
0.206238 0.092987 0.092987
0.328674 0.092987 0.092987
0.457520 0.092987 0.092987
0.591278 0.092987 0.092987
0.729126 0.092987 0.092987
0.870483 0.092987 0.092987
0.000000 0.206238 0.092987
0.092987 0.206238 0.092987
0.206238 0.206238 0.092987
0.328674 0.206238 0.092987
0.457520 0.206238 0.092987
0.591278 0.206238 0.092987
0.729126 0.206238 0.092987
0.870483 0.206238 0.092987
0.000000 0.328674 0.092987
0.092987 0.328674 0.092987
0.206238 0.328674 0.092987
0.328674 0.328674 0.092987
0.457520 0.328674 0.092987
0.591278 0.328674 0.092987
0.729126 0.328674 0.092987
0.870483 0.328674 0.092987
0.000000 0.457520 0.092987
0.092987 0.457520 0.092987
0.206238 0.457520 0.092987
0.328674 0.457520 0.092987
0.457520 0.457520 0.092987
0.591278 0.457520 0.092987
0.729126 0.457520 0.092987
0.870483 0.457520 0.092987
0.000000 0.591278 0.092987
0.092987 0.591278 0.092987
0.206238 0.591278 0.092987
0.328674 0.591278 0.092987
0.457520 0.591278 0.092987
0.591278 0.591278 0.092987
0.729126 0.591278 0.092987
0.870483 0.591278 0.092987
0.000000 0.729126 0.092987
0.092987 0.729126 0.092987
0.206238 0.729126 0.092987
0.328674 0.729126 0.092987
0.457520 0.729126 0.092987
0.591278 0.729126 0.092987
0.729126 0.729126 0.092987
0.870483 0.729126 0.092987
0.000000 0.870483 0.092987
0.092987 0.870483 0.092987
0.206238 0.870483 0.092987
0.328674 0.870483 0.092987
0.457520 0.870483 0.092987
0.591278 0.870483 0.092987
0.729126 0.870483 0.092987
0.870483 0.870483 0.092987
0.000000 0.000000 0.206238
0.092987 0.000000 0.206238
0.206238 0.000000 0.206238
0.328674 0.000000 0.206238
0.457520 0.000000 0.206238
0.591278 0.000000 0.206238
0.729126 0.000000 0.206238
0.870483 0.000000 0.206238
0.000000 0.092987 0.206238
0.092987 0.092987 0.206238
0.206238 0.092987 0.206238
0.328674 0.092987 0.206238
0.457520 0.092987 0.206238
0.591278 0.092987 0.206238
0.729126 0.092987 0.206238
0.870483 0.092987 0.206238
0.000000 0.206238 0.206238
0.092987 0.206238 0.206238
0.206238 0.206238 0.206238
0.328674 0.206238 0.206238
0.457520 0.206238 0.206238
0.591278 0.206238 0.206238
0.729126 0.206238 0.206238
0.870483 0.206238 0.206238
0.000000 0.328674 0.206238
0.092987 0.328674 0.206238
0.206238 0.328674 0.206238
0.328674 0.328674 0.206238
0.457520 0.328674 0.206238
0.591278 0.328674 0.206238
0.729126 0.328674 0.206238
0.870483 0.328674 0.206238
0.000000 0.457520 0.206238
0.092987 0.457520 0.206238
0.206238 0.457520 0.206238
0.328674 0.457520 0.206238
0.457520 0.457520 0.206238
0.591278 0.457520 0.206238
0.729126 0.457520 0.206238
0.870483 0.457520 0.206238
0.000000 0.591278 0.206238
0.092987 0.591278 0.206238
0.206238 0.591278 0.206238
0.328674 0.591278 0.206238
0.457520 0.591278 0.206238
0.591278 0.591278 0.206238
0.729126 0.591278 0.206238
0.870483 0.591278 0.206238
0.000000 0.729126 0.206238
0.092987 0.729126 0.206238
0.206238 0.729126 0.206238
0.328674 0.729126 0.206238
0.457520 0.729126 0.206238
0.591278 0.729126 0.206238
0.729126 0.729126 0.206238
0.870483 0.729126 0.206238
0.000000 0.870483 0.206238
0.092987 0.870483 0.206238
0.206238 0.870483 0.206238
0.328674 0.870483 0.206238
0.457520 0.870483 0.206238
0.591278 0.870483 0.206238
0.729126 0.870483 0.206238
0.870483 0.870483 0.206238
0.000000 0.000000 0.328674
0.092987 0.000000 0.328674
0.206238 0.000000 0.328674
0.328674 0.000000 0.328674
0.457520 0.000000 0.328674
0.591278 0.000000 0.328674
0.729126 0.000000 0.328674
0.870483 0.000000 0.328674
0.000000 0.092987 0.328674
0.092987 0.092987 0.328674
0.206238 0.092987 0.328674
0.328674 0.092987 0.328674
0.457520 0.092987 0.328674
0.591278 0.092987 0.328674
0.729126 0.092987 0.328674
0.870483 0.092987 0.328674
0.000000 0.206238 0.328674
0.092987 0.206238 0.328674
0.206238 0.206238 0.328674
0.328674 0.206238 0.328674
0.457520 0.206238 0.328674
0.591278 0.206238 0.328674
0.729126 0.206238 0.328674
0.870483 0.206238 0.328674
0.000000 0.328674 0.328674
0.092987 0.328674 0.328674
0.206238 0.328674 0.328674
0.328674 0.328674 0.328674
0.457520 0.328674 0.328674
0.591278 0.328674 0.328674
0.729126 0.328674 0.328674
0.870483 0.328674 0.328674
0.000000 0.457520 0.328674
0.092987 0.457520 0.328674
0.206238 0.457520 0.328674
0.328674 0.457520 0.328674
0.457520 0.457520 0.328674
0.591278 0.457520 0.328674
0.729126 0.457520 0.328674
0.870483 0.457520 0.328674
0.000000 0.591278 0.328674
0.092987 0.591278 0.328674
0.206238 0.591278 0.328674
0.328674 0.591278 0.328674
0.457520 0.591278 0.328674
0.591278 0.591278 0.328674
0.729126 0.591278 0.328674
0.870483 0.591278 0.328674
0.000000 0.729126 0.328674
0.092987 0.729126 0.328674
0.206238 0.729126 0.328674
0.328674 0.729126 0.328674
0.457520 0.729126 0.328674
0.591278 0.729126 0.328674
0.729126 0.729126 0.328674
0.870483 0.729126 0.328674
0.000000 0.870483 0.328674
0.092987 0.870483 0.328674
0.206238 0.870483 0.328674
0.328674 0.870483 0.328674
0.457520 0.870483 0.328674
0.591278 0.870483 0.328674
0.729126 0.870483 0.328674
0.870483 0.870483 0.328674
0.000000 0.000000 0.457520
0.092987 0.000000 0.457520
0.206238 0.000000 0.457520
0.328674 0.000000 0.457520
0.457520 0.000000 0.457520
0.591278 0.000000 0.457520
0.729126 0.000000 0.457520
0.870483 0.000000 0.457520
0.000000 0.092987 0.457520
0.092987 0.092987 0.457520
0.206238 0.092987 0.457520
0.328674 0.092987 0.457520
0.457520 0.092987 0.457520
0.591278 0.092987 0.457520
0.729126 0.092987 0.457520
0.870483 0.092987 0.457520
0.000000 0.206238 0.457520
0.092987 0.206238 0.457520
0.206238 0.206238 0.457520
0.328674 0.206238 0.457520
0.457520 0.206238 0.457520
0.591278 0.206238 0.457520
0.729126 0.206238 0.457520
0.870483 0.206238 0.457520
0.000000 0.328674 0.457520
0.092987 0.328674 0.457520
0.206238 0.328674 0.457520
0.328674 0.328674 0.457520
0.457520 0.328674 0.457520
0.591278 0.328674 0.457520
0.729126 0.328674 0.457520
0.870483 0.328674 0.457520
0.000000 0.457520 0.457520
0.092987 0.457520 0.457520
0.206238 0.457520 0.457520
0.328674 0.457520 0.457520
0.457520 0.457520 0.457520
0.591278 0.457520 0.457520
0.729126 0.457520 0.457520
0.870483 0.457520 0.457520
0.000000 0.591278 0.457520
0.092987 0.591278 0.457520
0.206238 0.591278 0.457520
0.328674 0.591278 0.457520
0.457520 0.591278 0.457520
0.591278 0.591278 0.457520
0.729126 0.591278 0.457520
0.870483 0.591278 0.457520
0.000000 0.729126 0.457520
0.092987 0.729126 0.457520
0.206238 0.729126 0.457520
0.328674 0.729126 0.457520
0.457520 0.729126 0.457520
0.591278 0.729126 0.457520
0.729126 0.729126 0.457520
0.870483 0.729126 0.457520
0.000000 0.870483 0.457520
0.092987 0.870483 0.457520
0.206238 0.870483 0.457520
0.328674 0.870483 0.457520
0.457520 0.870483 0.457520
0.591278 0.870483 0.457520
0.729126 0.870483 0.457520
0.870483 0.870483 0.457520
0.000000 0.000000 0.591278
0.092987 0.000000 0.591278
0.206238 0.000000 0.591278
0.328674 0.000000 0.591278
0.457520 0.000000 0.591278
0.591278 0.000000 0.591278
0.729126 0.000000 0.591278
0.870483 0.000000 0.591278
0.000000 0.092987 0.591278
0.092987 0.092987 0.591278
0.206238 0.092987 0.591278
0.328674 0.092987 0.591278
0.457520 0.092987 0.591278
0.591278 0.092987 0.591278
0.729126 0.092987 0.591278
0.870483 0.092987 0.591278
0.000000 0.206238 0.591278
0.092987 0.206238 0.591278
0.206238 0.206238 0.591278
0.328674 0.206238 0.591278
0.457520 0.206238 0.591278
0.591278 0.206238 0.591278
0.729126 0.206238 0.591278
0.870483 0.206238 0.591278
0.000000 0.328674 0.591278
0.092987 0.328674 0.591278
0.206238 0.328674 0.591278
0.328674 0.328674 0.591278
0.457520 0.328674 0.591278
0.591278 0.328674 0.591278
0.729126 0.328674 0.591278
0.870483 0.328674 0.591278
0.000000 0.457520 0.591278
0.092987 0.457520 0.591278
0.206238 0.457520 0.591278
0.328674 0.457520 0.591278
0.457520 0.457520 0.591278
0.591278 0.457520 0.591278
0.729126 0.457520 0.591278
0.870483 0.457520 0.591278
0.000000 0.591278 0.591278
0.092987 0.591278 0.591278
0.206238 0.591278 0.591278
0.328674 0.591278 0.591278
0.457520 0.591278 0.591278
0.591278 0.591278 0.591278
0.729126 0.591278 0.591278
0.870483 0.591278 0.591278
0.000000 0.729126 0.591278
0.092987 0.729126 0.591278
0.206238 0.729126 0.591278
0.328674 0.729126 0.591278
0.457520 0.729126 0.591278
0.591278 0.729126 0.591278
0.729126 0.729126 0.591278
0.870483 0.729126 0.591278
0.000000 0.870483 0.591278
0.092987 0.870483 0.591278
0.206238 0.870483 0.591278
0.328674 0.870483 0.591278
0.457520 0.870483 0.591278
0.591278 0.870483 0.591278
0.729126 0.870483 0.591278
0.870483 0.870483 0.591278
0.000000 0.000000 0.729126
0.092987 0.000000 0.729126
0.206238 0.000000 0.729126
0.328674 0.000000 0.729126
0.457520 0.000000 0.729126
0.591278 0.000000 0.729126
0.729126 0.000000 0.729126
0.870483 0.000000 0.729126
0.000000 0.092987 0.729126
0.092987 0.092987 0.729126
0.206238 0.092987 0.729126
0.328674 0.092987 0.729126
0.457520 0.092987 0.729126
0.591278 0.092987 0.729126
0.729126 0.092987 0.729126
0.870483 0.092987 0.729126
0.000000 0.206238 0.729126
0.092987 0.206238 0.729126
0.206238 0.206238 0.729126
0.328674 0.206238 0.729126
0.457520 0.206238 0.729126
0.591278 0.206238 0.729126
0.729126 0.206238 0.729126
0.870483 0.206238 0.729126
0.000000 0.328674 0.729126
0.092987 0.328674 0.729126
0.206238 0.328674 0.729126
0.328674 0.328674 0.729126
0.457520 0.328674 0.729126
0.591278 0.328674 0.729126
0.729126 0.328674 0.729126
0.870483 0.328674 0.729126
0.000000 0.457520 0.729126
0.092987 0.457520 0.729126
0.206238 0.457520 0.729126
0.328674 0.457520 0.729126
0.457520 0.457520 0.729126
0.591278 0.457520 0.729126
0.729126 0.457520 0.729126
0.870483 0.457520 0.729126
0.000000 0.591278 0.729126
0.092987 0.591278 0.729126
0.206238 0.591278 0.729126
0.328674 0.591278 0.729126
0.457520 0.591278 0.729126
0.591278 0.591278 0.729126
0.729126 0.591278 0.729126
0.870483 0.591278 0.729126
0.000000 0.729126 0.729126
0.092987 0.729126 0.729126
0.206238 0.729126 0.729126
0.328674 0.729126 0.729126
0.457520 0.729126 0.729126
0.591278 0.729126 0.729126
0.729126 0.729126 0.729126
0.870483 0.729126 0.729126
0.000000 0.870483 0.729126
0.092987 0.870483 0.729126
0.206238 0.870483 0.729126
0.328674 0.870483 0.729126
0.457520 0.870483 0.729126
0.591278 0.870483 0.729126
0.729126 0.870483 0.729126
0.870483 0.870483 0.729126
0.000000 0.000000 0.870483
0.092987 0.000000 0.870483
0.206238 0.000000 0.870483
0.328674 0.000000 0.870483
0.457520 0.000000 0.870483
0.591278 0.000000 0.870483
0.729126 0.000000 0.870483
0.870483 0.000000 0.870483
0.000000 0.092987 0.870483
0.092987 0.092987 0.870483
0.206238 0.092987 0.870483
0.328674 0.092987 0.870483
0.457520 0.092987 0.870483
0.591278 0.092987 0.870483
0.729126 0.092987 0.870483
0.870483 0.092987 0.870483
0.000000 0.206238 0.870483
0.092987 0.206238 0.870483
0.206238 0.206238 0.870483
0.328674 0.206238 0.870483
0.457520 0.206238 0.870483
0.591278 0.206238 0.870483
0.729126 0.206238 0.870483
0.870483 0.206238 0.870483
0.000000 0.328674 0.870483
0.092987 0.328674 0.870483
0.206238 0.328674 0.870483
0.328674 0.328674 0.870483
0.457520 0.328674 0.870483
0.591278 0.328674 0.870483
0.729126 0.328674 0.870483
0.870483 0.328674 0.870483
0.000000 0.457520 0.870483
0.092987 0.457520 0.870483
0.206238 0.457520 0.870483
0.328674 0.457520 0.870483
0.457520 0.457520 0.870483
0.591278 0.457520 0.870483
0.729126 0.457520 0.870483
0.870483 0.457520 0.870483
0.000000 0.591278 0.870483
0.092987 0.591278 0.870483
0.206238 0.591278 0.870483
0.328674 0.591278 0.870483
0.457520 0.591278 0.870483
0.591278 0.591278 0.870483
0.729126 0.591278 0.870483
0.870483 0.591278 0.870483
0.000000 0.729126 0.870483
0.092987 0.729126 0.870483
0.206238 0.729126 0.870483
0.328674 0.729126 0.870483
0.457520 0.729126 0.870483
0.591278 0.729126 0.870483
0.729126 0.729126 0.870483
0.870483 0.729126 0.870483
0.000000 0.870483 0.870483
0.092987 0.870483 0.870483
0.206238 0.870483 0.870483
0.328674 0.870483 0.870483
0.457520 0.870483 0.870483
0.591278 0.870483 0.870483
0.729126 0.870483 0.870483
0.870483 0.870483 0.870483
