public/luts/GettyImages_1341998535-Large.CUBE
#Created by: Adobe Photoshop Export Color Lookup Plugin
TITLE "GettyImages_1341998535-Large.psd"
#LUT size
LUT_3D_SIZE 32
#data domain
DOMAIN_MIN 0.0 0.0 0.0
DOMAIN_MAX 1.0 1.0 1.0
#LUT data points
0.000000 0.000000 0.000000
0.023926 0.000000 0.000000
0.050842 0.000000 0.000000
0.079010 0.000000 0.000000
0.108002 0.000000 0.000000
0.137604 0.000000 0.000000
0.167786 0.000000 0.000000
0.198395 0.000000 0.000000
0.229370 0.000000 0.000000
0.260712 0.000000 0.000000
0.292358 0.000000 0.000000
0.324249 0.000000 0.000000
0.356415 0.000000 0.000000
0.388824 0.000000 0.000000
0.421448 0.000000 0.000000
0.454254 0.000000 0.000000
0.487305 0.000000 0.000000
0.520477 0.000000 0.000000
0.553833 0.000000 0.000000
0.587372 0.000000 0.000000
0.621063 0.000000 0.000000
0.654877 0.000000 0.000000
0.688843 0.000000 0.000000
0.722931 0.000000 0.000000
0.757172 0.000000 0.000000
0.791504 0.000000 0.000000
0.825989 0.000000 0.000000
0.860596 0.000000 0.000000
0.895264 0.000000 0.000000
0.930084 0.000000 0.000000
0.964996 0.000000 0.000000
1.000000 0.000000 0.000000
0.000000 0.029022 0.000000
0.023926 0.029022 0.000000
0.050842 0.029022 0.000000
0.079010 0.029022 0.000000
0.108002 0.029022 0.000000
0.137604 0.029022 0.000000
0.167786 0.029022 0.000000
0.198395 0.029022 0.000000
0.229370 0.029022 0.000000
0.260712 0.029022 0.000000
0.292358 0.029022 0.000000
0.324249 0.029022 0.000000
0.356415 0.029022 0.000000
0.388824 0.029022 0.000000
0.421448 0.029022 0.000000
0.454254 0.029022 0.000000
0.487305 0.029022 0.000000
0.520477 0.029022 0.000000
0.553833 0.029022 0.000000
0.587372 0.029022 0.000000
0.621063 0.029022 0.000000
0.654877 0.029022 0.000000
0.688843 0.029022 0.000000
0.722931 0.029022 0.000000
0.757172 0.029022 0.000000
0.791504 0.029022 0.000000
0.825989 0.029022 0.000000
0.860596 0.029022 0.000000
0.895264 0.029022 0.000000
0.930084 0.029022 0.000000
0.964996 0.029022 0.000000
1.000000 0.029022 0.000000
0.000000 0.059265 0.000000
0.023926 0.059265 0.000000
0.050842 0.059265 0.000000
0.079010 0.059265 0.000000
0.108002 0.059265 0.000000
0.137604 0.059265 0.000000
0.167786 0.059265 0.000000
0.198395 0.059265 0.000000
0.229370 0.059265 0.000000
0.260712 0.059265 0.000000
0.292358 0.059265 0.000000
0.324249 0.059265 0.000000
0.356415 0.059265 0.000000
0.388824 0.059265 0.000000
0.421448 0.059265 0.000000
0.454254 0.059265 0.000000
0.487305 0.059265 0.000000
0.520477 0.059265 0.000000
0.553833 0.059265 0.000000
0.587372 0.059265 0.000000
0.621063 0.059265 0.000000
0.654877 0.059265 0.000000
0.688843 0.059265 0.000000
0.722931 0.059265 0.000000
0.757172 0.059265 0.000000
0.791504 0.059265 0.000000
0.825989 0.059265 0.000000
0.860596 0.059265 0.000000
0.895264 0.059265 0.000000
0.930084 0.059265 0.000000
0.964996 0.059265 0.000000
1.000000 0.059265 0.000000
0.000000 0.090027 0.000000
0.023926 0.090027 0.000000
0.050842 0.090027 0.000000
0.079010 0.090027 0.000000
0.108002 0.090027 0.000000
0.137604 0.090027 0.000000
0.167786 0.090027 0.000000
0.198395 0.090027 0.000000
0.229370 0.090027 0.000000
0.260712 0.090027 0.000000
0.292358 0.090027 0.000000
0.324249 0.090027 0.000000
0.356415 0.090027 0.000000
0.388824 0.090027 0.000000
0.421448 0.090027 0.000000
0.454254 0.090027 0.000000
0.487305 0.090027 0.000000
0.520477 0.090027 0.000000
0.553833 0.090027 0.000000
0.587372 0.090027 0.000000
0.621063 0.090027 0.000000
0.654877 0.090027 0.000000
0.688843 0.090027 0.000000
0.722931 0.090027 0.000000
0.757172 0.090027 0.000000
0.791504 0.090027 0.000000
0.825989 0.090027 0.000000
0.860596 0.090027 0.000000
0.895264 0.090027 0.000000
0.930084 0.090027 0.000000
0.964996 0.090027 0.000000
1.000000 0.090027 0.000000
0.000000 0.121124 0.000000
0.023926 0.121124 0.000000
0.050842 0.121124 0.000000
0.079010 0.121124 0.000000
0.108002 0.121124 0.000000
0.137604 0.121124 0.000000
0.167786 0.121124 0.000000
0.198395 0.121124 0.000000
0.229370 0.121124 0.000000
0.260712 0.121124 0.000000
0.292358 0.121124 0.000000
0.324249 0.121124 0.000000
0.356415 0.121124 0.000000
0.388824 0.121124 0.000000
0.421448 0.121124 0.000000
0.454254 0.121124 0.000000
0.487305 0.121124 0.000000
0.520477 0.121124 0.000000
0.553833 0.121124 0.000000
0.587372 0.121124 0.000000
0.621063 0.121124 0.000000
0.654877 0.121124 0.000000
0.688843 0.121124 0.000000
0.722931 0.121124 0.000000
0.757172 0.121124 0.000000
0.791504 0.121124 0.000000
0.825989 0.121124 0.000000
0.860596 0.121124 0.000000
0.895264 0.121124 0.000000
0.930084 0.121124 0.000000
0.964996 0.121124 0.000000
1.000000 0.121124 0.000000
0.000000 0.152435 0.000000
0.023926 0.152435 0.000000
0.050842 0.152435 0.000000
0.079010 0.152435 0.000000
0.108002 0.152435 0.000000
0.137604 0.152435 0.000000
0.167786 0.152435 0.000000
0.198395 0.152435 0.000000
0.229370 0.152435 0.000000
0.260712 0.152435 0.000000
0.292358 0.152435 0.000000
0.324249 0.152435 0.000000
0.356415 0.152435 0.000000
0.388824 0.152435 0.000000
0.421448 0.152435 0.000000
0.454254 0.152435 0.000000
0.487305 0.152435 0.000000
0.520477 0.152435 0.000000
0.553833 0.152435 0.000000
0.587372 0.152435 0.000000
0.621063 0.152435 0.000000
0.654877 0.152435 0.000000
0.688843 0.152435 0.000000
0.722931 0.152435 0.000000
0.757172 0.152435 0.000000
0.791504 0.152435 0.000000
0.825989 0.152435 0.000000
0.860596 0.152435 0.000000
0.895264 0.152435 0.000000
0.930084 0.152435 0.000000
0.964996 0.152435 0.000000
1.000000 0.152435 0.000000
0.000000 0.183960 0.000000
0.023926 0.183960 0.000000
0.050842 0.183960 0.000000
0.079010 0.183960 0.000000
0.108002 0.183960 0.000000
0.137604 0.183960 0.000000
0.167786 0.183960 0.000000
0.198395 0.183960 0.000000
0.229370 0.183960 0.000000
0.260712 0.183960 0.000000
0.292358 0.183960 0.000000
0.324249 0.183960 0.000000
0.356415 0.183960 0.000000
0.388824 0.183960 0.000000
0.421448 0.183960 0.000000
0.454254 0.183960 0.000000
0.487305 0.183960 0.000000
0.520477 0.183960 0.000000
0.553833 0.183960 0.000000
0.587372 0.183960 0.000000
0.621063 0.183960 0.000000
0.654877 0.183960 0.000000
0.688843 0.183960 0.000000
0.722931 0.183960 0.000000
0.757172 0.183960 0.000000
0.791504 0.183960 0.000000
0.825989 0.183960 0.000000
0.860596 0.183960 0.000000
0.895264 0.183960 0.000000
0.930084 0.183960 0.000000
0.964996 0.183960 0.000000
1.000000 0.183960 0.000000
0.000000 0.215637 0.000000
0.023926 0.215637 0.000000
0.050842 0.215637 0.000000
0.079010 0.215637 0.000000
0.108002 0.215637 0.000000
0.137604 0.215637 0.000000
0.167786 0.215637 0.000000
0.198395 0.215637 0.000000
0.229370 0.215637 0.000000
0.260712 0.215637 0.000000
0.292358 0.215637 0.000000
0.324249 0.215637 0.000000
0.356415 0.215637 0.000000
0.388824 0.215637 0.000000
0.421448 0.215637 0.000000
0.454254 0.215637 0.000000
0.487305 0.215637 0.000000
0.520477 0.215637 0.000000
0.553833 0.215637 0.000000
0.587372 0.215637 0.000000
0.621063 0.215637 0.000000
0.654877 0.215637 0.000000
0.688843 0.215637 0.000000
0.722931 0.215637 0.000000
0.757172 0.215637 0.000000
0.791504 0.215637 0.000000
0.825989 0.215637 0.000000
0.860596 0.215637 0.000000
0.895264 0.215637 0.000000
0.930084 0.215637 0.000000
0.964996 0.215637 0.000000
1.000000 0.215637 0.000000
0.000000 0.247467 0.000000
0.023926 0.247467 0.000000
0.050842 0.247467 0.000000
0.079010 0.247467 0.000000
0.108002 0.247467 0.000000
0.137604 0.247467 0.000000
0.167786 0.247467 0.000000
0.198395 0.247467 0.000000
0.229370 0.247467 0.000000
0.260712 0.247467 0.000000
0.292358 0.247467 0.000000
0.324249 0.247467 0.000000
0.356415 0.247467 0.000000
0.388824 0.247467 0.000000
0.421448 0.247467 0.000000
0.454254 0.247467 0.000000
0.487305 0.247467 0.000000
0.520477 0.247467 0.000000
0.553833 0.247467 0.000000
0.587372 0.247467 0.000000
0.621063 0.247467 0.000000
0.654877 0.247467 0.000000
0.688843 0.247467 0.000000
0.722931 0.247467 0.000000
0.757172 0.247467 0.000000
0.791504 0.247467 0.000000
0.825989 0.247467 0.000000
0.860596 0.247467 0.000000
0.895264 0.247467 0.000000
0.930084 0.247467 0.000000
0.964996 0.247467 0.000000
1.000000 0.247467 0.000000
0.000000 0.279419 0.000000
0.023926 0.279419 0.000000
0.050842 0.279419 0.000000
0.079010 0.279419 0.000000
0.108002 0.279419 0.000000
0.137604 0.279419 0.000000
0.167786 0.279419 0.000000
0.198395 0.279419 0.000000
0.229370 0.279419 0.000000
0.260712 0.279419 0.000000
0.292358 0.279419 0.000000
0.324249 0.279419 0.000000
0.356415 0.279419 0.000000
0.388824 0.279419 0.000000
0.421448 0.279419 0.000000
0.454254 0.279419 0.000000
0.487305 0.279419 0.000000
0.520477 0.279419 0.000000
0.553833 0.279419 0.000000
0.587372 0.279419 0.000000
0.621063 0.279419 0.000000
0.654877 0.279419 0.000000
0.688843 0.279419 0.000000
0.722931 0.279419 0.000000
0.757172 0.279419 0.000000
0.791504 0.279419 0.000000
0.825989 0.279419 0.000000
0.860596 0.279419 0.000000
0.895264 0.279419 0.000000
0.930084 0.279419 0.000000
0.964996 0.279419 0.000000
1.000000 0.279419 0.000000
0.000000 0.311493 0.000000
0.023926 0.311493 0.000000
0.050842 0.311493 0.000000
0.079010 0.311493 0.000000
0.108002 0.311493 0.000000
0.137604 0.311493 0.000000
0.167786 0.311493 0.000000
0.198395 0.311493 0.000000
0.229370 0.311493 0.000000
0.260712 0.311493 0.000000
0.292358 0.311493 0.000000
0.324249 0.311493 0.000000
0.356415 0.311493 0.000000
0.388824 0.311493 0.000000
0.421448 0.311493 0.000000
0.454254 0.311493 0.000000
0.487305 0.311493 0.000000
0.520477 0.311493 0.000000
0.553833 0.311493 0.000000
0.587372 0.311493 0.000000
0.621063 0.311493 0.000000
0.654877 0.311493 0.000000
0.688843 0.311493 0.000000
0.722931 0.311493 0.000000
0.757172 0.311493 0.000000
0.791504 0.311493 0.000000
0.825989 0.311493 0.000000
0.860596 0.311493 0.000000
0.895264 0.311493 0.000000
0.930084 0.311493 0.000000
0.964996 0.311493 0.000000
1.000000 0.311493 0.000000
0.000000 0.343628 0.000000
0.023926 0.343628 0.000000
0.050842 0.343628 0.000000
0.079010 0.343628 0.000000
0.108002 0.343628 0.000000
0.137604 0.343628 0.000000
0.167786 0.343628 0.000000
0.198395 0.343628 0.000000
0.229370 0.343628 0.000000
0.260712 0.343628 0.000000
0.292358 0.343628 0.000000
0.324249 0.343628 0.000000
0.356415 0.343628 0.000000
0.388824 0.343628 0.000000
0.421448 0.343628 0.000000
0.454254 0.343628 0.000000
0.487305 0.343628 0.000000
0.520477 0.343628 0.000000
0.553833 0.343628 0.000000
0.587372 0.343628 0.000000
0.621063 0.343628 0.000000
0.654877 0.343628 0.000000
0.688843 0.343628 0.000000
0.722931 0.343628 0.000000
0.757172 0.343628 0.000000
0.791504 0.343628 0.000000
0.825989 0.343628 0.000000
0.860596 0.343628 0.000000
0.895264 0.343628 0.000000
0.930084 0.343628 0.000000
0.964996 0.343628 0.000000
1.000000 0.343628 0.000000
0.000000 0.375885 0.000000
0.023926 0.375885 0.000000
0.050842 0.375885 0.000000
0.079010 0.375885 0.000000
0.108002 0.375885 0.000000
0.137604 0.375885 0.000000
0.167786 0.375885 0.000000
0.198395 0.375885 0.000000
0.229370 0.375885 0.000000
0.260712 0.375885 0.000000
0.292358 0.375885 0.000000
0.324249 0.375885 0.000000
0.356415 0.375885 0.000000
0.388824 0.375885 0.000000
0.421448 0.375885 0.000000
0.454254 0.375885 0.000000
0.487305 0.375885 0.000000
0.520477 0.375885 0.000000
0.553833 0.375885 0.000000
0.587372 0.375885 0.000000
0.621063 0.375885 0.000000
0.654877 0.375885 0.000000
0.688843 0.375885 0.000000
0.722931 0.375885 0.000000
0.757172 0.375885 0.000000
0.791504 0.375885 0.000000
0.825989 0.375885 0.000000
0.860596 0.375885 0.000000
0.895264 0.375885 0.000000
0.930084 0.375885 0.000000
0.964996 0.375885 0.000000
1.000000 0.375885 0.000000
0.000000 0.408234 0.000000
0.023926 0.408234 0.000000
0.050842 0.408234 0.000000
0.079010 0.408234 0.000000
0.108002 0.408234 0.000000
0.137604 0.408234 0.000000
0.167786 0.408234 0.000000
0.198395 0.408234 0.000000
0.229370 0.408234 0.000000
0.260712 0.408234 0.000000
0.292358 0.408234 0.000000
0.324249 0.408234 0.000000
0.356415 0.408234 0.000000
0.388824 0.408234 0.000000
0.421448 0.408234 0.000000
0.454254 0.408234 0.000000
0.487305 0.408234 0.000000
0.520477 0.408234 0.000000
0.553833 0.408234 0.000000
0.587372 0.408234 0.000000
0.621063 0.408234 0.000000
0.654877 0.408234 0.000000
0.688843 0.408234 0.000000
0.722931 0.408234 0.000000
0.757172 0.408234 0.000000
0.791504 0.408234 0.000000
0.825989 0.408234 0.000000
0.860596 0.408234 0.000000
0.895264 0.408234 0.000000
0.930084 0.408234 0.000000
0.964996 0.408234 0.000000
1.000000 0.408234 0.000000
0.000000 0.440643 0.000000
0.023926 0.440643 0.000000
0.050842 0.440643 0.000000
0.079010 0.440643 0.000000
0.108002 0.440643 0.000000
0.137604 0.440643 0.000000
0.167786 0.440643 0.000000
0.198395 0.440643 0.000000
0.229370 0.440643 0.000000
0.260712 0.440643 0.000000
0.292358 0.440643 0.000000
0.324249 0.440643 0.000000
0.356415 0.440643 0.000000
0.388824 0.440643 0.000000
0.421448 0.440643 0.000000
0.454254 0.440643 0.000000
0.487305 0.440643 0.000000
0.520477 0.440643 0.000000
0.553833 0.440643 0.000000
0.587372 0.440643 0.000000
0.621063 0.440643 0.000000
0.654877 0.440643 0.000000
0.688843 0.440643 0.000000
0.722931 0.440643 0.000000
0.757172 0.440643 0.000000
0.791504 0.440643 0.000000
0.825989 0.440643 0.000000
0.860596 0.440643 0.000000
0.895264 0.440643 0.000000
0.930084 0.440643 0.000000
0.964996 0.440643 0.000000
1.000000 0.440643 0.000000
0.000000 0.473114 0.000000
0.023926 0.473114 0.000000
0.050842 0.473114 0.000000
0.079010 0.473114 0.000000
0.108002 0.473114 0.000000
0.137604 0.473114 0.000000
0.167786 0.473114 0.000000
0.198395 0.473114 0.000000
0.229370 0.473114 0.000000
0.260712 0.473114 0.000000
0.292358 0.473114 0.000000
0.324249 0.473114 0.000000
0.356415 0.473114 0.000000
0.388824 0.473114 0.000000
0.421448 0.473114 0.000000
0.454254 0.473114 0.000000
0.487305 0.473114 0.000000
0.520477 0.473114 0.000000
0.553833 0.473114 0.000000
0.587372 0.473114 0.000000
0.621063 0.473114 0.000000
0.654877 0.473114 0.000000
0.688843 0.473114 0.000000
0.722931 0.473114 0.000000
0.757172 0.473114 0.000000
0.791504 0.473114 0.000000
0.825989 0.473114 0.000000
0.860596 0.473114 0.000000
0.895264 0.473114 0.000000
0.930084 0.473114 0.000000
0.964996 0.473114 0.000000
1.000000 0.473114 0.000000
0.000000 0.505707 0.000000
0.023926 0.505707 0.000000
0.050842 0.505707 0.000000
0.079010 0.505707 0.000000
0.108002 0.505707 0.000000
0.137604 0.505707 0.000000
0.167786 0.505707 0.000000
0.198395 0.505707 0.000000
0.229370 0.505707 0.000000
0.260712 0.505707 0.000000
0.292358 0.505707 0.000000
0.324249 0.505707 0.000000
0.356415 0.505707 0.000000
0.388824 0.505707 0.000000
0.421448 0.505707 0.000000
0.454254 0.505707 0.000000
0.487305 0.505707 0.000000
0.520477 0.505707 0.000000
0.553833 0.505707 0.000000
0.587372 0.505707 0.000000
0.621063 0.505707 0.000000
0.654877 0.505707 0.000000
0.688843 0.505707 0.000000
0.722931 0.505707 0.000000
0.757172 0.505707 0.000000
0.791504 0.505707 0.000000
0.825989 0.505707 0.000000
0.860596 0.505707 0.000000
0.895264 0.505707 0.000000
0.930084 0.505707 0.000000
0.964996 0.505707 0.000000
1.000000 0.505707 0.000000
0.000000 0.538300 0.000000
0.023926 0.538300 0.000000
0.050842 0.538300 0.000000
0.079010 0.538300 0.000000
0.108002 0.538300 0.000000
0.137604 0.538300 0.000000
0.167786 0.538300 0.000000
0.198395 0.538300 0.000000
0.229370 0.538300 0.000000
0.260712 0.538300 0.000000
0.292358 0.538300 0.000000
0.324249 0.538300 0.000000
0.356415 0.538300 0.000000
0.388824 0.538300 0.000000
0.421448 0.538300 0.000000
0.454254 0.538300 0.000000
0.487305 0.538300 0.000000
0.520477 0.538300 0.000000
0.553833 0.538300 0.000000
0.587372 0.538300 0.000000
0.621063 0.538300 0.000000
0.654877 0.538300 0.000000
0.688843 0.538300 0.000000
0.722931 0.538300 0.000000
0.757172 0.538300 0.000000
0.791504 0.538300 0.000000
0.825989 0.538300 0.000000
0.860596 0.538300 0.000000
0.895264 0.538300 0.000000
0.930084 0.538300 0.000000
0.964996 0.538300 0.000000
1.000000 0.538300 0.000000
0.000000 0.570984 0.000000
0.023926 0.570984 0.000000
0.050842 0.570984 0.000000
0.079010 0.570984 0.000000
0.108002 0.570984 0.000000
0.137604 0.570984 0.000000
0.167786 0.570984 0.000000
0.198395 0.570984 0.000000
0.229370 0.570984 0.000000
0.260712 0.570984 0.000000
0.292358 0.570984 0.000000
0.324249 0.570984 0.000000
0.356415 0.570984 0.000000
0.388824 0.570984 0.000000
0.421448 0.570984 0.000000
0.454254 0.570984 0.000000
0.487305 0.570984 0.000000
0.520477 0.570984 0.000000
0.553833 0.570984 0.000000
0.587372 0.570984 0.000000
0.621063 0.570984 0.000000
0.654877 0.570984 0.000000
0.688843 0.570984 0.000000
0.722931 0.570984 0.000000
0.757172 0.570984 0.000000
0.791504 0.570984 0.000000
0.825989 0.570984 0.000000
0.860596 0.570984 0.000000
0.895264 0.570984 0.000000
0.930084 0.570984 0.000000
0.964996 0.570984 0.000000
1.000000 0.570984 0.000000
0.000000 0.603699 0.000000
0.023926 0.603699 0.000000
0.050842 0.603699 0.000000
0.079010 0.603699 0.000000
0.108002 0.603699 0.000000
0.137604 0.603699 0.000000
0.167786 0.603699 0.000000
0.198395 0.603699 0.000000
0.229370 0.603699 0.000000
0.260712 0.603699 0.000000
0.292358 0.603699 0.000000
0.324249 0.603699 0.000000
0.356415 0.603699 0.000000
0.388824 0.603699 0.000000
0.421448 0.603699 0.000000
0.454254 0.603699 0.000000
0.487305 0.603699 0.000000
0.520477 0.603699 0.000000
0.553833 0.603699 0.000000
0.587372 0.603699 0.000000
0.621063 0.603699 0.000000
0.654877 0.603699 0.000000
0.688843 0.603699 0.000000
0.722931 0.603699 0.000000
0.757172 0.603699 0.000000
0.791504 0.603699 0.000000
0.825989 0.603699 0.000000
0.860596 0.603699 0.000000
0.895264 0.603699 0.000000
0.930084 0.603699 0.000000
0.964996 0.603699 0.000000
1.000000 0.603699 0.000000
0.000000 0.636475 0.000000
0.023926 0.636475 0.000000
0.050842 0.636475 0.000000
0.079010 0.636475 0.000000
0.108002 0.636475 0.000000
0.137604 0.636475 0.000000
0.167786 0.636475 0.000000
0.198395 0.636475 0.000000
0.229370 0.636475 0.000000
0.260712 0.636475 0.000000
0.292358 0.636475 0.000000
0.324249 0.636475 0.000000
0.356415 0.636475 0.000000
0.388824 0.636475 0.000000
0.421448 0.636475 0.000000
0.454254 0.636475 0.000000
0.487305 0.636475 0.000000
0.520477 0.636475 0.000000
0.553833 0.636475 0.000000
0.587372 0.636475 0.000000
0.621063 0.636475 0.000000
0.654877 0.636475 0.000000
0.688843 0.636475 0.000000
0.722931 0.636475 0.000000
0.757172 0.636475 0.000000
0.791504 0.636475 0.000000
0.825989 0.636475 0.000000
0.860596 0.636475 0.000000
0.895264 0.636475 0.000000
0.930084 0.636475 0.000000
0.964996 0.636475 0.000000
1.000000 0.636475 0.000000
0.000000 0.669312 0.000000
0.023926 0.669312 0.000000
0.050842 0.669312 0.000000
0.079010 0.669312 0.000000
0.108002 0.669312 0.000000
0.137604 0.669312 0.000000
0.167786 0.669312 0.000000
0.198395 0.669312 0.000000
0.229370 0.669312 0.000000
0.260712 0.669312 0.000000
0.292358 0.669312 0.000000
0.324249 0.669312 0.000000
0.356415 0.669312 0.000000
0.388824 0.669312 0.000000
0.421448 0.669312 0.000000
0.454254 0.669312 0.000000
0.487305 0.669312 0.000000
0.520477 0.669312 0.000000
0.553833 0.669312 0.000000
0.587372 0.669312 0.000000
0.621063 0.669312 0.000000
0.654877 0.669312 0.000000
0.688843 0.669312 0.000000
0.722931 0.669312 0.000000
0.757172 0.669312 0.000000
0.791504 0.669312 0.000000
0.825989 0.669312 0.000000
0.860596 0.669312 0.000000
0.895264 0.669312 0.000000
0.930084 0.669312 0.000000
0.964996 0.669312 0.000000
1.000000 0.669312 0.000000
0.000000 0.702209 0.000000
0.023926 0.702209 0.000000
0.050842 0.702209 0.000000
0.079010 0.702209 0.000000
0.108002 0.702209 0.000000
0.137604 0.702209 0.000000
0.167786 0.702209 0.000000
0.198395 0.702209 0.000000
0.229370 0.702209 0.000000
0.260712 0.702209 0.000000
0.292358 0.702209 0.000000
0.324249 0.702209 0.000000
0.356415 0.702209 0.000000
0.388824 0.702209 0.000000
0.421448 0.702209 0.000000
0.454254 0.702209 0.000000
0.487305 0.702209 0.000000
0.520477 0.702209 0.000000
0.553833 0.702209 0.000000
0.587372 0.702209 0.000000
0.621063 0.702209 0.000000
0.654877 0.702209 0.000000
0.688843 0.702209 0.000000
0.722931 0.702209 0.000000
0.757172 0.702209 0.000000
0.791504 0.702209 0.000000
0.825989 0.702209 0.000000
0.860596 0.702209 0.000000
0.895264 0.702209 0.000000
0.930084 0.702209 0.000000
0.964996 0.702209 0.000000
1.000000 0.702209 0.000000
0.000000 0.735138 0.000000
0.023926 0.735138 0.000000
0.050842 0.735138 0.000000
0.079010 0.735138 0.000000
0.108002 0.735138 0.000000
0.137604 0.735138 0.000000
0.167786 0.735138 0.000000
0.198395 0.735138 0.000000
0.229370 0.735138 0.000000
0.260712 0.735138 0.000000
0.292358 0.735138 0.000000
0.324249 0.735138 0.000000
0.356415 0.735138 0.000000
0.388824 0.735138 0.000000
0.421448 0.735138 0.000000
0.454254 0.735138 0.000000
0.487305 0.735138 0.000000
0.520477 0.735138 0.000000
0.553833 0.735138 0.000000
0.587372 0.735138 0.000000
0.621063 0.735138 0.000000
0.654877 0.735138 0.000000
0.688843 0.735138 0.000000
0.722931 0.735138 0.000000
0.757172 0.735138 0.000000
0.791504 0.735138 0.000000
0.825989 0.735138 0.000000
0.860596 0.735138 0.000000
0.895264 0.735138 0.000000
0.930084 0.735138 0.000000
0.964996 0.735138 0.000000
1.000000 0.735138 0.000000
0.000000 0.768097 0.000000
0.023926 0.768097 0.000000
0.050842 0.768097 0.000000
0.079010 0.768097 0.000000
0.108002 0.768097 0.000000
0.137604 0.768097 0.000000
0.167786 0.768097 0.000000
0.198395 0.768097 0.000000
0.229370 0.768097 0.000000
0.260712 0.768097 0.000000
0.292358 0.768097 0.000000
0.324249 0.768097 0.000000
0.356415 0.768097 0.000000
0.388824 0.768097 0.000000
0.421448 0.768097 0.000000
0.454254 0.768097 0.000000
0.487305 0.768097 0.000000
0.520477 0.768097 0.000000
0.553833 0.768097 0.000000
0.587372 0.768097 0.000000
0.621063 0.768097 0.000000
0.654877 0.768097 0.000000
0.688843 0.768097 0.000000
0.722931 0.768097 0.000000
0.757172 0.768097 0.000000
0.791504 0.768097 0.000000
0.825989 0.768097 0.000000
0.860596 0.768097 0.000000
0.895264 0.768097 0.000000
0.930084 0.768097 0.000000
0.964996 0.768097 0.000000
1.000000 0.768097 0.000000
0.000000 0.801117 0.000000
0.023926 0.801117 0.000000
0.050842 0.801117 0.000000
0.079010 0.801117 0.000000
0.108002 0.801117 0.000000
0.137604 0.801117 0.000000
0.167786 0.801117 0.000000
0.198395 0.801117 0.000000
0.229370 0.801117 0.000000
0.260712 0.801117 0.000000
0.292358 0.801117 0.000000
0.324249 0.801117 0.000000
0.356415 0.801117 0.000000
0.388824 0.801117 0.000000
0.421448 0.801117 0.000000
0.454254 0.801117 0.000000
0.487305 0.801117 0.000000
0.520477 0.801117 0.000000
0.553833 0.801117 0.000000
0.587372 0.801117 0.000000
0.621063 0.801117 0.000000
0.654877 0.801117 0.000000
0.688843 0.801117 0.000000
0.722931 0.801117 0.000000
0.757172 0.801117 0.000000
0.791504 0.801117 0.000000
0.825989 0.801117 0.000000
0.860596 0.801117 0.000000
0.895264 0.801117 0.000000
0.930084 0.801117 0.000000
0.964996 0.801117 0.000000
1.000000 0.801117 0.000000
0.000000 0.834167 0.000000
0.023926 0.834167 0.000000
0.050842 0.834167 0.000000
0.079010 0.834167 0.000000
0.108002 0.834167 0.000000
0.137604 0.834167 0.000000
0.167786 0.834167 0.000000
0.198395 0.834167 0.000000
0.229370 0.834167 0.000000
0.260712 0.834167 0.000000
0.292358 0.834167 0.000000
0.324249 0.834167 0.000000
0.356415 0.834167 0.000000
0.388824 0.834167 0.000000
0.421448 0.834167 0.000000
0.454254 0.834167 0.000000
0.487305 0.834167 0.000000
0.520477 0.834167 0.000000
0.553833 0.834167 0.000000
0.587372 0.834167 0.000000
0.621063 0.834167 0.000000
0.654877 0.834167 0.000000
0.688843 0.834167 0.000000
0.722931 0.834167 0.000000
0.757172 0.834167 0.000000
0.791504 0.834167 0.000000
0.825989 0.834167 0.000000
0.860596 0.834167 0.000000
0.895264 0.834167 0.000000
0.930084 0.834167 0.000000
0.964996 0.834167 0.000000
1.000000 0.834167 0.000000
0.000000 0.867249 0.000000
0.023926 0.867249 0.000000
0.050842 0.867249 0.000000
0.079010 0.867249 0.000000
0.108002 0.867249 0.000000
0.137604 0.867249 0.000000
0.167786 0.867249 0.000000
0.198395 0.867249 0.000000
0.229370 0.867249 0.000000
0.260712 0.867249 0.000000
0.292358 0.867249 0.000000
0.324249 0.867249 0.000000
0.356415 0.867249 0.000000
0.388824 0.867249 0.000000
0.421448 0.867249 0.000000
0.454254 0.867249 0.000000
0.487305 0.867249 0.000000
