public/luts/GettyImages_664659401-Large.CUBE
#Created by: Adobe Photoshop Export Color Lookup Plugin
TITLE "GettyImages_664659401-Large.psd"
#LUT size
LUT_3D_SIZE 5
#data domain
#LUT data points
DOMAIN_MIN 0.000000 0.000000 0.000000
DOMAIN_MAX 0.903226 0.903226 0.903226
0.000000 0.000000 0.000000
0.191376 0.000000 0.000000
0.413422 0.000000 0.000000
0.648743 0.000000 0.000000
0.893066 0.000000 0.000000
0.000000 0.222443 0.000000
0.191376 0.222443 0.000000
0.413422 0.222443 0.000000
0.648743 0.222443 0.000000
0.893066 0.222443 0.000000
0.000000 0.447998 0.000000
0.191376 0.447998 0.000000
0.413422 0.447998 0.000000
0.648743 0.447998 0.000000
0.893066 0.447998 0.000000
0.000000 0.674774 0.000000
0.191376 0.674774 0.000000
0.413422 0.674774 0.000000
0.648743 0.674774 0.000000
0.893066 0.674774 0.000000
0.000000 0.902313 0.000000
0.191376 0.902313 0.000000
0.413422 0.902313 0.000000
0.648743 0.902313 0.000000
0.893066 0.902313 0.000000
0.000000 0.000000 0.264832
0.191376 0.000000 0.264832
0.413422 0.000000 0.264832
0.648743 0.000000 0.264832
0.893066 0.000000 0.264832
0.000000 0.222443 0.264832
0.191376 0.222443 0.264832
0.413422 0.222443 0.264832
0.648743 0.222443 0.264832
0.893066 0.222443 0.264832
0.000000 0.447998 0.264832
0.191376 0.447998 0.264832
0.413422 0.447998 0.264832
0.648743 0.447998 0.264832
0.893066 0.447998 0.264832
0.000000 0.674774 0.264832
0.191376 0.674774 0.264832
0.413422 0.674774 0.264832
0.648743 0.674774 0.264832
0.893066 0.674774 0.264832
0.000000 0.902313 0.264832
0.191376 0.902313 0.264832
0.413422 0.902313 0.264832
0.648743 0.902313 0.264832
0.893066 0.902313 0.264832
0.000000 0.000000 0.491760
0.191376 0.000000 0.491760
0.413422 0.000000 0.491760
0.648743 0.000000 0.491760
0.893066 0.000000 0.491760
0.000000 0.222443 0.491760
0.191376 0.222443 0.491760
0.413422 0.222443 0.491760
0.648743 0.222443 0.491760
0.893066 0.222443 0.491760
0.000000 0.447998 0.491760
0.191376 0.447998 0.491760
0.413422 0.447998 0.491760
0.648743 0.447998 0.491760
0.893066 0.447998 0.491760
0.000000 0.674774 0.491760
0.191376 0.674774 0.491760
0.413422 0.674774 0.491760
0.648743 0.674774 0.491760
0.893066 0.674774 0.491760
0.000000 0.902313 0.491760
0.191376 0.902313 0.491760
0.413422 0.902313 0.491760
0.648743 0.902313 0.491760
0.893066 0.902313 0.491760
0.000000 0.000000 0.706299
0.191376 0.000000 0.706299
0.413422 0.000000 0.706299
0.648743 0.000000 0.706299
0.893066 0.000000 0.706299
0.000000 0.222443 0.706299
0.191376 0.222443 0.706299
0.413422 0.222443 0.706299
0.648743 0.222443 0.706299
0.893066 0.222443 0.706299
0.000000 0.447998 0.706299
0.191376 0.447998 0.706299
0.413422 0.447998 0.706299
0.648743 0.447998 0.706299
0.893066 0.447998 0.706299
0.000000 0.674774 0.706299
0.191376 0.674774 0.706299
0.413422 0.674774 0.706299
0.648743 0.674774 0.706299
0.893066 0.674774 0.706299
0.000000 0.902313 0.706299
0.191376 0.902313 0.706299
0.413422 0.902313 0.706299
0.648743 0.902313 0.706299
0.893066 0.902313 0.706299
0.000000 0.000000 0.913116
0.191376 0.000000 0.913116
0.413422 0.000000 0.913116
0.648743 0.000000 0.913116
0.893066 0.000000 0.913116
0.000000 0.222443 0.913116
0.191376 0.222443 0.913116
0.413422 0.222443 0.913116
0.648743 0.222443 0.913116
0.893066 0.222443 0.913116
0.000000 0.447998 0.913116
0.191376 0.447998 0.913116
0.413422 0.447998 0.913116
0.648743 0.447998 0.913116
0.893066 0.447998 0.913116
0.000000 0.674774 0.913116
0.191376 0.674774 0.913116
0.413422 0.674774 0.913116
0.648743 0.674774 0.913116
0.893066 0.674774 0.913116
0.000000 0.902313 0.913116
0.191376 0.902313 0.913116
0.413422 0.902313 0.913116
0.648743 0.902313 0.913116
0.893066 0.902313 0.913116
