public/luts/GettyImages_615332840.CUBE
#Created by: Adobe Photoshop Export Color Lookup Plugin
TITLE "GettyImages_615332840.psd"
#LUT size
LUT_3D_SIZE 8
#data domain
#LUT data points
DOMAIN_MIN 0.000000 0.000000 0.000000
DOMAIN_MAX 0.903226 0.903226 0.903226
0.000000 0.000000 0.000000
0.152802 0.000000 0.000000
0.288605 0.000000 0.000000
0.418640 0.000000 0.000000
0.545105 0.000000 0.000000
0.668945 0.000000 0.000000
0.790741 0.000000 0.000000
0.910858 0.000000 0.000000
0.000000 0.129028 0.000000
0.152802 0.129028 0.000000
0.288605 0.129028 0.000000
0.418640 0.129028 0.000000
0.545105 0.129028 0.000000
0.668945 0.129028 0.000000
0.790741 0.129028 0.000000
0.910858 0.129028 0.000000
0.000000 0.258057 0.000000
0.152802 0.258057 0.000000
0.288605 0.258057 0.000000
0.418640 0.258057 0.000000
0.545105 0.258057 0.000000
0.668945 0.258057 0.000000
0.790741 0.258057 0.000000
0.910858 0.258057 0.000000
0.000000 0.387085 0.000000
0.152802 0.387085 0.000000
0.288605 0.387085 0.000000
0.418640 0.387085 0.000000
0.545105 0.387085 0.000000
0.668945 0.387085 0.000000
0.790741 0.387085 0.000000
0.910858 0.387085 0.000000
0.000000 0.516144 0.000000
0.152802 0.516144 0.000000
0.288605 0.516144 0.000000
0.418640 0.516144 0.000000
0.545105 0.516144 0.000000
0.668945 0.516144 0.000000
0.790741 0.516144 0.000000
0.910858 0.516144 0.000000
0.000000 0.645172 0.000000
0.152802 0.645172 0.000000
0.288605 0.645172 0.000000
0.418640 0.645172 0.000000
0.545105 0.645172 0.000000
0.668945 0.645172 0.000000
0.790741 0.645172 0.000000
0.910858 0.645172 0.000000
0.000000 0.774200 0.000000
0.152802 0.774200 0.000000
0.288605 0.774200 0.000000
0.418640 0.774200 0.000000
0.545105 0.774200 0.000000
0.668945 0.774200 0.000000
0.790741 0.774200 0.000000
0.910858 0.774200 0.000000
0.000000 0.903229 0.000000
0.152802 0.903229 0.000000
0.288605 0.903229 0.000000
0.418640 0.903229 0.000000
0.545105 0.903229 0.000000
0.668945 0.903229 0.000000
0.790741 0.903229 0.000000
0.910858 0.903229 0.000000
0.000000 0.000000 0.108002
0.152802 0.000000 0.108002
0.288605 0.000000 0.108002
0.418640 0.000000 0.108002
0.545105 0.000000 0.108002
0.668945 0.000000 0.108002
0.790741 0.000000 0.108002
0.910858 0.000000 0.108002
0.000000 0.129028 0.108002
0.152802 0.129028 0.108002
0.288605 0.129028 0.108002
0.418640 0.129028 0.108002
0.545105 0.129028 0.108002
0.668945 0.129028 0.108002
0.790741 0.129028 0.108002
0.910858 0.129028 0.108002
0.000000 0.258057 0.108002
0.152802 0.258057 0.108002
0.288605 0.258057 0.108002
0.418640 0.258057 0.108002
0.545105 0.258057 0.108002
0.668945 0.258057 0.108002
0.790741 0.258057 0.108002
0.910858 0.258057 0.108002
0.000000 0.387085 0.108002
0.152802 0.387085 0.108002
0.288605 0.387085 0.108002
0.418640 0.387085 0.108002
0.545105 0.387085 0.108002
0.668945 0.387085 0.108002
0.790741 0.387085 0.108002
0.910858 0.387085 0.108002
0.000000 0.516144 0.108002
0.152802 0.516144 0.108002
0.288605 0.516144 0.108002
0.418640 0.516144 0.108002
0.545105 0.516144 0.108002
0.668945 0.516144 0.108002
0.790741 0.516144 0.108002
0.910858 0.516144 0.108002
0.000000 0.645172 0.108002
0.152802 0.645172 0.108002
0.288605 0.645172 0.108002
0.418640 0.645172 0.108002
0.545105 0.645172 0.108002
0.668945 0.645172 0.108002
0.790741 0.645172 0.108002
0.910858 0.645172 0.108002
0.000000 0.774200 0.108002
0.152802 0.774200 0.108002
0.288605 0.774200 0.108002
0.418640 0.774200 0.108002
0.545105 0.774200 0.108002
0.668945 0.774200 0.108002
0.790741 0.774200 0.108002
0.910858 0.774200 0.108002
0.000000 0.903229 0.108002
0.152802 0.903229 0.108002
0.288605 0.903229 0.108002
0.418640 0.903229 0.108002
0.545105 0.903229 0.108002
0.668945 0.903229 0.108002
0.790741 0.903229 0.108002
0.910858 0.903229 0.108002
0.000000 0.000000 0.229370
0.152802 0.000000 0.229370
0.288605 0.000000 0.229370
0.418640 0.000000 0.229370
0.545105 0.000000 0.229370
0.668945 0.000000 0.229370
0.790741 0.000000 0.229370
0.910858 0.000000 0.229370
0.000000 0.129028 0.229370
0.152802 0.129028 0.229370
0.288605 0.129028 0.229370
0.418640 0.129028 0.229370
0.545105 0.129028 0.229370
0.668945 0.129028 0.229370
0.790741 0.129028 0.229370
0.910858 0.129028 0.229370
0.000000 0.258057 0.229370
0.152802 0.258057 0.229370
0.288605 0.258057 0.229370
0.418640 0.258057 0.229370
0.545105 0.258057 0.229370
0.668945 0.258057 0.229370
0.790741 0.258057 0.229370
0.910858 0.258057 0.229370
0.000000 0.387085 0.229370
0.152802 0.387085 0.229370
0.288605 0.387085 0.229370
0.418640 0.387085 0.229370
0.545105 0.387085 0.229370
0.668945 0.387085 0.229370
0.790741 0.387085 0.229370
0.910858 0.387085 0.229370
0.000000 0.516144 0.229370
0.152802 0.516144 0.229370
0.288605 0.516144 0.229370
0.418640 0.516144 0.229370
0.545105 0.516144 0.229370
0.668945 0.516144 0.229370
0.790741 0.516144 0.229370
0.910858 0.516144 0.229370
0.000000 0.645172 0.229370
0.152802 0.645172 0.229370
0.288605 0.645172 0.229370
0.418640 0.645172 0.229370
0.545105 0.645172 0.229370
0.668945 0.645172 0.229370
0.790741 0.645172 0.229370
0.910858 0.645172 0.229370
0.000000 0.774200 0.229370
0.152802 0.774200 0.229370
0.288605 0.774200 0.229370
0.418640 0.774200 0.229370
0.545105 0.774200 0.229370
0.668945 0.774200 0.229370
0.790741 0.774200 0.229370
0.910858 0.774200 0.229370
0.000000 0.903229 0.229370
0.152802 0.903229 0.229370
0.288605 0.903229 0.229370
0.418640 0.903229 0.229370
0.545105 0.903229 0.229370
0.668945 0.903229 0.229370
0.790741 0.903229 0.229370
0.910858 0.903229 0.229370
0.000000 0.000000 0.356415
0.152802 0.000000 0.356415
0.288605 0.000000 0.356415
0.418640 0.000000 0.356415
0.545105 0.000000 0.356415
0.668945 0.000000 0.356415
0.790741 0.000000 0.356415
0.910858 0.000000 0.356415
0.000000 0.129028 0.356415
0.152802 0.129028 0.356415
0.288605 0.129028 0.356415
0.418640 0.129028 0.356415
0.545105 0.129028 0.356415
0.668945 0.129028 0.356415
0.790741 0.129028 0.356415
0.910858 0.129028 0.356415
0.000000 0.258057 0.356415
0.152802 0.258057 0.356415
0.288605 0.258057 0.356415
0.418640 0.258057 0.356415
0.545105 0.258057 0.356415
0.668945 0.258057 0.356415
0.790741 0.258057 0.356415
0.910858 0.258057 0.356415
0.000000 0.387085 0.356415
0.152802 0.387085 0.356415
0.288605 0.387085 0.356415
0.418640 0.387085 0.356415
0.545105 0.387085 0.356415
0.668945 0.387085 0.356415
0.790741 0.387085 0.356415
0.910858 0.387085 0.356415
0.000000 0.516144 0.356415
0.152802 0.516144 0.356415
0.288605 0.516144 0.356415
0.418640 0.516144 0.356415
0.545105 0.516144 0.356415
0.668945 0.516144 0.356415
0.790741 0.516144 0.356415
0.910858 0.516144 0.356415
0.000000 0.645172 0.356415
0.152802 0.645172 0.356415
0.288605 0.645172 0.356415
0.418640 0.645172 0.356415
0.545105 0.645172 0.356415
0.668945 0.645172 0.356415
0.790741 0.645172 0.356415
0.910858 0.645172 0.356415
0.000000 0.774200 0.356415
0.152802 0.774200 0.356415
0.288605 0.774200 0.356415
0.418640 0.774200 0.356415
0.545105 0.774200 0.356415
0.668945 0.774200 0.356415
0.790741 0.774200 0.356415
0.910858 0.774200 0.356415
0.000000 0.903229 0.356415
0.152802 0.903229 0.356415
0.288605 0.903229 0.356415
0.418640 0.903229 0.356415
0.545105 0.903229 0.356415
0.668945 0.903229 0.356415
0.790741 0.903229 0.356415
0.910858 0.903229 0.356415
0.000000 0.000000 0.487305
0.152802 0.000000 0.487305
0.288605 0.000000 0.487305
0.418640 0.000000 0.487305
0.545105 0.000000 0.487305
0.668945 0.000000 0.487305
0.790741 0.000000 0.487305
0.910858 0.000000 0.487305
0.000000 0.129028 0.487305
0.152802 0.129028 0.487305
0.288605 0.129028 0.487305
0.418640 0.129028 0.487305
0.545105 0.129028 0.487305
0.668945 0.129028 0.487305
0.790741 0.129028 0.487305
0.910858 0.129028 0.487305
0.000000 0.258057 0.487305
0.152802 0.258057 0.487305
0.288605 0.258057 0.487305
0.418640 0.258057 0.487305
0.545105 0.258057 0.487305
0.668945 0.258057 0.487305
0.790741 0.258057 0.487305
0.910858 0.258057 0.487305
0.000000 0.387085 0.487305
0.152802 0.387085 0.487305
0.288605 0.387085 0.487305
0.418640 0.387085 0.487305
0.545105 0.387085 0.487305
0.668945 0.387085 0.487305
0.790741 0.387085 0.487305
0.910858 0.387085 0.487305
0.000000 0.516144 0.487305
0.152802 0.516144 0.487305
0.288605 0.516144 0.487305
0.418640 0.516144 0.487305
0.545105 0.516144 0.487305
0.668945 0.516144 0.487305
0.790741 0.516144 0.487305
0.910858 0.516144 0.487305
0.000000 0.645172 0.487305
0.152802 0.645172 0.487305
0.288605 0.645172 0.487305
0.418640 0.645172 0.487305
0.545105 0.645172 0.487305
0.668945 0.645172 0.487305
0.790741 0.645172 0.487305
0.910858 0.645172 0.487305
0.000000 0.774200 0.487305
0.152802 0.774200 0.487305
0.288605 0.774200 0.487305
0.418640 0.774200 0.487305
0.545105 0.774200 0.487305
0.668945 0.774200 0.487305
0.790741 0.774200 0.487305
0.910858 0.774200 0.487305
0.000000 0.903229 0.487305
0.152802 0.903229 0.487305
0.288605 0.903229 0.487305
0.418640 0.903229 0.487305
0.545105 0.903229 0.487305
0.668945 0.903229 0.487305
0.790741 0.903229 0.487305
0.910858 0.903229 0.487305
0.000000 0.000000 0.621063
0.152802 0.000000 0.621063
0.288605 0.000000 0.621063
0.418640 0.000000 0.621063
0.545105 0.000000 0.621063
0.668945 0.000000 0.621063
0.790741 0.000000 0.621063
0.910858 0.000000 0.621063
0.000000 0.129028 0.621063
0.152802 0.129028 0.621063
0.288605 0.129028 0.621063
0.418640 0.129028 0.621063
0.545105 0.129028 0.621063
0.668945 0.129028 0.621063
0.790741 0.129028 0.621063
0.910858 0.129028 0.621063
0.000000 0.258057 0.621063
0.152802 0.258057 0.621063
0.288605 0.258057 0.621063
0.418640 0.258057 0.621063
0.545105 0.258057 0.621063
0.668945 0.258057 0.621063
0.790741 0.258057 0.621063
0.910858 0.258057 0.621063
0.000000 0.387085 0.621063
0.152802 0.387085 0.621063
0.288605 0.387085 0.621063
0.418640 0.387085 0.621063
0.545105 0.387085 0.621063
0.668945 0.387085 0.621063
0.790741 0.387085 0.621063
0.910858 0.387085 0.621063
0.000000 0.516144 0.621063
0.152802 0.516144 0.621063
0.288605 0.516144 0.621063
0.418640 0.516144 0.621063
0.545105 0.516144 0.621063
0.668945 0.516144 0.621063
0.790741 0.516144 0.621063
0.910858 0.516144 0.621063
0.000000 0.645172 0.621063
0.152802 0.645172 0.621063
0.288605 0.645172 0.621063
0.418640 0.645172 0.621063
0.545105 0.645172 0.621063
0.668945 0.645172 0.621063
0.790741 0.645172 0.621063
0.910858 0.645172 0.621063
0.000000 0.774200 0.621063
0.152802 0.774200 0.621063
0.288605 0.774200 0.621063
0.418640 0.774200 0.621063
0.545105 0.774200 0.621063
0.668945 0.774200 0.621063
0.790741 0.774200 0.621063
0.910858 0.774200 0.621063
0.000000 0.903229 0.621063
0.152802 0.903229 0.621063
0.288605 0.903229 0.621063
0.418640 0.903229 0.621063
0.545105 0.903229 0.621063
0.668945 0.903229 0.621063
0.790741 0.903229 0.621063
0.910858 0.903229 0.621063
0.000000 0.000000 0.757172
0.152802 0.000000 0.757172
0.288605 0.000000 0.757172
0.418640 0.000000 0.757172
0.545105 0.000000 0.757172
0.668945 0.000000 0.757172
0.790741 0.000000 0.757172
0.910858 0.000000 0.757172
0.000000 0.129028 0.757172
0.152802 0.129028 0.757172
0.288605 0.129028 0.757172
0.418640 0.129028 0.757172
0.545105 0.129028 0.757172
0.668945 0.129028 0.757172
0.790741 0.129028 0.757172
0.910858 0.129028 0.757172
0.000000 0.258057 0.757172
0.152802 0.258057 0.757172
0.288605 0.258057 0.757172
0.418640 0.258057 0.757172
0.545105 0.258057 0.757172
0.668945 0.258057 0.757172
0.790741 0.258057 0.757172
0.910858 0.258057 0.757172
0.000000 0.387085 0.757172
0.152802 0.387085 0.757172
0.288605 0.387085 0.757172
0.418640 0.387085 0.757172
0.545105 0.387085 0.757172
0.668945 0.387085 0.757172
0.790741 0.387085 0.757172
0.910858 0.387085 0.757172
0.000000 0.516144 0.757172
0.152802 0.516144 0.757172
0.288605 0.516144 0.757172
0.418640 0.516144 0.757172
0.545105 0.516144 0.757172
0.668945 0.516144 0.757172
0.790741 0.516144 0.757172
0.910858 0.516144 0.757172
0.000000 0.645172 0.757172
0.152802 0.645172 0.757172
0.288605 0.645172 0.757172
0.418640 0.645172 0.757172
0.545105 0.645172 0.757172
0.668945 0.645172 0.757172
0.790741 0.645172 0.757172
0.910858 0.645172 0.757172
0.000000 0.774200 0.757172
0.152802 0.774200 0.757172
0.288605 0.774200 0.757172
0.418640 0.774200 0.757172
0.545105 0.774200 0.757172
0.668945 0.774200 0.757172
0.790741 0.774200 0.757172
0.910858 0.774200 0.757172
0.000000 0.903229 0.757172
0.152802 0.903229 0.757172
0.288605 0.903229 0.757172
0.418640 0.903229 0.757172
0.545105 0.903229 0.757172
0.668945 0.903229 0.757172
0.790741 0.903229 0.757172
0.910858 0.903229 0.757172
0.000000 0.000000 0.895264
0.152802 0.000000 0.895264
0.288605 0.000000 0.895264
0.418640 0.000000 0.895264
0.545105 0.000000 0.895264
0.668945 0.000000 0.895264
0.790741 0.000000 0.895264
0.910858 0.000000 0.895264
0.000000 0.129028 0.895264
0.152802 0.129028 0.895264
0.288605 0.129028 0.895264
0.418640 0.129028 0.895264
0.545105 0.129028 0.895264
0.668945 0.129028 0.895264
0.790741 0.129028 0.895264
0.910858 0.129028 0.895264
0.000000 0.258057 0.895264
0.152802 0.258057 0.895264
0.288605 0.258057 0.895264
0.418640 0.258057 0.895264
0.545105 0.258057 0.895264
0.668945 0.258057 0.895264
0.790741 0.258057 0.895264
0.910858 0.258057 0.895264
0.000000 0.387085 0.895264
0.152802 0.387085 0.895264
0.288605 0.387085 0.895264
0.418640 0.387085 0.895264
0.545105 0.387085 0.895264
0.668945 0.387085 0.895264
0.790741 0.387085 0.895264
0.910858 0.387085 0.895264
0.000000 0.516144 0.895264
0.152802 0.516144 0.895264
0.288605 0.516144 0.895264
0.418640 0.516144 0.895264
0.545105 0.516144 0.895264
0.668945 0.516144 0.895264
0.790741 0.516144 0.895264
0.910858 0.516144 0.895264
0.000000 0.645172 0.895264
0.152802 0.645172 0.895264
0.288605 0.645172 0.895264
0.418640 0.645172 0.895264
0.545105 0.645172 0.895264
0.668945 0.645172 0.895264
0.790741 0.645172 0.895264
0.910858 0.645172 0.895264
0.000000 0.774200 0.895264
0.152802 0.774200 0.895264
0.288605 0.774200 0.895264
0.418640 0.774200 0.895264
0.545105 0.774200 0.895264
0.668945 0.774200 0.895264
0.790741 0.774200 0.895264
0.910858 0.774200 0.895264
0.000000 0.903229 0.895264
0.152802 0.903229 0.895264
0.288605 0.903229 0.895264
0.418640 0.903229 0.895264
0.545105 0.903229 0.895264
0.668945 0.903229 0.895264
0.790741 0.903229 0.895264
0.910858 0.903229 0.895264
