public/luts/GettyImages_615332840.CUBE
#Created by: Adobe Photoshop Export Color Lookup Plugin
TITLE "GettyImages_615332840.psd"
#LUT size
LUT_3D_SIZE 32
#data domain
DOMAIN_MIN 0.0 0.0 0.0
DOMAIN_MAX 1.0 1.0 1.0
#LUT data points
0.000000 0.000000 0.000000
0.042816 0.000000 0.000000
0.080902 0.000000 0.000000
0.117340 0.000000 0.000000
0.152802 0.000000 0.000000
0.187531 0.000000 0.000000
0.221649 0.000000 0.000000
0.255310 0.000000 0.000000
0.288605 0.000000 0.000000
0.321533 0.000000 0.000000
0.354156 0.000000 0.000000
0.386505 0.000000 0.000000
0.418640 0.000000 0.000000
0.450531 0.000000 0.000000
0.482239 0.000000 0.000000
0.513733 0.000000 0.000000
0.545105 0.000000 0.000000
0.576294 0.000000 0.000000
0.607330 0.000000 0.000000
0.638214 0.000000 0.000000
0.668945 0.000000 0.000000
0.699554 0.000000 0.000000
0.730072 0.000000 0.000000
0.760468 0.000000 0.000000
0.790741 0.000000 0.000000
0.820923 0.000000 0.000000
0.850983 0.000000 0.000000
0.880981 0.000000 0.000000
0.910858 0.000000 0.000000
0.940643 0.000000 0.000000
0.970367 0.000000 0.000000
1.000000 0.000000 0.000000
0.000000 0.032257 0.000000
0.042816 0.032257 0.000000
0.080902 0.032257 0.000000
0.117340 0.032257 0.000000
0.152802 0.032257 0.000000
0.187531 0.032257 0.000000
0.221649 0.032257 0.000000
0.255310 0.032257 0.000000
0.288605 0.032257 0.000000
0.321533 0.032257 0.000000
0.354156 0.032257 0.000000
0.386505 0.032257 0.000000
0.418640 0.032257 0.000000
0.450531 0.032257 0.000000
0.482239 0.032257 0.000000
0.513733 0.032257 0.000000
0.545105 0.032257 0.000000
0.576294 0.032257 0.000000
0.607330 0.032257 0.000000
0.638214 0.032257 0.000000
0.668945 0.032257 0.000000
0.699554 0.032257 0.000000
0.730072 0.032257 0.000000
0.760468 0.032257 0.000000
0.790741 0.032257 0.000000
0.820923 0.032257 0.000000
0.850983 0.032257 0.000000
0.880981 0.032257 0.000000
0.910858 0.032257 0.000000
0.940643 0.032257 0.000000
0.970367 0.032257 0.000000
1.000000 0.032257 0.000000
0.000000 0.064514 0.000000
0.042816 0.064514 0.000000
0.080902 0.064514 0.000000
0.117340 0.064514 0.000000
0.152802 0.064514 0.000000
0.187531 0.064514 0.000000
0.221649 0.064514 0.000000
0.255310 0.064514 0.000000
0.288605 0.064514 0.000000
0.321533 0.064514 0.000000
0.354156 0.064514 0.000000
0.386505 0.064514 0.000000
0.418640 0.064514 0.000000
0.450531 0.064514 0.000000
0.482239 0.064514 0.000000
0.513733 0.064514 0.000000
0.545105 0.064514 0.000000
0.576294 0.064514 0.000000
0.607330 0.064514 0.000000
0.638214 0.064514 0.000000
0.668945 0.064514 0.000000
0.699554 0.064514 0.000000
0.730072 0.064514 0.000000
0.760468 0.064514 0.000000
0.790741 0.064514 0.000000
0.820923 0.064514 0.000000
0.850983 0.064514 0.000000
0.880981 0.064514 0.000000
0.910858 0.064514 0.000000
0.940643 0.064514 0.000000
0.970367 0.064514 0.000000
1.000000 0.064514 0.000000
0.000000 0.096771 0.000000
0.042816 0.096771 0.000000
0.080902 0.096771 0.000000
0.117340 0.096771 0.000000
0.152802 0.096771 0.000000
0.187531 0.096771 0.000000
0.221649 0.096771 0.000000
0.255310 0.096771 0.000000
0.288605 0.096771 0.000000
0.321533 0.096771 0.000000
0.354156 0.096771 0.000000
0.386505 0.096771 0.000000
0.418640 0.096771 0.000000
0.450531 0.096771 0.000000
0.482239 0.096771 0.000000
0.513733 0.096771 0.000000
0.545105 0.096771 0.000000
0.576294 0.096771 0.000000
0.607330 0.096771 0.000000
0.638214 0.096771 0.000000
0.668945 0.096771 0.000000
0.699554 0.096771 0.000000
0.730072 0.096771 0.000000
0.760468 0.096771 0.000000
0.790741 0.096771 0.000000
0.820923 0.096771 0.000000
0.850983 0.096771 0.000000
0.880981 0.096771 0.000000
0.910858 0.096771 0.000000
0.940643 0.096771 0.000000
0.970367 0.096771 0.000000
1.000000 0.096771 0.000000
0.000000 0.129028 0.000000
0.042816 0.129028 0.000000
0.080902 0.129028 0.000000
0.117340 0.129028 0.000000
0.152802 0.129028 0.000000
0.187531 0.129028 0.000000
0.221649 0.129028 0.000000
0.255310 0.129028 0.000000
0.288605 0.129028 0.000000
0.321533 0.129028 0.000000
0.354156 0.129028 0.000000
0.386505 0.129028 0.000000
0.418640 0.129028 0.000000
0.450531 0.129028 0.000000
0.482239 0.129028 0.000000
0.513733 0.129028 0.000000
0.545105 0.129028 0.000000
0.576294 0.129028 0.000000
0.607330 0.129028 0.000000
0.638214 0.129028 0.000000
0.668945 0.129028 0.000000
0.699554 0.129028 0.000000
0.730072 0.129028 0.000000
0.760468 0.129028 0.000000
0.790741 0.129028 0.000000
0.820923 0.129028 0.000000
0.850983 0.129028 0.000000
0.880981 0.129028 0.000000
0.910858 0.129028 0.000000
0.940643 0.129028 0.000000
0.970367 0.129028 0.000000
1.000000 0.129028 0.000000
0.000000 0.161285 0.000000
0.042816 0.161285 0.000000
0.080902 0.161285 0.000000
0.117340 0.161285 0.000000
0.152802 0.161285 0.000000
0.187531 0.161285 0.000000
0.221649 0.161285 0.000000
0.255310 0.161285 0.000000
0.288605 0.161285 0.000000
0.321533 0.161285 0.000000
0.354156 0.161285 0.000000
0.386505 0.161285 0.000000
0.418640 0.161285 0.000000
0.450531 0.161285 0.000000
0.482239 0.161285 0.000000
0.513733 0.161285 0.000000
0.545105 0.161285 0.000000
0.576294 0.161285 0.000000
0.607330 0.161285 0.000000
0.638214 0.161285 0.000000
0.668945 0.161285 0.000000
0.699554 0.161285 0.000000
0.730072 0.161285 0.000000
0.760468 0.161285 0.000000
0.790741 0.161285 0.000000
0.820923 0.161285 0.000000
0.850983 0.161285 0.000000
0.880981 0.161285 0.000000
0.910858 0.161285 0.000000
0.940643 0.161285 0.000000
0.970367 0.161285 0.000000
1.000000 0.161285 0.000000
0.000000 0.193542 0.000000
0.042816 0.193542 0.000000
0.080902 0.193542 0.000000
0.117340 0.193542 0.000000
0.152802 0.193542 0.000000
0.187531 0.193542 0.000000
0.221649 0.193542 0.000000
0.255310 0.193542 0.000000
0.288605 0.193542 0.000000
0.321533 0.193542 0.000000
0.354156 0.193542 0.000000
0.386505 0.193542 0.000000
0.418640 0.193542 0.000000
0.450531 0.193542 0.000000
0.482239 0.193542 0.000000
0.513733 0.193542 0.000000
0.545105 0.193542 0.000000
0.576294 0.193542 0.000000
0.607330 0.193542 0.000000
0.638214 0.193542 0.000000
0.668945 0.193542 0.000000
0.699554 0.193542 0.000000
0.730072 0.193542 0.000000
0.760468 0.193542 0.000000
0.790741 0.193542 0.000000
0.820923 0.193542 0.000000
0.850983 0.193542 0.000000
0.880981 0.193542 0.000000
0.910858 0.193542 0.000000
0.940643 0.193542 0.000000
0.970367 0.193542 0.000000
1.000000 0.193542 0.000000
0.000000 0.225800 0.000000
0.042816 0.225800 0.000000
0.080902 0.225800 0.000000
0.117340 0.225800 0.000000
0.152802 0.225800 0.000000
0.187531 0.225800 0.000000
0.221649 0.225800 0.000000
0.255310 0.225800 0.000000
0.288605 0.225800 0.000000
0.321533 0.225800 0.000000
0.354156 0.225800 0.000000
0.386505 0.225800 0.000000
0.418640 0.225800 0.000000
0.450531 0.225800 0.000000
0.482239 0.225800 0.000000
0.513733 0.225800 0.000000
0.545105 0.225800 0.000000
0.576294 0.225800 0.000000
0.607330 0.225800 0.000000
0.638214 0.225800 0.000000
0.668945 0.225800 0.000000
0.699554 0.225800 0.000000
0.730072 0.225800 0.000000
0.760468 0.225800 0.000000
0.790741 0.225800 0.000000
0.820923 0.225800 0.000000
0.850983 0.225800 0.000000
0.880981 0.225800 0.000000
0.910858 0.225800 0.000000
0.940643 0.225800 0.000000
0.970367 0.225800 0.000000
1.000000 0.225800 0.000000
0.000000 0.258057 0.000000
0.042816 0.258057 0.000000
0.080902 0.258057 0.000000
0.117340 0.258057 0.000000
0.152802 0.258057 0.000000
0.187531 0.258057 0.000000
0.221649 0.258057 0.000000
0.255310 0.258057 0.000000
0.288605 0.258057 0.000000
0.321533 0.258057 0.000000
0.354156 0.258057 0.000000
0.386505 0.258057 0.000000
0.418640 0.258057 0.000000
0.450531 0.258057 0.000000
0.482239 0.258057 0.000000
0.513733 0.258057 0.000000
0.545105 0.258057 0.000000
0.576294 0.258057 0.000000
0.607330 0.258057 0.000000
0.638214 0.258057 0.000000
0.668945 0.258057 0.000000
0.699554 0.258057 0.000000
0.730072 0.258057 0.000000
0.760468 0.258057 0.000000
0.790741 0.258057 0.000000
0.820923 0.258057 0.000000
0.850983 0.258057 0.000000
0.880981 0.258057 0.000000
0.910858 0.258057 0.000000
0.940643 0.258057 0.000000
0.970367 0.258057 0.000000
1.000000 0.258057 0.000000
0.000000 0.290314 0.000000
0.042816 0.290314 0.000000
0.080902 0.290314 0.000000
0.117340 0.290314 0.000000
0.152802 0.290314 0.000000
0.187531 0.290314 0.000000
0.221649 0.290314 0.000000
0.255310 0.290314 0.000000
0.288605 0.290314 0.000000
0.321533 0.290314 0.000000
0.354156 0.290314 0.000000
0.386505 0.290314 0.000000
0.418640 0.290314 0.000000
0.450531 0.290314 0.000000
0.482239 0.290314 0.000000
0.513733 0.290314 0.000000
0.545105 0.290314 0.000000
0.576294 0.290314 0.000000
0.607330 0.290314 0.000000
0.638214 0.290314 0.000000
0.668945 0.290314 0.000000
0.699554 0.290314 0.000000
0.730072 0.290314 0.000000
0.760468 0.290314 0.000000
0.790741 0.290314 0.000000
0.820923 0.290314 0.000000
0.850983 0.290314 0.000000
0.880981 0.290314 0.000000
0.910858 0.290314 0.000000
0.940643 0.290314 0.000000
0.970367 0.290314 0.000000
1.000000 0.290314 0.000000
0.000000 0.322571 0.000000
0.042816 0.322571 0.000000
0.080902 0.322571 0.000000
0.117340 0.322571 0.000000
0.152802 0.322571 0.000000
0.187531 0.322571 0.000000
0.221649 0.322571 0.000000
0.255310 0.322571 0.000000
0.288605 0.322571 0.000000
0.321533 0.322571 0.000000
0.354156 0.322571 0.000000
0.386505 0.322571 0.000000
0.418640 0.322571 0.000000
0.450531 0.322571 0.000000
0.482239 0.322571 0.000000
0.513733 0.322571 0.000000
0.545105 0.322571 0.000000
0.576294 0.322571 0.000000
0.607330 0.322571 0.000000
0.638214 0.322571 0.000000
0.668945 0.322571 0.000000
0.699554 0.322571 0.000000
0.730072 0.322571 0.000000
0.760468 0.322571 0.000000
0.790741 0.322571 0.000000
0.820923 0.322571 0.000000
0.850983 0.322571 0.000000
0.880981 0.322571 0.000000
0.910858 0.322571 0.000000
0.940643 0.322571 0.000000
0.970367 0.322571 0.000000
1.000000 0.322571 0.000000
0.000000 0.354828 0.000000
0.042816 0.354828 0.000000
0.080902 0.354828 0.000000
0.117340 0.354828 0.000000
0.152802 0.354828 0.000000
0.187531 0.354828 0.000000
0.221649 0.354828 0.000000
0.255310 0.354828 0.000000
0.288605 0.354828 0.000000
0.321533 0.354828 0.000000
0.354156 0.354828 0.000000
0.386505 0.354828 0.000000
0.418640 0.354828 0.000000
0.450531 0.354828 0.000000
0.482239 0.354828 0.000000
0.513733 0.354828 0.000000
0.545105 0.354828 0.000000
0.576294 0.354828 0.000000
0.607330 0.354828 0.000000
0.638214 0.354828 0.000000
0.668945 0.354828 0.000000
0.699554 0.354828 0.000000
0.730072 0.354828 0.000000
0.760468 0.354828 0.000000
0.790741 0.354828 0.000000
0.820923 0.354828 0.000000
0.850983 0.354828 0.000000
0.880981 0.354828 0.000000
0.910858 0.354828 0.000000
0.940643 0.354828 0.000000
0.970367 0.354828 0.000000
1.000000 0.354828 0.000000
0.000000 0.387085 0.000000
0.042816 0.387085 0.000000
0.080902 0.387085 0.000000
0.117340 0.387085 0.000000
0.152802 0.387085 0.000000
0.187531 0.387085 0.000000
0.221649 0.387085 0.000000
0.255310 0.387085 0.000000
0.288605 0.387085 0.000000
0.321533 0.387085 0.000000
0.354156 0.387085 0.000000
0.386505 0.387085 0.000000
0.418640 0.387085 0.000000
0.450531 0.387085 0.000000
0.482239 0.387085 0.000000
0.513733 0.387085 0.000000
0.545105 0.387085 0.000000
0.576294 0.387085 0.000000
0.607330 0.387085 0.000000
0.638214 0.387085 0.000000
0.668945 0.387085 0.000000
0.699554 0.387085 0.000000
0.730072 0.387085 0.000000
0.760468 0.387085 0.000000
0.790741 0.387085 0.000000
0.820923 0.387085 0.000000
0.850983 0.387085 0.000000
0.880981 0.387085 0.000000
0.910858 0.387085 0.000000
0.940643 0.387085 0.000000
0.970367 0.387085 0.000000
1.000000 0.387085 0.000000
0.000000 0.419342 0.000000
0.042816 0.419342 0.000000
0.080902 0.419342 0.000000
0.117340 0.419342 0.000000
0.152802 0.419342 0.000000
0.187531 0.419342 0.000000
0.221649 0.419342 0.000000
0.255310 0.419342 0.000000
0.288605 0.419342 0.000000
0.321533 0.419342 0.000000
0.354156 0.419342 0.000000
0.386505 0.419342 0.000000
0.418640 0.419342 0.000000
0.450531 0.419342 0.000000
0.482239 0.419342 0.000000
0.513733 0.419342 0.000000
0.545105 0.419342 0.000000
0.576294 0.419342 0.000000
0.607330 0.419342 0.000000
0.638214 0.419342 0.000000
0.668945 0.419342 0.000000
0.699554 0.419342 0.000000
0.730072 0.419342 0.000000
0.760468 0.419342 0.000000
0.790741 0.419342 0.000000
0.820923 0.419342 0.000000
0.850983 0.419342 0.000000
0.880981 0.419342 0.000000
0.910858 0.419342 0.000000
0.940643 0.419342 0.000000
0.970367 0.419342 0.000000
1.000000 0.419342 0.000000
0.000000 0.451599 0.000000
0.042816 0.451599 0.000000
0.080902 0.451599 0.000000
0.117340 0.451599 0.000000
0.152802 0.451599 0.000000
0.187531 0.451599 0.000000
0.221649 0.451599 0.000000
0.255310 0.451599 0.000000
0.288605 0.451599 0.000000
0.321533 0.451599 0.000000
0.354156 0.451599 0.000000
0.386505 0.451599 0.000000
0.418640 0.451599 0.000000
0.450531 0.451599 0.000000
0.482239 0.451599 0.000000
0.513733 0.451599 0.000000
0.545105 0.451599 0.000000
0.576294 0.451599 0.000000
0.607330 0.451599 0.000000
0.638214 0.451599 0.000000
0.668945 0.451599 0.000000
0.699554 0.451599 0.000000
0.730072 0.451599 0.000000
0.760468 0.451599 0.000000
0.790741 0.451599 0.000000
0.820923 0.451599 0.000000
0.850983 0.451599 0.000000
0.880981 0.451599 0.000000
0.910858 0.451599 0.000000
0.940643 0.451599 0.000000
0.970367 0.451599 0.000000
1.000000 0.451599 0.000000
0.000000 0.483856 0.000000
0.042816 0.483856 0.000000
0.080902 0.483856 0.000000
0.117340 0.483856 0.000000
0.152802 0.483856 0.000000
0.187531 0.483856 0.000000
0.221649 0.483856 0.000000
0.255310 0.483856 0.000000
0.288605 0.483856 0.000000
0.321533 0.483856 0.000000
0.354156 0.483856 0.000000
0.386505 0.483856 0.000000
0.418640 0.483856 0.000000
0.450531 0.483856 0.000000
0.482239 0.483856 0.000000
0.513733 0.483856 0.000000
0.545105 0.483856 0.000000
0.576294 0.483856 0.000000
0.607330 0.483856 0.000000
0.638214 0.483856 0.000000
0.668945 0.483856 0.000000
0.699554 0.483856 0.000000
0.730072 0.483856 0.000000
0.760468 0.483856 0.000000
0.790741 0.483856 0.000000
0.820923 0.483856 0.000000
0.850983 0.483856 0.000000
0.880981 0.483856 0.000000
0.910858 0.483856 0.000000
0.940643 0.483856 0.000000
0.970367 0.483856 0.000000
1.000000 0.483856 0.000000
0.000000 0.516144 0.000000
0.042816 0.516144 0.000000
0.080902 0.516144 0.000000
0.117340 0.516144 0.000000
0.152802 0.516144 0.000000
0.187531 0.516144 0.000000
0.221649 0.516144 0.000000
0.255310 0.516144 0.000000
0.288605 0.516144 0.000000
0.321533 0.516144 0.000000
0.354156 0.516144 0.000000
0.386505 0.516144 0.000000
0.418640 0.516144 0.000000
0.450531 0.516144 0.000000
0.482239 0.516144 0.000000
0.513733 0.516144 0.000000
0.545105 0.516144 0.000000
0.576294 0.516144 0.000000
0.607330 0.516144 0.000000
0.638214 0.516144 0.000000
0.668945 0.516144 0.000000
0.699554 0.516144 0.000000
0.730072 0.516144 0.000000
0.760468 0.516144 0.000000
0.790741 0.516144 0.000000
0.820923 0.516144 0.000000
0.850983 0.516144 0.000000
0.880981 0.516144 0.000000
0.910858 0.516144 0.000000
0.940643 0.516144 0.000000
0.970367 0.516144 0.000000
1.000000 0.516144 0.000000
0.000000 0.548401 0.000000
0.042816 0.548401 0.000000
0.080902 0.548401 0.000000
0.117340 0.548401 0.000000
0.152802 0.548401 0.000000
0.187531 0.548401 0.000000
0.221649 0.548401 0.000000
0.255310 0.548401 0.000000
0.288605 0.548401 0.000000
0.321533 0.548401 0.000000
0.354156 0.548401 0.000000
0.386505 0.548401 0.000000
0.418640 0.548401 0.000000
0.450531 0.548401 0.000000
0.482239 0.548401 0.000000
0.513733 0.548401 0.000000
0.545105 0.548401 0.000000
0.576294 0.548401 0.000000
0.607330 0.548401 0.000000
0.638214 0.548401 0.000000
0.668945 0.548401 0.000000
0.699554 0.548401 0.000000
0.730072 0.548401 0.000000
0.760468 0.548401 0.000000
0.790741 0.548401 0.000000
0.820923 0.548401 0.000000
0.850983 0.548401 0.000000
0.880981 0.548401 0.000000
0.910858 0.548401 0.000000
0.940643 0.548401 0.000000
0.970367 0.548401 0.000000
1.000000 0.548401 0.000000
0.000000 0.580658 0.000000
0.042816 0.580658 0.000000
0.080902 0.580658 0.000000
0.117340 0.580658 0.000000
0.152802 0.580658 0.000000
0.187531 0.580658 0.000000
0.221649 0.580658 0.000000
0.255310 0.580658 0.000000
0.288605 0.580658 0.000000
0.321533 0.580658 0.000000
0.354156 0.580658 0.000000
0.386505 0.580658 0.000000
0.418640 0.580658 0.000000
0.450531 0.580658 0.000000
0.482239 0.580658 0.000000
0.513733 0.580658 0.000000
0.545105 0.580658 0.000000
0.576294 0.580658 0.000000
0.607330 0.580658 0.000000
0.638214 0.580658 0.000000
0.668945 0.580658 0.000000
0.699554 0.580658 0.000000
0.730072 0.580658 0.000000
0.760468 0.580658 0.000000
0.790741 0.580658 0.000000
0.820923 0.580658 0.000000
0.850983 0.580658 0.000000
0.880981 0.580658 0.000000
0.910858 0.580658 0.000000
0.940643 0.580658 0.000000
0.970367 0.580658 0.000000
1.000000 0.580658 0.000000
0.000000 0.612915 0.000000
0.042816 0.612915 0.000000
0.080902 0.612915 0.000000
0.117340 0.612915 0.000000
0.152802 0.612915 0.000000
0.187531 0.612915 0.000000
0.221649 0.612915 0.000000
0.255310 0.612915 0.000000
0.288605 0.612915 0.000000
0.321533 0.612915 0.000000
0.354156 0.612915 0.000000
0.386505 0.612915 0.000000
0.418640 0.612915 0.000000
0.450531 0.612915 0.000000
0.482239 0.612915 0.000000
0.513733 0.612915 0.000000
0.545105 0.612915 0.000000
0.576294 0.612915 0.000000
0.607330 0.612915 0.000000
0.638214 0.612915 0.000000
0.668945 0.612915 0.000000
0.699554 0.612915 0.000000
0.730072 0.612915 0.000000
0.760468 0.612915 0.000000
0.790741 0.612915 0.000000
0.820923 0.612915 0.000000
0.850983 0.612915 0.000000
0.880981 0.612915 0.000000
0.910858 0.612915 0.000000
0.940643 0.612915 0.000000
0.970367 0.612915 0.000000
1.000000 0.612915 0.000000
0.000000 0.645172 0.000000
0.042816 0.645172 0.000000
0.080902 0.645172 0.000000
0.117340 0.645172 0.000000
0.152802 0.645172 0.000000
0.187531 0.645172 0.000000
0.221649 0.645172 0.000000
0.255310 0.645172 0.000000
0.288605 0.645172 0.000000
0.321533 0.645172 0.000000
0.354156 0.645172 0.000000
0.386505 0.645172 0.000000
0.418640 0.645172 0.000000
0.450531 0.645172 0.000000
0.482239 0.645172 0.000000
0.513733 0.645172 0.000000
0.545105 0.645172 0.000000
0.576294 0.645172 0.000000
0.607330 0.645172 0.000000
0.638214 0.645172 0.000000
0.668945 0.645172 0.000000
0.699554 0.645172 0.000000
0.730072 0.645172 0.000000
0.760468 0.645172 0.000000
0.790741 0.645172 0.000000
0.820923 0.645172 0.000000
0.850983 0.645172 0.000000
0.880981 0.645172 0.000000
0.910858 0.645172 0.000000
0.940643 0.645172 0.000000
0.970367 0.645172 0.000000
1.000000 0.645172 0.000000
0.000000 0.677429 0.000000
0.042816 0.677429 0.000000
0.080902 0.677429 0.000000
0.117340 0.677429 0.000000
0.152802 0.677429 0.000000
0.187531 0.677429 0.000000
0.221649 0.677429 0.000000
0.255310 0.677429 0.000000
0.288605 0.677429 0.000000
0.321533 0.677429 0.000000
0.354156 0.677429 0.000000
0.386505 0.677429 0.000000
0.418640 0.677429 0.000000
0.450531 0.677429 0.000000
0.482239 0.677429 0.000000
0.513733 0.677429 0.000000
0.545105 0.677429 0.000000
0.576294 0.677429 0.000000
0.607330 0.677429 0.000000
0.638214 0.677429 0.000000
0.668945 0.677429 0.000000
0.699554 0.677429 0.000000
0.730072 0.677429 0.000000
0.760468 0.677429 0.000000
0.790741 0.677429 0.000000
0.820923 0.677429 0.000000
0.850983 0.677429 0.000000
0.880981 0.677429 0.000000
0.910858 0.677429 0.000000
0.940643 0.677429 0.000000
0.970367 0.677429 0.000000
1.000000 0.677429 0.000000
0.000000 0.709686 0.000000
0.042816 0.709686 0.000000
0.080902 0.709686 0.000000
0.117340 0.709686 0.000000
0.152802 0.709686 0.000000
0.187531 0.709686 0.000000
0.221649 0.709686 0.000000
0.255310 0.709686 0.000000
0.288605 0.709686 0.000000
0.321533 0.709686 0.000000
0.354156 0.709686 0.000000
0.386505 0.709686 0.000000
0.418640 0.709686 0.000000
0.450531 0.709686 0.000000
0.482239 0.709686 0.000000
0.513733 0.709686 0.000000
0.545105 0.709686 0.000000
0.576294 0.709686 0.000000
0.607330 0.709686 0.000000
0.638214 0.709686 0.000000
0.668945 0.709686 0.000000
0.699554 0.709686 0.000000
0.730072 0.709686 0.000000
0.760468 0.709686 0.000000
0.790741 0.709686 0.000000
0.820923 0.709686 0.000000
0.850983 0.709686 0.000000
0.880981 0.709686 0.000000
0.910858 0.709686 0.000000
0.940643 0.709686 0.000000
0.970367 0.709686 0.000000
1.000000 0.709686 0.000000
0.000000 0.741943 0.000000
0.042816 0.741943 0.000000
0.080902 0.741943 0.000000
0.117340 0.741943 0.000000
0.152802 0.741943 0.000000
0.187531 0.741943 0.000000
0.221649 0.741943 0.000000
0.255310 0.741943 0.000000
0.288605 0.741943 0.000000
0.321533 0.741943 0.000000
0.354156 0.741943 0.000000
0.386505 0.741943 0.000000
0.418640 0.741943 0.000000
0.450531 0.741943 0.000000
0.482239 0.741943 0.000000
0.513733 0.741943 0.000000
0.545105 0.741943 0.000000
0.576294 0.741943 0.000000
0.607330 0.741943 0.000000
0.638214 0.741943 0.000000
0.668945 0.741943 0.000000
0.699554 0.741943 0.000000
0.730072 0.741943 0.000000
0.760468 0.741943 0.000000
0.790741 0.741943 0.000000
0.820923 0.741943 0.000000
0.850983 0.741943 0.000000
0.880981 0.741943 0.000000
0.910858 0.741943 0.000000
0.940643 0.741943 0.000000
0.970367 0.741943 0.000000
1.000000 0.741943 0.000000
0.000000 0.774200 0.000000
0.042816 0.774200 0.000000
0.080902 0.774200 0.000000
0.117340 0.774200 0.000000
0.152802 0.774200 0.000000
0.187531 0.774200 0.000000
0.221649 0.774200 0.000000
0.255310 0.774200 0.000000
0.288605 0.774200 0.000000
0.321533 0.774200 0.000000
0.354156 0.774200 0.000000
0.386505 0.774200 0.000000
0.418640 0.774200 0.000000
0.450531 0.774200 0.000000
0.482239 0.774200 0.000000
0.513733 0.774200 0.000000
0.545105 0.774200 0.000000
0.576294 0.774200 0.000000
0.607330 0.774200 0.000000
0.638214 0.774200 0.000000
0.668945 0.774200 0.000000
0.699554 0.774200 0.000000
0.730072 0.774200 0.000000
0.760468 0.774200 0.000000
0.790741 0.774200 0.000000
0.820923 0.774200 0.000000
0.850983 0.774200 0.000000
0.880981 0.774200 0.000000
0.910858 0.774200 0.000000
0.940643 0.774200 0.000000
0.970367 0.774200 0.000000
1.000000 0.774200 0.000000
0.000000 0.806458 0.000000
0.042816 0.806458 0.000000
0.080902 0.806458 0.000000
0.117340 0.806458 0.000000
0.152802 0.806458 0.000000
0.187531 0.806458 0.000000
0.221649 0.806458 0.000000
0.255310 0.806458 0.000000
0.288605 0.806458 0.000000
0.321533 0.806458 0.000000
0.354156 0.806458 0.000000
0.386505 0.806458 0.000000
0.418640 0.806458 0.000000
0.450531 0.806458 0.000000
0.482239 0.806458 0.000000
0.513733 0.806458 0.000000
0.545105 0.806458 0.000000
0.576294 0.806458 0.000000
0.607330 0.806458 0.000000
0.638214 0.806458 0.000000
0.668945 0.806458 0.000000
0.699554 0.806458 0.000000
0.730072 0.806458 0.000000
0.760468 0.806458 0.000000
0.790741 0.806458 0.000000
0.820923 0.806458 0.000000
0.850983 0.806458 0.000000
0.880981 0.806458 0.000000
0.910858 0.806458 0.000000
0.940643 0.806458 0.000000
0.970367 0.806458 0.000000
1.000000 0.806458 0.000000
0.000000 0.838715 0.000000
0.042816 0.838715 0.000000
0.080902 0.838715 0.000000
0.117340 0.838715 0.000000
0.152802 0.838715 0.000000
0.187531 0.838715 0.000000
0.221649 0.838715 0.000000
0.255310 0.838715 0.000000
0.288605 0.838715 0.000000
0.321533 0.838715 0.000000
0.354156 0.838715 0.000000
0.386505 0.838715 0.000000
0.418640 0.838715 0.000000
0.450531 0.838715 0.000000
0.482239 0.838715 0.000000
0.513733 0.838715 0.000000
0.545105 0.838715 0.000000
0.576294 0.838715 0.000000
0.607330 0.838715 0.000000
0.638214 0.838715 0.000000
0.668945 0.838715 0.000000
0.699554 0.838715 0.000000
0.730072 0.838715 0.000000
0.760468 0.838715 0.000000
0.790741 0.838715 0.000000
0.820923 0.838715 0.000000
0.850983 0.838715 0.000000
0.880981 0.838715 0.000000
0.910858 0.838715 0.000000
0.940643 0.838715 0.000000
0.970367 0.838715 0.000000
1.000000 0.838715 0.000000
0.000000 0.870972 0.000000
0.042816 0.870972 0.000000
0.080902 0.870972 0.000000
0.117340 0.870972 0.000000
0.152802 0.870972 0.000000
0.187531 0.870972 0.000000
0.221649 0.870972 0.000000
0.255310 0.870972 0.000000
0.288605 0.870972 0.000000
0.321533 0.870972 0.000000
0.354156 0.870972 0.000000
0.386505 0.870972 0.000000
0.418640 0.870972 0.000000
0.450531 0.870972 0.000000
0.482239 0.870972 0.000000
0.513733 0.870972 0.000000
0.545105 0.870972 0.000000
