public/luts/Industry - Battery solutions 1-Large 2.CUBE
#Created by: Adobe Photoshop Export Color Lookup Plugin
TITLE "Industry - Battery solutions 1-Large 2.psd"
#LUT size
LUT_3D_SIZE 8
#data domain
#LUT data points
DOMAIN_MIN 0.000000 0.000000 0.000000
DOMAIN_MAX 0.903226 0.903226 0.903226
0.000000 0.000000 0.000000
0.095032 0.000000 0.000000
0.210785 0.000000 0.000000
0.335907 0.000000 0.000000
0.467560 0.000000 0.000000
0.604279 0.000000 0.000000
0.745148 0.000000 0.000000
0.889618 0.000000 0.000000
0.000000 0.126373 0.000000
0.095032 0.126373 0.000000
0.210785 0.126373 0.000000
0.335907 0.126373 0.000000
0.467560 0.126373 0.000000
0.604279 0.126373 0.000000
0.745148 0.126373 0.000000
0.889618 0.126373 0.000000
0.000000 0.254547 0.000000
0.095032 0.254547 0.000000
0.210785 0.254547 0.000000
0.335907 0.254547 0.000000
0.467560 0.254547 0.000000
0.604279 0.254547 0.000000
0.745148 0.254547 0.000000
0.889618 0.254547 0.000000
0.000000 0.383392 0.000000
0.095032 0.383392 0.000000
0.210785 0.383392 0.000000
0.335907 0.383392 0.000000
0.467560 0.383392 0.000000
0.604279 0.383392 0.000000
0.745148 0.383392 0.000000
0.889618 0.383392 0.000000
0.000000 0.512695 0.000000
0.095032 0.512695 0.000000
0.210785 0.512695 0.000000
0.335907 0.512695 0.000000
0.467560 0.512695 0.000000
0.604279 0.512695 0.000000
0.745148 0.512695 0.000000
0.889618 0.512695 0.000000
0.000000 0.642334 0.000000
0.095032 0.642334 0.000000
0.210785 0.642334 0.000000
0.335907 0.642334 0.000000
0.467560 0.642334 0.000000
0.604279 0.642334 0.000000
0.745148 0.642334 0.000000
0.889618 0.642334 0.000000
0.000000 0.772186 0.000000
0.095032 0.772186 0.000000
0.210785 0.772186 0.000000
0.335907 0.772186 0.000000
0.467560 0.772186 0.000000
0.604279 0.772186 0.000000
0.745148 0.772186 0.000000
0.889618 0.772186 0.000000
0.000000 0.902313 0.000000
0.095032 0.902313 0.000000
0.210785 0.902313 0.000000
0.335907 0.902313 0.000000
0.467560 0.902313 0.000000
0.604279 0.902313 0.000000
0.745148 0.902313 0.000000
0.889618 0.902313 0.000000
0.000000 0.000000 0.171143
0.095032 0.000000 0.171143
0.210785 0.000000 0.171143
0.335907 0.000000 0.171143
0.467560 0.000000 0.171143
0.604279 0.000000 0.171143
0.745148 0.000000 0.171143
0.889618 0.000000 0.171143
0.000000 0.126373 0.171143
0.095032 0.126373 0.171143
0.210785 0.126373 0.171143
0.335907 0.126373 0.171143
0.467560 0.126373 0.171143
0.604279 0.126373 0.171143
0.745148 0.126373 0.171143
0.889618 0.126373 0.171143
0.000000 0.254547 0.171143
0.095032 0.254547 0.171143
0.210785 0.254547 0.171143
0.335907 0.254547 0.171143
0.467560 0.254547 0.171143
0.604279 0.254547 0.171143
0.745148 0.254547 0.171143
0.889618 0.254547 0.171143
0.000000 0.383392 0.171143
0.095032 0.383392 0.171143
0.210785 0.383392 0.171143
0.335907 0.383392 0.171143
0.467560 0.383392 0.171143
0.604279 0.383392 0.171143
0.745148 0.383392 0.171143
0.889618 0.383392 0.171143
0.000000 0.512695 0.171143
0.095032 0.512695 0.171143
0.210785 0.512695 0.171143
0.335907 0.512695 0.171143
0.467560 0.512695 0.171143
0.604279 0.512695 0.171143
0.745148 0.512695 0.171143
0.889618 0.512695 0.171143
0.000000 0.642334 0.171143
0.095032 0.642334 0.171143
0.210785 0.642334 0.171143
0.335907 0.642334 0.171143
0.467560 0.642334 0.171143
0.604279 0.642334 0.171143
0.745148 0.642334 0.171143
0.889618 0.642334 0.171143
0.000000 0.772186 0.171143
0.095032 0.772186 0.171143
0.210785 0.772186 0.171143
0.335907 0.772186 0.171143
0.467560 0.772186 0.171143
0.604279 0.772186 0.171143
0.745148 0.772186 0.171143
0.889618 0.772186 0.171143
0.000000 0.902313 0.171143
0.095032 0.902313 0.171143
0.210785 0.902313 0.171143
0.335907 0.902313 0.171143
0.467560 0.902313 0.171143
0.604279 0.902313 0.171143
0.745148 0.902313 0.171143
0.889618 0.902313 0.171143
0.000000 0.000000 0.311066
0.095032 0.000000 0.311066
0.210785 0.000000 0.311066
0.335907 0.000000 0.311066
0.467560 0.000000 0.311066
0.604279 0.000000 0.311066
0.745148 0.000000 0.311066
0.889618 0.000000 0.311066
0.000000 0.126373 0.311066
0.095032 0.126373 0.311066
0.210785 0.126373 0.311066
0.335907 0.126373 0.311066
0.467560 0.126373 0.311066
0.604279 0.126373 0.311066
0.745148 0.126373 0.311066
0.889618 0.126373 0.311066
0.000000 0.254547 0.311066
0.095032 0.254547 0.311066
0.210785 0.254547 0.311066
0.335907 0.254547 0.311066
0.467560 0.254547 0.311066
0.604279 0.254547 0.311066
0.745148 0.254547 0.311066
0.889618 0.254547 0.311066
0.000000 0.383392 0.311066
0.095032 0.383392 0.311066
0.210785 0.383392 0.311066
0.335907 0.383392 0.311066
0.467560 0.383392 0.311066
0.604279 0.383392 0.311066
0.745148 0.383392 0.311066
0.889618 0.383392 0.311066
0.000000 0.512695 0.311066
0.095032 0.512695 0.311066
0.210785 0.512695 0.311066
0.335907 0.512695 0.311066
0.467560 0.512695 0.311066
0.604279 0.512695 0.311066
0.745148 0.512695 0.311066
0.889618 0.512695 0.311066
0.000000 0.642334 0.311066
0.095032 0.642334 0.311066
0.210785 0.642334 0.311066
0.335907 0.642334 0.311066
0.467560 0.642334 0.311066
0.604279 0.642334 0.311066
0.745148 0.642334 0.311066
0.889618 0.642334 0.311066
0.000000 0.772186 0.311066
0.095032 0.772186 0.311066
0.210785 0.772186 0.311066
0.335907 0.772186 0.311066
0.467560 0.772186 0.311066
0.604279 0.772186 0.311066
0.745148 0.772186 0.311066
0.889618 0.772186 0.311066
0.000000 0.902313 0.311066
0.095032 0.902313 0.311066
0.210785 0.902313 0.311066
0.335907 0.902313 0.311066
0.467560 0.902313 0.311066
0.604279 0.902313 0.311066
0.745148 0.902313 0.311066
0.889618 0.902313 0.311066
0.000000 0.000000 0.441223
0.095032 0.000000 0.441223
0.210785 0.000000 0.441223
0.335907 0.000000 0.441223
0.467560 0.000000 0.441223
0.604279 0.000000 0.441223
0.745148 0.000000 0.441223
0.889618 0.000000 0.441223
0.000000 0.126373 0.441223
0.095032 0.126373 0.441223
0.210785 0.126373 0.441223
0.335907 0.126373 0.441223
0.467560 0.126373 0.441223
0.604279 0.126373 0.441223
0.745148 0.126373 0.441223
0.889618 0.126373 0.441223
0.000000 0.254547 0.441223
0.095032 0.254547 0.441223
0.210785 0.254547 0.441223
0.335907 0.254547 0.441223
0.467560 0.254547 0.441223
0.604279 0.254547 0.441223
0.745148 0.254547 0.441223
0.889618 0.254547 0.441223
0.000000 0.383392 0.441223
0.095032 0.383392 0.441223
0.210785 0.383392 0.441223
0.335907 0.383392 0.441223
0.467560 0.383392 0.441223
0.604279 0.383392 0.441223
0.745148 0.383392 0.441223
0.889618 0.383392 0.441223
0.000000 0.512695 0.441223
0.095032 0.512695 0.441223
0.210785 0.512695 0.441223
0.335907 0.512695 0.441223
0.467560 0.512695 0.441223
0.604279 0.512695 0.441223
0.745148 0.512695 0.441223
0.889618 0.512695 0.441223
0.000000 0.642334 0.441223
0.095032 0.642334 0.441223
0.210785 0.642334 0.441223
0.335907 0.642334 0.441223
0.467560 0.642334 0.441223
0.604279 0.642334 0.441223
0.745148 0.642334 0.441223
0.889618 0.642334 0.441223
0.000000 0.772186 0.441223
0.095032 0.772186 0.441223
0.210785 0.772186 0.441223
0.335907 0.772186 0.441223
0.467560 0.772186 0.441223
0.604279 0.772186 0.441223
0.745148 0.772186 0.441223
0.889618 0.772186 0.441223
0.000000 0.902313 0.441223
0.095032 0.902313 0.441223
0.210785 0.902313 0.441223
0.335907 0.902313 0.441223
0.467560 0.902313 0.441223
0.604279 0.902313 0.441223
0.745148 0.902313 0.441223
0.889618 0.902313 0.441223
0.000000 0.000000 0.565430
0.095032 0.000000 0.565430
0.210785 0.000000 0.565430
0.335907 0.000000 0.565430
0.467560 0.000000 0.565430
0.604279 0.000000 0.565430
0.745148 0.000000 0.565430
0.889618 0.000000 0.565430
0.000000 0.126373 0.565430
0.095032 0.126373 0.565430
0.210785 0.126373 0.565430
0.335907 0.126373 0.565430
0.467560 0.126373 0.565430
0.604279 0.126373 0.565430
0.745148 0.126373 0.565430
0.889618 0.126373 0.565430
0.000000 0.254547 0.565430
0.095032 0.254547 0.565430
0.210785 0.254547 0.565430
0.335907 0.254547 0.565430
0.467560 0.254547 0.565430
0.604279 0.254547 0.565430
0.745148 0.254547 0.565430
0.889618 0.254547 0.565430
0.000000 0.383392 0.565430
0.095032 0.383392 0.565430
0.210785 0.383392 0.565430
0.335907 0.383392 0.565430
0.467560 0.383392 0.565430
0.604279 0.383392 0.565430
0.745148 0.383392 0.565430
0.889618 0.383392 0.565430
0.000000 0.512695 0.565430
0.095032 0.512695 0.565430
0.210785 0.512695 0.565430
0.335907 0.512695 0.565430
0.467560 0.512695 0.565430
0.604279 0.512695 0.565430
0.745148 0.512695 0.565430
0.889618 0.512695 0.565430
0.000000 0.642334 0.565430
0.095032 0.642334 0.565430
0.210785 0.642334 0.565430
0.335907 0.642334 0.565430
0.467560 0.642334 0.565430
0.604279 0.642334 0.565430
0.745148 0.642334 0.565430
0.889618 0.642334 0.565430
0.000000 0.772186 0.565430
0.095032 0.772186 0.565430
0.210785 0.772186 0.565430
0.335907 0.772186 0.565430
0.467560 0.772186 0.565430
0.604279 0.772186 0.565430
0.745148 0.772186 0.565430
0.889618 0.772186 0.565430
0.000000 0.902313 0.565430
0.095032 0.902313 0.565430
0.210785 0.902313 0.565430
0.335907 0.902313 0.565430
0.467560 0.902313 0.565430
0.604279 0.902313 0.565430
0.745148 0.902313 0.565430
0.889618 0.902313 0.565430
0.000000 0.000000 0.685364
0.095032 0.000000 0.685364
0.210785 0.000000 0.685364
0.335907 0.000000 0.685364
0.467560 0.000000 0.685364
0.604279 0.000000 0.685364
0.745148 0.000000 0.685364
0.889618 0.000000 0.685364
0.000000 0.126373 0.685364
0.095032 0.126373 0.685364
0.210785 0.126373 0.685364
0.335907 0.126373 0.685364
0.467560 0.126373 0.685364
0.604279 0.126373 0.685364
0.745148 0.126373 0.685364
0.889618 0.126373 0.685364
0.000000 0.254547 0.685364
0.095032 0.254547 0.685364
0.210785 0.254547 0.685364
0.335907 0.254547 0.685364
0.467560 0.254547 0.685364
0.604279 0.254547 0.685364
0.745148 0.254547 0.685364
0.889618 0.254547 0.685364
0.000000 0.383392 0.685364
0.095032 0.383392 0.685364
0.210785 0.383392 0.685364
0.335907 0.383392 0.685364
0.467560 0.383392 0.685364
0.604279 0.383392 0.685364
0.745148 0.383392 0.685364
0.889618 0.383392 0.685364
0.000000 0.512695 0.685364
0.095032 0.512695 0.685364
0.210785 0.512695 0.685364
0.335907 0.512695 0.685364
0.467560 0.512695 0.685364
0.604279 0.512695 0.685364
0.745148 0.512695 0.685364
0.889618 0.512695 0.685364
0.000000 0.642334 0.685364
0.095032 0.642334 0.685364
0.210785 0.642334 0.685364
0.335907 0.642334 0.685364
0.467560 0.642334 0.685364
0.604279 0.642334 0.685364
0.745148 0.642334 0.685364
0.889618 0.642334 0.685364
0.000000 0.772186 0.685364
0.095032 0.772186 0.685364
0.210785 0.772186 0.685364
0.335907 0.772186 0.685364
0.467560 0.772186 0.685364
0.604279 0.772186 0.685364
0.745148 0.772186 0.685364
0.889618 0.772186 0.685364
0.000000 0.902313 0.685364
0.095032 0.902313 0.685364
0.210785 0.902313 0.685364
0.335907 0.902313 0.685364
0.467560 0.902313 0.685364
0.604279 0.902313 0.685364
0.745148 0.902313 0.685364
0.889618 0.902313 0.685364
0.000000 0.000000 0.802032
0.095032 0.000000 0.802032
0.210785 0.000000 0.802032
0.335907 0.000000 0.802032
0.467560 0.000000 0.802032
0.604279 0.000000 0.802032
0.745148 0.000000 0.802032
0.889618 0.000000 0.802032
0.000000 0.126373 0.802032
0.095032 0.126373 0.802032
0.210785 0.126373 0.802032
0.335907 0.126373 0.802032
0.467560 0.126373 0.802032
0.604279 0.126373 0.802032
0.745148 0.126373 0.802032
0.889618 0.126373 0.802032
0.000000 0.254547 0.802032
0.095032 0.254547 0.802032
0.210785 0.254547 0.802032
0.335907 0.254547 0.802032
0.467560 0.254547 0.802032
0.604279 0.254547 0.802032
0.745148 0.254547 0.802032
0.889618 0.254547 0.802032
0.000000 0.383392 0.802032
0.095032 0.383392 0.802032
0.210785 0.383392 0.802032
0.335907 0.383392 0.802032
0.467560 0.383392 0.802032
0.604279 0.383392 0.802032
0.745148 0.383392 0.802032
0.889618 0.383392 0.802032
0.000000 0.512695 0.802032
0.095032 0.512695 0.802032
0.210785 0.512695 0.802032
0.335907 0.512695 0.802032
0.467560 0.512695 0.802032
0.604279 0.512695 0.802032
0.745148 0.512695 0.802032
0.889618 0.512695 0.802032
0.000000 0.642334 0.802032
0.095032 0.642334 0.802032
0.210785 0.642334 0.802032
0.335907 0.642334 0.802032
0.467560 0.642334 0.802032
0.604279 0.642334 0.802032
0.745148 0.642334 0.802032
0.889618 0.642334 0.802032
0.000000 0.772186 0.802032
0.095032 0.772186 0.802032
0.210785 0.772186 0.802032
0.335907 0.772186 0.802032
0.467560 0.772186 0.802032
0.604279 0.772186 0.802032
0.745148 0.772186 0.802032
0.889618 0.772186 0.802032
0.000000 0.902313 0.802032
0.095032 0.902313 0.802032
0.210785 0.902313 0.802032
0.335907 0.902313 0.802032
0.467560 0.902313 0.802032
0.604279 0.902313 0.802032
0.745148 0.902313 0.802032
0.889618 0.902313 0.802032
0.000000 0.000000 0.915985
0.095032 0.000000 0.915985
0.210785 0.000000 0.915985
0.335907 0.000000 0.915985
0.467560 0.000000 0.915985
0.604279 0.000000 0.915985
0.745148 0.000000 0.915985
0.889618 0.000000 0.915985
0.000000 0.126373 0.915985
0.095032 0.126373 0.915985
0.210785 0.126373 0.915985
0.335907 0.126373 0.915985
0.467560 0.126373 0.915985
0.604279 0.126373 0.915985
0.745148 0.126373 0.915985
0.889618 0.126373 0.915985
0.000000 0.254547 0.915985
0.095032 0.254547 0.915985
0.210785 0.254547 0.915985
0.335907 0.254547 0.915985
0.467560 0.254547 0.915985
0.604279 0.254547 0.915985
0.745148 0.254547 0.915985
0.889618 0.254547 0.915985
0.000000 0.383392 0.915985
0.095032 0.383392 0.915985
0.210785 0.383392 0.915985
0.335907 0.383392 0.915985
0.467560 0.383392 0.915985
0.604279 0.383392 0.915985
0.745148 0.383392 0.915985
0.889618 0.383392 0.915985
0.000000 0.512695 0.915985
0.095032 0.512695 0.915985
0.210785 0.512695 0.915985
0.335907 0.512695 0.915985
0.467560 0.512695 0.915985
0.604279 0.512695 0.915985
0.745148 0.512695 0.915985
0.889618 0.512695 0.915985
0.000000 0.642334 0.915985
0.095032 0.642334 0.915985
0.210785 0.642334 0.915985
0.335907 0.642334 0.915985
0.467560 0.642334 0.915985
0.604279 0.642334 0.915985
0.745148 0.642334 0.915985
0.889618 0.642334 0.915985
0.000000 0.772186 0.915985
0.095032 0.772186 0.915985
0.210785 0.772186 0.915985
0.335907 0.772186 0.915985
0.467560 0.772186 0.915985
0.604279 0.772186 0.915985
0.745148 0.772186 0.915985
0.889618 0.772186 0.915985
0.000000 0.902313 0.915985
0.095032 0.902313 0.915985
0.210785 0.902313 0.915985
0.335907 0.902313 0.915985
0.467560 0.902313 0.915985
0.604279 0.902313 0.915985
0.745148 0.902313 0.915985
0.889618 0.902313 0.915985
