public/luts/Industry - Battery solutions 1-Large 2.CUBE
#Created by: Adobe Photoshop Export Color Lookup Plugin
TITLE "Industry - Battery solutions 1-Large 2.psd"
#LUT size
LUT_3D_SIZE 5
#data domain
#LUT data points
DOMAIN_MIN 0.000000 0.000000 0.000000
DOMAIN_MAX 0.903226 0.903226 0.903226
0.000000 0.000000 0.000000
0.180786 0.000000 0.000000
0.401031 0.000000 0.000000
0.639130 0.000000 0.000000
0.889618 0.000000 0.000000
0.000000 0.222443 0.000000
0.180786 0.222443 0.000000
0.401031 0.222443 0.000000
0.639130 0.222443 0.000000
0.889618 0.222443 0.000000
0.000000 0.447998 0.000000
0.180786 0.447998 0.000000
0.401031 0.447998 0.000000
0.639130 0.447998 0.000000
0.889618 0.447998 0.000000
0.000000 0.674774 0.000000
0.180786 0.674774 0.000000
0.401031 0.674774 0.000000
0.639130 0.674774 0.000000
0.889618 0.674774 0.000000
0.000000 0.902313 0.000000
0.180786 0.902313 0.000000
0.401031 0.902313 0.000000
0.639130 0.902313 0.000000
0.889618 0.902313 0.000000
0.000000 0.000000 0.277252
0.180786 0.000000 0.277252
0.401031 0.000000 0.277252
0.639130 0.000000 0.277252
0.889618 0.000000 0.277252
0.000000 0.222443 0.277252
0.180786 0.222443 0.277252
0.401031 0.222443 0.277252
0.639130 0.222443 0.277252
0.889618 0.222443 0.277252
0.000000 0.447998 0.277252
0.180786 0.447998 0.277252
0.401031 0.447998 0.277252
0.639130 0.447998 0.277252
0.889618 0.447998 0.277252
0.000000 0.674774 0.277252
0.180786 0.674774 0.277252
0.401031 0.674774 0.277252
0.639130 0.674774 0.277252
0.889618 0.674774 0.277252
0.000000 0.902313 0.277252
0.180786 0.902313 0.277252
0.401031 0.902313 0.277252
0.639130 0.902313 0.277252
0.889618 0.902313 0.277252
0.000000 0.000000 0.503937
0.180786 0.000000 0.503937
0.401031 0.000000 0.503937
0.639130 0.000000 0.503937
0.889618 0.000000 0.503937
0.000000 0.222443 0.503937
0.180786 0.222443 0.503937
0.401031 0.222443 0.503937
0.639130 0.222443 0.503937
0.889618 0.222443 0.503937
0.000000 0.447998 0.503937
0.180786 0.447998 0.503937
0.401031 0.447998 0.503937
0.639130 0.447998 0.503937
0.889618 0.447998 0.503937
0.000000 0.674774 0.503937
0.180786 0.674774 0.503937
0.401031 0.674774 0.503937
0.639130 0.674774 0.503937
0.889618 0.674774 0.503937
0.000000 0.902313 0.503937
0.180786 0.902313 0.503937
0.401031 0.902313 0.503937
0.639130 0.902313 0.503937
0.889618 0.902313 0.503937
0.000000 0.000000 0.714813
0.180786 0.000000 0.714813
0.401031 0.000000 0.714813
0.639130 0.000000 0.714813
0.889618 0.000000 0.714813
0.000000 0.222443 0.714813
0.180786 0.222443 0.714813
0.401031 0.222443 0.714813
0.639130 0.222443 0.714813
0.889618 0.222443 0.714813
0.000000 0.447998 0.714813
0.180786 0.447998 0.714813
0.401031 0.447998 0.714813
0.639130 0.447998 0.714813
0.889618 0.447998 0.714813
0.000000 0.674774 0.714813
0.180786 0.674774 0.714813
0.401031 0.674774 0.714813
0.639130 0.674774 0.714813
0.889618 0.674774 0.714813
0.000000 0.902313 0.714813
0.180786 0.902313 0.714813
0.401031 0.902313 0.714813
0.639130 0.902313 0.714813
0.889618 0.902313 0.714813
0.000000 0.000000 0.915985
0.180786 0.000000 0.915985
0.401031 0.000000 0.915985
0.639130 0.000000 0.915985
0.889618 0.000000 0.915985
0.000000 0.222443 0.915985
0.180786 0.222443 0.915985
0.401031 0.222443 0.915985
0.639130 0.222443 0.915985
0.889618 0.222443 0.915985
0.000000 0.447998 0.915985
0.180786 0.447998 0.915985
0.401031 0.447998 0.915985
0.639130 0.447998 0.915985
0.889618 0.447998 0.915985
0.000000 0.674774 0.915985
0.180786 0.674774 0.915985
0.401031 0.674774 0.915985
0.639130 0.674774 0.915985
0.889618 0.674774 0.915985
0.000000 0.902313 0.915985
0.180786 0.902313 0.915985
0.401031 0.902313 0.915985
0.639130 0.902313 0.915985
0.889618 0.902313 0.915985
