public/luts/Industry - Battery solutions 1-Large 2.CUBE
#Created by: Adobe Photoshop Export Color Lookup Plugin
TITLE "Industry - Battery solutions 1-Large 2.psd"
#LUT size
LUT_3D_SIZE 32
#data domain
DOMAIN_MIN 0.0 0.0 0.0
DOMAIN_MAX 1.0 1.0 1.0
#LUT data points
0.000000 0.000000 0.000000
0.019318 0.000000 0.000000
0.042847 0.000000 0.000000
0.068268 0.000000 0.000000
0.095032 0.000000 0.000000
0.122772 0.000000 0.000000
0.151428 0.000000 0.000000
0.180786 0.000000 0.000000
0.210785 0.000000 0.000000
0.241333 0.000000 0.000000
0.272400 0.000000 0.000000
0.303925 0.000000 0.000000
0.335907 0.000000 0.000000
0.368286 0.000000 0.000000
0.401031 0.000000 0.000000
0.434113 0.000000 0.000000
0.467560 0.000000 0.000000
0.501312 0.000000 0.000000
0.535339 0.000000 0.000000
0.569702 0.000000 0.000000
0.604279 0.000000 0.000000
0.639130 0.000000 0.000000
0.674225 0.000000 0.000000
0.709564 0.000000 0.000000
0.745148 0.000000 0.000000
0.780945 0.000000 0.000000
0.816956 0.000000 0.000000
0.853180 0.000000 0.000000
0.889618 0.000000 0.000000
0.926208 0.000000 0.000000
0.963013 0.000000 0.000000
1.000000 0.000000 0.000000
0.000000 0.031158 0.000000
0.019318 0.031158 0.000000
0.042847 0.031158 0.000000
0.068268 0.031158 0.000000
0.095032 0.031158 0.000000
0.122772 0.031158 0.000000
0.151428 0.031158 0.000000
0.180786 0.031158 0.000000
0.210785 0.031158 0.000000
0.241333 0.031158 0.000000
0.272400 0.031158 0.000000
0.303925 0.031158 0.000000
0.335907 0.031158 0.000000
0.368286 0.031158 0.000000
0.401031 0.031158 0.000000
0.434113 0.031158 0.000000
0.467560 0.031158 0.000000
0.501312 0.031158 0.000000
0.535339 0.031158 0.000000
0.569702 0.031158 0.000000
0.604279 0.031158 0.000000
0.639130 0.031158 0.000000
0.674225 0.031158 0.000000
0.709564 0.031158 0.000000
0.745148 0.031158 0.000000
0.780945 0.031158 0.000000
0.816956 0.031158 0.000000
0.853180 0.031158 0.000000
0.889618 0.031158 0.000000
0.926208 0.031158 0.000000
0.963013 0.031158 0.000000
1.000000 0.031158 0.000000
0.000000 0.062744 0.000000
0.019318 0.062744 0.000000
0.042847 0.062744 0.000000
0.068268 0.062744 0.000000
0.095032 0.062744 0.000000
0.122772 0.062744 0.000000
0.151428 0.062744 0.000000
0.180786 0.062744 0.000000
0.210785 0.062744 0.000000
0.241333 0.062744 0.000000
0.272400 0.062744 0.000000
0.303925 0.062744 0.000000
0.335907 0.062744 0.000000
0.368286 0.062744 0.000000
0.401031 0.062744 0.000000
0.434113 0.062744 0.000000
0.467560 0.062744 0.000000
0.501312 0.062744 0.000000
0.535339 0.062744 0.000000
0.569702 0.062744 0.000000
0.604279 0.062744 0.000000
0.639130 0.062744 0.000000
0.674225 0.062744 0.000000
0.709564 0.062744 0.000000
0.745148 0.062744 0.000000
0.780945 0.062744 0.000000
0.816956 0.062744 0.000000
0.853180 0.062744 0.000000
0.889618 0.062744 0.000000
0.926208 0.062744 0.000000
0.963013 0.062744 0.000000
1.000000 0.062744 0.000000
0.000000 0.094513 0.000000
0.019318 0.094513 0.000000
0.042847 0.094513 0.000000
0.068268 0.094513 0.000000
0.095032 0.094513 0.000000
0.122772 0.094513 0.000000
0.151428 0.094513 0.000000
0.180786 0.094513 0.000000
0.210785 0.094513 0.000000
0.241333 0.094513 0.000000
0.272400 0.094513 0.000000
0.303925 0.094513 0.000000
0.335907 0.094513 0.000000
0.368286 0.094513 0.000000
0.401031 0.094513 0.000000
0.434113 0.094513 0.000000
0.467560 0.094513 0.000000
0.501312 0.094513 0.000000
0.535339 0.094513 0.000000
0.569702 0.094513 0.000000
0.604279 0.094513 0.000000
0.639130 0.094513 0.000000
0.674225 0.094513 0.000000
0.709564 0.094513 0.000000
0.745148 0.094513 0.000000
0.780945 0.094513 0.000000
0.816956 0.094513 0.000000
0.853180 0.094513 0.000000
0.889618 0.094513 0.000000
0.926208 0.094513 0.000000
0.963013 0.094513 0.000000
1.000000 0.094513 0.000000
0.000000 0.126373 0.000000
0.019318 0.126373 0.000000
0.042847 0.126373 0.000000
0.068268 0.126373 0.000000
0.095032 0.126373 0.000000
0.122772 0.126373 0.000000
0.151428 0.126373 0.000000
0.180786 0.126373 0.000000
0.210785 0.126373 0.000000
0.241333 0.126373 0.000000
0.272400 0.126373 0.000000
0.303925 0.126373 0.000000
0.335907 0.126373 0.000000
0.368286 0.126373 0.000000
0.401031 0.126373 0.000000
0.434113 0.126373 0.000000
0.467560 0.126373 0.000000
0.501312 0.126373 0.000000
0.535339 0.126373 0.000000
0.569702 0.126373 0.000000
0.604279 0.126373 0.000000
0.639130 0.126373 0.000000
0.674225 0.126373 0.000000
0.709564 0.126373 0.000000
0.745148 0.126373 0.000000
0.780945 0.126373 0.000000
0.816956 0.126373 0.000000
0.853180 0.126373 0.000000
0.889618 0.126373 0.000000
0.926208 0.126373 0.000000
0.963013 0.126373 0.000000
1.000000 0.126373 0.000000
0.000000 0.158325 0.000000
0.019318 0.158325 0.000000
0.042847 0.158325 0.000000
0.068268 0.158325 0.000000
0.095032 0.158325 0.000000
0.122772 0.158325 0.000000
0.151428 0.158325 0.000000
0.180786 0.158325 0.000000
0.210785 0.158325 0.000000
0.241333 0.158325 0.000000
0.272400 0.158325 0.000000
0.303925 0.158325 0.000000
0.335907 0.158325 0.000000
0.368286 0.158325 0.000000
0.401031 0.158325 0.000000
0.434113 0.158325 0.000000
0.467560 0.158325 0.000000
0.501312 0.158325 0.000000
0.535339 0.158325 0.000000
0.569702 0.158325 0.000000
0.604279 0.158325 0.000000
0.639130 0.158325 0.000000
0.674225 0.158325 0.000000
0.709564 0.158325 0.000000
0.745148 0.158325 0.000000
0.780945 0.158325 0.000000
0.816956 0.158325 0.000000
0.853180 0.158325 0.000000
0.889618 0.158325 0.000000
0.926208 0.158325 0.000000
0.963013 0.158325 0.000000
1.000000 0.158325 0.000000
0.000000 0.190369 0.000000
0.019318 0.190369 0.000000
0.042847 0.190369 0.000000
0.068268 0.190369 0.000000
0.095032 0.190369 0.000000
0.122772 0.190369 0.000000
0.151428 0.190369 0.000000
0.180786 0.190369 0.000000
0.210785 0.190369 0.000000
0.241333 0.190369 0.000000
0.272400 0.190369 0.000000
0.303925 0.190369 0.000000
0.335907 0.190369 0.000000
0.368286 0.190369 0.000000
0.401031 0.190369 0.000000
0.434113 0.190369 0.000000
0.467560 0.190369 0.000000
0.501312 0.190369 0.000000
0.535339 0.190369 0.000000
0.569702 0.190369 0.000000
0.604279 0.190369 0.000000
0.639130 0.190369 0.000000
0.674225 0.190369 0.000000
0.709564 0.190369 0.000000
0.745148 0.190369 0.000000
0.780945 0.190369 0.000000
0.816956 0.190369 0.000000
0.853180 0.190369 0.000000
0.889618 0.190369 0.000000
0.926208 0.190369 0.000000
0.963013 0.190369 0.000000
1.000000 0.190369 0.000000
0.000000 0.222443 0.000000
0.019318 0.222443 0.000000
0.042847 0.222443 0.000000
0.068268 0.222443 0.000000
0.095032 0.222443 0.000000
0.122772 0.222443 0.000000
0.151428 0.222443 0.000000
0.180786 0.222443 0.000000
0.210785 0.222443 0.000000
0.241333 0.222443 0.000000
0.272400 0.222443 0.000000
0.303925 0.222443 0.000000
0.335907 0.222443 0.000000
0.368286 0.222443 0.000000
0.401031 0.222443 0.000000
0.434113 0.222443 0.000000
0.467560 0.222443 0.000000
0.501312 0.222443 0.000000
0.535339 0.222443 0.000000
0.569702 0.222443 0.000000
0.604279 0.222443 0.000000
0.639130 0.222443 0.000000
0.674225 0.222443 0.000000
0.709564 0.222443 0.000000
0.745148 0.222443 0.000000
0.780945 0.222443 0.000000
0.816956 0.222443 0.000000
0.853180 0.222443 0.000000
0.889618 0.222443 0.000000
0.926208 0.222443 0.000000
0.963013 0.222443 0.000000
1.000000 0.222443 0.000000
0.000000 0.254547 0.000000
0.019318 0.254547 0.000000
0.042847 0.254547 0.000000
0.068268 0.254547 0.000000
0.095032 0.254547 0.000000
0.122772 0.254547 0.000000
0.151428 0.254547 0.000000
0.180786 0.254547 0.000000
0.210785 0.254547 0.000000
0.241333 0.254547 0.000000
0.272400 0.254547 0.000000
0.303925 0.254547 0.000000
0.335907 0.254547 0.000000
0.368286 0.254547 0.000000
0.401031 0.254547 0.000000
0.434113 0.254547 0.000000
0.467560 0.254547 0.000000
0.501312 0.254547 0.000000
0.535339 0.254547 0.000000
0.569702 0.254547 0.000000
0.604279 0.254547 0.000000
0.639130 0.254547 0.000000
0.674225 0.254547 0.000000
0.709564 0.254547 0.000000
0.745148 0.254547 0.000000
0.780945 0.254547 0.000000
0.816956 0.254547 0.000000
0.853180 0.254547 0.000000
0.889618 0.254547 0.000000
0.926208 0.254547 0.000000
0.963013 0.254547 0.000000
1.000000 0.254547 0.000000
0.000000 0.286713 0.000000
0.019318 0.286713 0.000000
0.042847 0.286713 0.000000
0.068268 0.286713 0.000000
0.095032 0.286713 0.000000
0.122772 0.286713 0.000000
0.151428 0.286713 0.000000
0.180786 0.286713 0.000000
0.210785 0.286713 0.000000
0.241333 0.286713 0.000000
0.272400 0.286713 0.000000
0.303925 0.286713 0.000000
0.335907 0.286713 0.000000
0.368286 0.286713 0.000000
0.401031 0.286713 0.000000
0.434113 0.286713 0.000000
0.467560 0.286713 0.000000
0.501312 0.286713 0.000000
0.535339 0.286713 0.000000
0.569702 0.286713 0.000000
0.604279 0.286713 0.000000
0.639130 0.286713 0.000000
0.674225 0.286713 0.000000
0.709564 0.286713 0.000000
0.745148 0.286713 0.000000
0.780945 0.286713 0.000000
0.816956 0.286713 0.000000
0.853180 0.286713 0.000000
0.889618 0.286713 0.000000
0.926208 0.286713 0.000000
0.963013 0.286713 0.000000
1.000000 0.286713 0.000000
0.000000 0.318909 0.000000
0.019318 0.318909 0.000000
0.042847 0.318909 0.000000
0.068268 0.318909 0.000000
0.095032 0.318909 0.000000
0.122772 0.318909 0.000000
0.151428 0.318909 0.000000
0.180786 0.318909 0.000000
0.210785 0.318909 0.000000
0.241333 0.318909 0.000000
0.272400 0.318909 0.000000
0.303925 0.318909 0.000000
0.335907 0.318909 0.000000
0.368286 0.318909 0.000000
0.401031 0.318909 0.000000
0.434113 0.318909 0.000000
0.467560 0.318909 0.000000
0.501312 0.318909 0.000000
0.535339 0.318909 0.000000
0.569702 0.318909 0.000000
0.604279 0.318909 0.000000
0.639130 0.318909 0.000000
0.674225 0.318909 0.000000
0.709564 0.318909 0.000000
0.745148 0.318909 0.000000
0.780945 0.318909 0.000000
0.816956 0.318909 0.000000
0.853180 0.318909 0.000000
0.889618 0.318909 0.000000
0.926208 0.318909 0.000000
0.963013 0.318909 0.000000
1.000000 0.318909 0.000000
0.000000 0.351135 0.000000
0.019318 0.351135 0.000000
0.042847 0.351135 0.000000
0.068268 0.351135 0.000000
0.095032 0.351135 0.000000
0.122772 0.351135 0.000000
0.151428 0.351135 0.000000
0.180786 0.351135 0.000000
0.210785 0.351135 0.000000
0.241333 0.351135 0.000000
0.272400 0.351135 0.000000
0.303925 0.351135 0.000000
0.335907 0.351135 0.000000
0.368286 0.351135 0.000000
0.401031 0.351135 0.000000
0.434113 0.351135 0.000000
0.467560 0.351135 0.000000
0.501312 0.351135 0.000000
0.535339 0.351135 0.000000
0.569702 0.351135 0.000000
0.604279 0.351135 0.000000
0.639130 0.351135 0.000000
0.674225 0.351135 0.000000
0.709564 0.351135 0.000000
0.745148 0.351135 0.000000
0.780945 0.351135 0.000000
0.816956 0.351135 0.000000
0.853180 0.351135 0.000000
0.889618 0.351135 0.000000
0.926208 0.351135 0.000000
0.963013 0.351135 0.000000
1.000000 0.351135 0.000000
0.000000 0.383392 0.000000
0.019318 0.383392 0.000000
0.042847 0.383392 0.000000
0.068268 0.383392 0.000000
0.095032 0.383392 0.000000
0.122772 0.383392 0.000000
0.151428 0.383392 0.000000
0.180786 0.383392 0.000000
0.210785 0.383392 0.000000
0.241333 0.383392 0.000000
0.272400 0.383392 0.000000
0.303925 0.383392 0.000000
0.335907 0.383392 0.000000
0.368286 0.383392 0.000000
0.401031 0.383392 0.000000
0.434113 0.383392 0.000000
0.467560 0.383392 0.000000
0.501312 0.383392 0.000000
0.535339 0.383392 0.000000
0.569702 0.383392 0.000000
0.604279 0.383392 0.000000
0.639130 0.383392 0.000000
0.674225 0.383392 0.000000
0.709564 0.383392 0.000000
0.745148 0.383392 0.000000
0.780945 0.383392 0.000000
0.816956 0.383392 0.000000
0.853180 0.383392 0.000000
0.889618 0.383392 0.000000
0.926208 0.383392 0.000000
0.963013 0.383392 0.000000
1.000000 0.383392 0.000000
0.000000 0.415680 0.000000
0.019318 0.415680 0.000000
0.042847 0.415680 0.000000
0.068268 0.415680 0.000000
0.095032 0.415680 0.000000
0.122772 0.415680 0.000000
0.151428 0.415680 0.000000
0.180786 0.415680 0.000000
0.210785 0.415680 0.000000
0.241333 0.415680 0.000000
0.272400 0.415680 0.000000
0.303925 0.415680 0.000000
0.335907 0.415680 0.000000
0.368286 0.415680 0.000000
0.401031 0.415680 0.000000
0.434113 0.415680 0.000000
0.467560 0.415680 0.000000
0.501312 0.415680 0.000000
0.535339 0.415680 0.000000
0.569702 0.415680 0.000000
0.604279 0.415680 0.000000
0.639130 0.415680 0.000000
0.674225 0.415680 0.000000
0.709564 0.415680 0.000000
0.745148 0.415680 0.000000
0.780945 0.415680 0.000000
0.816956 0.415680 0.000000
0.853180 0.415680 0.000000
0.889618 0.415680 0.000000
0.926208 0.415680 0.000000
0.963013 0.415680 0.000000
1.000000 0.415680 0.000000
0.000000 0.447998 0.000000
0.019318 0.447998 0.000000
0.042847 0.447998 0.000000
0.068268 0.447998 0.000000
0.095032 0.447998 0.000000
0.122772 0.447998 0.000000
0.151428 0.447998 0.000000
0.180786 0.447998 0.000000
0.210785 0.447998 0.000000
0.241333 0.447998 0.000000
0.272400 0.447998 0.000000
0.303925 0.447998 0.000000
0.335907 0.447998 0.000000
0.368286 0.447998 0.000000
0.401031 0.447998 0.000000
0.434113 0.447998 0.000000
0.467560 0.447998 0.000000
0.501312 0.447998 0.000000
0.535339 0.447998 0.000000
0.569702 0.447998 0.000000
0.604279 0.447998 0.000000
0.639130 0.447998 0.000000
0.674225 0.447998 0.000000
0.709564 0.447998 0.000000
0.745148 0.447998 0.000000
0.780945 0.447998 0.000000
0.816956 0.447998 0.000000
0.853180 0.447998 0.000000
0.889618 0.447998 0.000000
0.926208 0.447998 0.000000
0.963013 0.447998 0.000000
1.000000 0.447998 0.000000
0.000000 0.480316 0.000000
0.019318 0.480316 0.000000
0.042847 0.480316 0.000000
0.068268 0.480316 0.000000
0.095032 0.480316 0.000000
0.122772 0.480316 0.000000
0.151428 0.480316 0.000000
0.180786 0.480316 0.000000
0.210785 0.480316 0.000000
0.241333 0.480316 0.000000
0.272400 0.480316 0.000000
0.303925 0.480316 0.000000
0.335907 0.480316 0.000000
0.368286 0.480316 0.000000
0.401031 0.480316 0.000000
0.434113 0.480316 0.000000
0.467560 0.480316 0.000000
0.501312 0.480316 0.000000
0.535339 0.480316 0.000000
0.569702 0.480316 0.000000
0.604279 0.480316 0.000000
0.639130 0.480316 0.000000
0.674225 0.480316 0.000000
0.709564 0.480316 0.000000
0.745148 0.480316 0.000000
0.780945 0.480316 0.000000
0.816956 0.480316 0.000000
0.853180 0.480316 0.000000
0.889618 0.480316 0.000000
0.926208 0.480316 0.000000
0.963013 0.480316 0.000000
1.000000 0.480316 0.000000
0.000000 0.512695 0.000000
0.019318 0.512695 0.000000
0.042847 0.512695 0.000000
0.068268 0.512695 0.000000
0.095032 0.512695 0.000000
0.122772 0.512695 0.000000
0.151428 0.512695 0.000000
0.180786 0.512695 0.000000
0.210785 0.512695 0.000000
0.241333 0.512695 0.000000
0.272400 0.512695 0.000000
0.303925 0.512695 0.000000
0.335907 0.512695 0.000000
0.368286 0.512695 0.000000
0.401031 0.512695 0.000000
0.434113 0.512695 0.000000
0.467560 0.512695 0.000000
0.501312 0.512695 0.000000
0.535339 0.512695 0.000000
0.569702 0.512695 0.000000
0.604279 0.512695 0.000000
0.639130 0.512695 0.000000
0.674225 0.512695 0.000000
0.709564 0.512695 0.000000
0.745148 0.512695 0.000000
0.780945 0.512695 0.000000
0.816956 0.512695 0.000000
0.853180 0.512695 0.000000
0.889618 0.512695 0.000000
0.926208 0.512695 0.000000
0.963013 0.512695 0.000000
1.000000 0.512695 0.000000
0.000000 0.545074 0.000000
0.019318 0.545074 0.000000
0.042847 0.545074 0.000000
0.068268 0.545074 0.000000
0.095032 0.545074 0.000000
0.122772 0.545074 0.000000
0.151428 0.545074 0.000000
0.180786 0.545074 0.000000
0.210785 0.545074 0.000000
0.241333 0.545074 0.000000
0.272400 0.545074 0.000000
0.303925 0.545074 0.000000
0.335907 0.545074 0.000000
0.368286 0.545074 0.000000
0.401031 0.545074 0.000000
0.434113 0.545074 0.000000
0.467560 0.545074 0.000000
0.501312 0.545074 0.000000
0.535339 0.545074 0.000000
0.569702 0.545074 0.000000
0.604279 0.545074 0.000000
0.639130 0.545074 0.000000
0.674225 0.545074 0.000000
0.709564 0.545074 0.000000
0.745148 0.545074 0.000000
0.780945 0.545074 0.000000
0.816956 0.545074 0.000000
0.853180 0.545074 0.000000
0.889618 0.545074 0.000000
0.926208 0.545074 0.000000
0.963013 0.545074 0.000000
1.000000 0.545074 0.000000
0.000000 0.577484 0.000000
0.019318 0.577484 0.000000
0.042847 0.577484 0.000000
0.068268 0.577484 0.000000
0.095032 0.577484 0.000000
0.122772 0.577484 0.000000
0.151428 0.577484 0.000000
0.180786 0.577484 0.000000
0.210785 0.577484 0.000000
0.241333 0.577484 0.000000
0.272400 0.577484 0.000000
0.303925 0.577484 0.000000
0.335907 0.577484 0.000000
0.368286 0.577484 0.000000
0.401031 0.577484 0.000000
0.434113 0.577484 0.000000
0.467560 0.577484 0.000000
0.501312 0.577484 0.000000
0.535339 0.577484 0.000000
0.569702 0.577484 0.000000
0.604279 0.577484 0.000000
0.639130 0.577484 0.000000
0.674225 0.577484 0.000000
0.709564 0.577484 0.000000
0.745148 0.577484 0.000000
0.780945 0.577484 0.000000
0.816956 0.577484 0.000000
0.853180 0.577484 0.000000
0.889618 0.577484 0.000000
0.926208 0.577484 0.000000
0.963013 0.577484 0.000000
1.000000 0.577484 0.000000
0.000000 0.609894 0.000000
0.019318 0.609894 0.000000
0.042847 0.609894 0.000000
0.068268 0.609894 0.000000
0.095032 0.609894 0.000000
0.122772 0.609894 0.000000
0.151428 0.609894 0.000000
0.180786 0.609894 0.000000
0.210785 0.609894 0.000000
0.241333 0.609894 0.000000
0.272400 0.609894 0.000000
0.303925 0.609894 0.000000
0.335907 0.609894 0.000000
0.368286 0.609894 0.000000
0.401031 0.609894 0.000000
0.434113 0.609894 0.000000
0.467560 0.609894 0.000000
0.501312 0.609894 0.000000
0.535339 0.609894 0.000000
0.569702 0.609894 0.000000
0.604279 0.609894 0.000000
0.639130 0.609894 0.000000
0.674225 0.609894 0.000000
0.709564 0.609894 0.000000
0.745148 0.609894 0.000000
0.780945 0.609894 0.000000
0.816956 0.609894 0.000000
0.853180 0.609894 0.000000
0.889618 0.609894 0.000000
0.926208 0.609894 0.000000
0.963013 0.609894 0.000000
1.000000 0.609894 0.000000
0.000000 0.642334 0.000000
0.019318 0.642334 0.000000
0.042847 0.642334 0.000000
0.068268 0.642334 0.000000
0.095032 0.642334 0.000000
0.122772 0.642334 0.000000
0.151428 0.642334 0.000000
0.180786 0.642334 0.000000
0.210785 0.642334 0.000000
0.241333 0.642334 0.000000
0.272400 0.642334 0.000000
0.303925 0.642334 0.000000
0.335907 0.642334 0.000000
0.368286 0.642334 0.000000
0.401031 0.642334 0.000000
0.434113 0.642334 0.000000
0.467560 0.642334 0.000000
0.501312 0.642334 0.000000
0.535339 0.642334 0.000000
0.569702 0.642334 0.000000
0.604279 0.642334 0.000000
0.639130 0.642334 0.000000
0.674225 0.642334 0.000000
0.709564 0.642334 0.000000
0.745148 0.642334 0.000000
0.780945 0.642334 0.000000
0.816956 0.642334 0.000000
0.853180 0.642334 0.000000
0.889618 0.642334 0.000000
0.926208 0.642334 0.000000
0.963013 0.642334 0.000000
1.000000 0.642334 0.000000
0.000000 0.674774 0.000000
0.019318 0.674774 0.000000
0.042847 0.674774 0.000000
0.068268 0.674774 0.000000
0.095032 0.674774 0.000000
0.122772 0.674774 0.000000
0.151428 0.674774 0.000000
0.180786 0.674774 0.000000
0.210785 0.674774 0.000000
0.241333 0.674774 0.000000
0.272400 0.674774 0.000000
0.303925 0.674774 0.000000
0.335907 0.674774 0.000000
0.368286 0.674774 0.000000
0.401031 0.674774 0.000000
0.434113 0.674774 0.000000
0.467560 0.674774 0.000000
0.501312 0.674774 0.000000
0.535339 0.674774 0.000000
0.569702 0.674774 0.000000
0.604279 0.674774 0.000000
0.639130 0.674774 0.000000
0.674225 0.674774 0.000000
0.709564 0.674774 0.000000
0.745148 0.674774 0.000000
0.780945 0.674774 0.000000
0.816956 0.674774 0.000000
0.853180 0.674774 0.000000
0.889618 0.674774 0.000000
0.926208 0.674774 0.000000
0.963013 0.674774 0.000000
1.000000 0.674774 0.000000
0.000000 0.707245 0.000000
0.019318 0.707245 0.000000
0.042847 0.707245 0.000000
0.068268 0.707245 0.000000
0.095032 0.707245 0.000000
0.122772 0.707245 0.000000
0.151428 0.707245 0.000000
0.180786 0.707245 0.000000
0.210785 0.707245 0.000000
0.241333 0.707245 0.000000
0.272400 0.707245 0.000000
0.303925 0.707245 0.000000
0.335907 0.707245 0.000000
0.368286 0.707245 0.000000
0.401031 0.707245 0.000000
0.434113 0.707245 0.000000
0.467560 0.707245 0.000000
0.501312 0.707245 0.000000
0.535339 0.707245 0.000000
0.569702 0.707245 0.000000
0.604279 0.707245 0.000000
0.639130 0.707245 0.000000
0.674225 0.707245 0.000000
0.709564 0.707245 0.000000
0.745148 0.707245 0.000000
0.780945 0.707245 0.000000
0.816956 0.707245 0.000000
0.853180 0.707245 0.000000
0.889618 0.707245 0.000000
0.926208 0.707245 0.000000
0.963013 0.707245 0.000000
1.000000 0.707245 0.000000
0.000000 0.739716 0.000000
0.019318 0.739716 0.000000
0.042847 0.739716 0.000000
0.068268 0.739716 0.000000
0.095032 0.739716 0.000000
0.122772 0.739716 0.000000
0.151428 0.739716 0.000000
0.180786 0.739716 0.000000
0.210785 0.739716 0.000000
0.241333 0.739716 0.000000
0.272400 0.739716 0.000000
0.303925 0.739716 0.000000
0.335907 0.739716 0.000000
0.368286 0.739716 0.000000
0.401031 0.739716 0.000000
0.434113 0.739716 0.000000
0.467560 0.739716 0.000000
0.501312 0.739716 0.000000
0.535339 0.739716 0.000000
0.569702 0.739716 0.000000
0.604279 0.739716 0.000000
0.639130 0.739716 0.000000
0.674225 0.739716 0.000000
0.709564 0.739716 0.000000
0.745148 0.739716 0.000000
0.780945 0.739716 0.000000
0.816956 0.739716 0.000000
0.853180 0.739716 0.000000
0.889618 0.739716 0.000000
0.926208 0.739716 0.000000
0.963013 0.739716 0.000000
1.000000 0.739716 0.000000
0.000000 0.772186 0.000000
0.019318 0.772186 0.000000
0.042847 0.772186 0.000000
0.068268 0.772186 0.000000
0.095032 0.772186 0.000000
0.122772 0.772186 0.000000
0.151428 0.772186 0.000000
0.180786 0.772186 0.000000
0.210785 0.772186 0.000000
0.241333 0.772186 0.000000
0.272400 0.772186 0.000000
0.303925 0.772186 0.000000
0.335907 0.772186 0.000000
0.368286 0.772186 0.000000
0.401031 0.772186 0.000000
0.434113 0.772186 0.000000
0.467560 0.772186 0.000000
0.501312 0.772186 0.000000
0.535339 0.772186 0.000000
0.569702 0.772186 0.000000
0.604279 0.772186 0.000000
0.639130 0.772186 0.000000
0.674225 0.772186 0.000000
0.709564 0.772186 0.000000
0.745148 0.772186 0.000000
0.780945 0.772186 0.000000
0.816956 0.772186 0.000000
0.853180 0.772186 0.000000
0.889618 0.772186 0.000000
0.926208 0.772186 0.000000
0.963013 0.772186 0.000000
1.000000 0.772186 0.000000
0.000000 0.804718 0.000000
0.019318 0.804718 0.000000
0.042847 0.804718 0.000000
0.068268 0.804718 0.000000
0.095032 0.804718 0.000000
0.122772 0.804718 0.000000
0.151428 0.804718 0.000000
0.180786 0.804718 0.000000
0.210785 0.804718 0.000000
0.241333 0.804718 0.000000
0.272400 0.804718 0.000000
0.303925 0.804718 0.000000
0.335907 0.804718 0.000000
0.368286 0.804718 0.000000
0.401031 0.804718 0.000000
0.434113 0.804718 0.000000
0.467560 0.804718 0.000000
0.501312 0.804718 0.000000
0.535339 0.804718 0.000000
0.569702 0.804718 0.000000
0.604279 0.804718 0.000000
0.639130 0.804718 0.000000
0.674225 0.804718 0.000000
0.709564 0.804718 0.000000
0.745148 0.804718 0.000000
0.780945 0.804718 0.000000
0.816956 0.804718 0.000000
0.853180 0.804718 0.000000
0.889618 0.804718 0.000000
0.926208 0.804718 0.000000
0.963013 0.804718 0.000000
1.000000 0.804718 0.000000
0.000000 0.837219 0.000000
0.019318 0.837219 0.000000
0.042847 0.837219 0.000000
0.068268 0.837219 0.000000
0.095032 0.837219 0.000000
0.122772 0.837219 0.000000
0.151428 0.837219 0.000000
0.180786 0.837219 0.000000
0.210785 0.837219 0.000000
0.241333 0.837219 0.000000
0.272400 0.837219 0.000000
0.303925 0.837219 0.000000
0.335907 0.837219 0.000000
0.368286 0.837219 0.000000
0.401031 0.837219 0.000000
0.434113 0.837219 0.000000
0.467560 0.837219 0.000000
0.501312 0.837219 0.000000
0.535339 0.837219 0.000000
0.569702 0.837219 0.000000
0.604279 0.837219 0.000000
0.639130 0.837219 0.000000
0.674225 0.837219 0.000000
0.709564 0.837219 0.000000
0.745148 0.837219 0.000000
0.780945 0.837219 0.000000
0.816956 0.837219 0.000000
0.853180 0.837219 0.000000
0.889618 0.837219 0.000000
0.926208 0.837219 0.000000
0.963013 0.837219 0.000000
1.000000 0.837219 0.000000
0.000000 0.869751 0.000000
0.019318 0.869751 0.000000
0.042847 0.869751 0.000000
0.068268 0.869751 0.000000
0.095032 0.869751 0.000000
0.122772 0.869751 0.000000
0.151428 0.869751 0.000000
0.180786 0.869751 0.000000
0.210785 0.869751 0.000000
0.241333 0.869751 0.000000
0.272400 0.869751 0.000000
0.303925 0.869751 0.000000
0.335907 0.869751 0.000000
0.368286 0.869751 0.000000
0.401031 0.869751 0.000000
0.434113 0.869751 0.000000
0.467560 0.869751 0.000000
