public/luts/MOLM Helsinki Factory Product Painting - 3-Large.CUBE
#Created by: Adobe Photoshop Export Color Lookup Plugin
TITLE "MOLM Helsinki Factory Product Painting - 3-Large.psd"
#LUT size
LUT_3D_SIZE 8
#data domain
#LUT data points
DOMAIN_MIN 0.000000 0.000000 0.000000
DOMAIN_MAX 0.903226 0.903226 0.903226
0.000000 0.000000 0.000000
0.000000 0.000000 0.000000
0.000000 0.000000 0.000000
0.215912 0.000000 0.000000
0.354706 0.000000 0.000000
0.488220 0.000000 0.000000
0.621826 0.000000 0.000000
0.757019 0.000000 0.000000
0.000000 0.000000 0.000000
0.000000 0.000000 0.000000
0.000000 0.000000 0.000000
0.215912 0.000000 0.000000
0.354706 0.000000 0.000000
0.488220 0.000000 0.000000
0.621826 0.000000 0.000000
0.757019 0.000000 0.000000
0.000000 0.000000 0.000000
0.000000 0.000000 0.000000
0.000000 0.000000 0.000000
0.215912 0.000000 0.000000
0.354706 0.000000 0.000000
0.488220 0.000000 0.000000
0.621826 0.000000 0.000000
0.757019 0.000000 0.000000
0.000000 0.215912 0.000000
0.000000 0.215912 0.000000
0.000000 0.215912 0.000000
0.215912 0.215912 0.000000
0.354706 0.215912 0.000000
0.488220 0.215912 0.000000
0.621826 0.215912 0.000000
0.757019 0.215912 0.000000
0.000000 0.354706 0.000000
0.000000 0.354706 0.000000
0.000000 0.354706 0.000000
0.215912 0.354706 0.000000
0.354706 0.354706 0.000000
0.488220 0.354706 0.000000
0.621826 0.354706 0.000000
0.757019 0.354706 0.000000
0.000000 0.488220 0.000000
0.000000 0.488220 0.000000
0.000000 0.488220 0.000000
0.215912 0.488220 0.000000
0.354706 0.488220 0.000000
0.488220 0.488220 0.000000
0.621826 0.488220 0.000000
0.757019 0.488220 0.000000
0.000000 0.621826 0.000000
0.000000 0.621826 0.000000
0.000000 0.621826 0.000000
0.215912 0.621826 0.000000
0.354706 0.621826 0.000000
0.488220 0.621826 0.000000
0.621826 0.621826 0.000000
0.757019 0.621826 0.000000
0.000000 0.757019 0.000000
0.000000 0.757019 0.000000
0.000000 0.757019 0.000000
0.215912 0.757019 0.000000
0.354706 0.757019 0.000000
0.488220 0.757019 0.000000
0.621826 0.757019 0.000000
0.757019 0.757019 0.000000
0.000000 0.000000 0.000000
0.000000 0.000000 0.000000
0.000000 0.000000 0.000000
0.215912 0.000000 0.000000
0.354706 0.000000 0.000000
0.488220 0.000000 0.000000
0.621826 0.000000 0.000000
0.757019 0.000000 0.000000
0.000000 0.000000 0.000000
0.000000 0.000000 0.000000
0.000000 0.000000 0.000000
0.215912 0.000000 0.000000
0.354706 0.000000 0.000000
0.488220 0.000000 0.000000
0.621826 0.000000 0.000000
0.757019 0.000000 0.000000
0.000000 0.000000 0.000000
0.000000 0.000000 0.000000
0.000000 0.000000 0.000000
0.215912 0.000000 0.000000
0.354706 0.000000 0.000000
0.488220 0.000000 0.000000
0.621826 0.000000 0.000000
0.757019 0.000000 0.000000
0.000000 0.215912 0.000000
0.000000 0.215912 0.000000
0.000000 0.215912 0.000000
0.215912 0.215912 0.000000
0.354706 0.215912 0.000000
0.488220 0.215912 0.000000
0.621826 0.215912 0.000000
0.757019 0.215912 0.000000
0.000000 0.354706 0.000000
0.000000 0.354706 0.000000
0.000000 0.354706 0.000000
0.215912 0.354706 0.000000
0.354706 0.354706 0.000000
0.488220 0.354706 0.000000
0.621826 0.354706 0.000000
0.757019 0.354706 0.000000
0.000000 0.488220 0.000000
0.000000 0.488220 0.000000
0.000000 0.488220 0.000000
0.215912 0.488220 0.000000
0.354706 0.488220 0.000000
0.488220 0.488220 0.000000
0.621826 0.488220 0.000000
0.757019 0.488220 0.000000
0.000000 0.621826 0.000000
0.000000 0.621826 0.000000
0.000000 0.621826 0.000000
0.215912 0.621826 0.000000
0.354706 0.621826 0.000000
0.488220 0.621826 0.000000
0.621826 0.621826 0.000000
0.757019 0.621826 0.000000
0.000000 0.757019 0.000000
0.000000 0.757019 0.000000
0.000000 0.757019 0.000000
0.215912 0.757019 0.000000
0.354706 0.757019 0.000000
0.488220 0.757019 0.000000
0.621826 0.757019 0.000000
0.757019 0.757019 0.000000
0.000000 0.000000 0.000000
0.000000 0.000000 0.000000
0.000000 0.000000 0.000000
0.215912 0.000000 0.000000
0.354706 0.000000 0.000000
0.488220 0.000000 0.000000
0.621826 0.000000 0.000000
0.757019 0.000000 0.000000
0.000000 0.000000 0.000000
0.000000 0.000000 0.000000
0.000000 0.000000 0.000000
0.215912 0.000000 0.000000
0.354706 0.000000 0.000000
0.488220 0.000000 0.000000
0.621826 0.000000 0.000000
0.757019 0.000000 0.000000
0.000000 0.000000 0.000000
0.000000 0.000000 0.000000
0.000000 0.000000 0.000000
0.215912 0.000000 0.000000
0.354706 0.000000 0.000000
0.488220 0.000000 0.000000
0.621826 0.000000 0.000000
0.757019 0.000000 0.000000
0.000000 0.215912 0.000000
0.000000 0.215912 0.000000
0.000000 0.215912 0.000000
0.215912 0.215912 0.000000
0.354706 0.215912 0.000000
0.488220 0.215912 0.000000
0.621826 0.215912 0.000000
0.757019 0.215912 0.000000
0.000000 0.354706 0.000000
0.000000 0.354706 0.000000
0.000000 0.354706 0.000000
0.215912 0.354706 0.000000
0.354706 0.354706 0.000000
0.488220 0.354706 0.000000
0.621826 0.354706 0.000000
0.757019 0.354706 0.000000
0.000000 0.488220 0.000000
0.000000 0.488220 0.000000
0.000000 0.488220 0.000000
0.215912 0.488220 0.000000
0.354706 0.488220 0.000000
0.488220 0.488220 0.000000
0.621826 0.488220 0.000000
0.757019 0.488220 0.000000
0.000000 0.621826 0.000000
0.000000 0.621826 0.000000
0.000000 0.621826 0.000000
0.215912 0.621826 0.000000
0.354706 0.621826 0.000000
0.488220 0.621826 0.000000
0.621826 0.621826 0.000000
0.757019 0.621826 0.000000
0.000000 0.757019 0.000000
0.000000 0.757019 0.000000
0.000000 0.757019 0.000000
0.215912 0.757019 0.000000
0.354706 0.757019 0.000000
0.488220 0.757019 0.000000
0.621826 0.757019 0.000000
0.757019 0.757019 0.000000
0.000000 0.000000 0.215912
0.000000 0.000000 0.215912
0.000000 0.000000 0.215912
0.215912 0.000000 0.215912
0.354706 0.000000 0.215912
0.488220 0.000000 0.215912
0.621826 0.000000 0.215912
0.757019 0.000000 0.215912
0.000000 0.000000 0.215912
0.000000 0.000000 0.215912
0.000000 0.000000 0.215912
0.215912 0.000000 0.215912
0.354706 0.000000 0.215912
0.488220 0.000000 0.215912
0.621826 0.000000 0.215912
0.757019 0.000000 0.215912
0.000000 0.000000 0.215912
0.000000 0.000000 0.215912
0.000000 0.000000 0.215912
0.215912 0.000000 0.215912
0.354706 0.000000 0.215912
0.488220 0.000000 0.215912
0.621826 0.000000 0.215912
0.757019 0.000000 0.215912
0.000000 0.215912 0.215912
0.000000 0.215912 0.215912
0.000000 0.215912 0.215912
0.215912 0.215912 0.215912
0.354706 0.215912 0.215912
0.488220 0.215912 0.215912
0.621826 0.215912 0.215912
0.757019 0.215912 0.215912
0.000000 0.354706 0.215912
0.000000 0.354706 0.215912
0.000000 0.354706 0.215912
0.215912 0.354706 0.215912
0.354706 0.354706 0.215912
0.488220 0.354706 0.215912
0.621826 0.354706 0.215912
0.757019 0.354706 0.215912
0.000000 0.488220 0.215912
0.000000 0.488220 0.215912
0.000000 0.488220 0.215912
0.215912 0.488220 0.215912
0.354706 0.488220 0.215912
0.488220 0.488220 0.215912
0.621826 0.488220 0.215912
0.757019 0.488220 0.215912
0.000000 0.621826 0.215912
0.000000 0.621826 0.215912
0.000000 0.621826 0.215912
0.215912 0.621826 0.215912
0.354706 0.621826 0.215912
0.488220 0.621826 0.215912
0.621826 0.621826 0.215912
0.757019 0.621826 0.215912
0.000000 0.757019 0.215912
0.000000 0.757019 0.215912
0.000000 0.757019 0.215912
0.215912 0.757019 0.215912
0.354706 0.757019 0.215912
0.488220 0.757019 0.215912
0.621826 0.757019 0.215912
0.757019 0.757019 0.215912
0.000000 0.000000 0.354706
0.000000 0.000000 0.354706
0.000000 0.000000 0.354706
0.215912 0.000000 0.354706
0.354706 0.000000 0.354706
0.488220 0.000000 0.354706
0.621826 0.000000 0.354706
0.757019 0.000000 0.354706
0.000000 0.000000 0.354706
0.000000 0.000000 0.354706
0.000000 0.000000 0.354706
0.215912 0.000000 0.354706
0.354706 0.000000 0.354706
0.488220 0.000000 0.354706
0.621826 0.000000 0.354706
0.757019 0.000000 0.354706
0.000000 0.000000 0.354706
0.000000 0.000000 0.354706
0.000000 0.000000 0.354706
0.215912 0.000000 0.354706
0.354706 0.000000 0.354706
0.488220 0.000000 0.354706
0.621826 0.000000 0.354706
0.757019 0.000000 0.354706
0.000000 0.215912 0.354706
0.000000 0.215912 0.354706
0.000000 0.215912 0.354706
0.215912 0.215912 0.354706
0.354706 0.215912 0.354706
0.488220 0.215912 0.354706
0.621826 0.215912 0.354706
0.757019 0.215912 0.354706
0.000000 0.354706 0.354706
0.000000 0.354706 0.354706
0.000000 0.354706 0.354706
0.215912 0.354706 0.354706
0.354706 0.354706 0.354706
0.488220 0.354706 0.354706
0.621826 0.354706 0.354706
0.757019 0.354706 0.354706
0.000000 0.488220 0.354706
0.000000 0.488220 0.354706
0.000000 0.488220 0.354706
0.215912 0.488220 0.354706
0.354706 0.488220 0.354706
0.488220 0.488220 0.354706
0.621826 0.488220 0.354706
0.757019 0.488220 0.354706
0.000000 0.621826 0.354706
0.000000 0.621826 0.354706
0.000000 0.621826 0.354706
0.215912 0.621826 0.354706
0.354706 0.621826 0.354706
0.488220 0.621826 0.354706
0.621826 0.621826 0.354706
0.757019 0.621826 0.354706
0.000000 0.757019 0.354706
0.000000 0.757019 0.354706
0.000000 0.757019 0.354706
0.215912 0.757019 0.354706
0.354706 0.757019 0.354706
0.488220 0.757019 0.354706
0.621826 0.757019 0.354706
0.757019 0.757019 0.354706
0.000000 0.000000 0.488220
0.000000 0.000000 0.488220
0.000000 0.000000 0.488220
0.215912 0.000000 0.488220
0.354706 0.000000 0.488220
0.488220 0.000000 0.488220
0.621826 0.000000 0.488220
0.757019 0.000000 0.488220
0.000000 0.000000 0.488220
0.000000 0.000000 0.488220
0.000000 0.000000 0.488220
0.215912 0.000000 0.488220
0.354706 0.000000 0.488220
0.488220 0.000000 0.488220
0.621826 0.000000 0.488220
0.757019 0.000000 0.488220
0.000000 0.000000 0.488220
0.000000 0.000000 0.488220
0.000000 0.000000 0.488220
0.215912 0.000000 0.488220
0.354706 0.000000 0.488220
0.488220 0.000000 0.488220
0.621826 0.000000 0.488220
0.757019 0.000000 0.488220
0.000000 0.215912 0.488220
0.000000 0.215912 0.488220
0.000000 0.215912 0.488220
0.215912 0.215912 0.488220
0.354706 0.215912 0.488220
0.488220 0.215912 0.488220
0.621826 0.215912 0.488220
0.757019 0.215912 0.488220
0.000000 0.354706 0.488220
0.000000 0.354706 0.488220
0.000000 0.354706 0.488220
0.215912 0.354706 0.488220
0.354706 0.354706 0.488220
0.488220 0.354706 0.488220
0.621826 0.354706 0.488220
0.757019 0.354706 0.488220
0.000000 0.488220 0.488220
0.000000 0.488220 0.488220
0.000000 0.488220 0.488220
0.215912 0.488220 0.488220
0.354706 0.488220 0.488220
0.488220 0.488220 0.488220
0.621826 0.488220 0.488220
0.757019 0.488220 0.488220
0.000000 0.621826 0.488220
0.000000 0.621826 0.488220
0.000000 0.621826 0.488220
0.215912 0.621826 0.488220
0.354706 0.621826 0.488220
0.488220 0.621826 0.488220
0.621826 0.621826 0.488220
0.757019 0.621826 0.488220
0.000000 0.757019 0.488220
0.000000 0.757019 0.488220
0.000000 0.757019 0.488220
0.215912 0.757019 0.488220
0.354706 0.757019 0.488220
0.488220 0.757019 0.488220
0.621826 0.757019 0.488220
0.757019 0.757019 0.488220
0.000000 0.000000 0.621826
0.000000 0.000000 0.621826
0.000000 0.000000 0.621826
0.215912 0.000000 0.621826
0.354706 0.000000 0.621826
0.488220 0.000000 0.621826
0.621826 0.000000 0.621826
0.757019 0.000000 0.621826
0.000000 0.000000 0.621826
0.000000 0.000000 0.621826
0.000000 0.000000 0.621826
0.215912 0.000000 0.621826
0.354706 0.000000 0.621826
0.488220 0.000000 0.621826
0.621826 0.000000 0.621826
0.757019 0.000000 0.621826
0.000000 0.000000 0.621826
0.000000 0.000000 0.621826
0.000000 0.000000 0.621826
0.215912 0.000000 0.621826
0.354706 0.000000 0.621826
0.488220 0.000000 0.621826
0.621826 0.000000 0.621826
0.757019 0.000000 0.621826
0.000000 0.215912 0.621826
0.000000 0.215912 0.621826
0.000000 0.215912 0.621826
0.215912 0.215912 0.621826
0.354706 0.215912 0.621826
0.488220 0.215912 0.621826
0.621826 0.215912 0.621826
0.757019 0.215912 0.621826
0.000000 0.354706 0.621826
0.000000 0.354706 0.621826
0.000000 0.354706 0.621826
0.215912 0.354706 0.621826
0.354706 0.354706 0.621826
0.488220 0.354706 0.621826
0.621826 0.354706 0.621826
0.757019 0.354706 0.621826
0.000000 0.488220 0.621826
0.000000 0.488220 0.621826
0.000000 0.488220 0.621826
0.215912 0.488220 0.621826
0.354706 0.488220 0.621826
0.488220 0.488220 0.621826
0.621826 0.488220 0.621826
0.757019 0.488220 0.621826
0.000000 0.621826 0.621826
0.000000 0.621826 0.621826
0.000000 0.621826 0.621826
0.215912 0.621826 0.621826
0.354706 0.621826 0.621826
0.488220 0.621826 0.621826
0.621826 0.621826 0.621826
0.757019 0.621826 0.621826
0.000000 0.757019 0.621826
0.000000 0.757019 0.621826
0.000000 0.757019 0.621826
0.215912 0.757019 0.621826
0.354706 0.757019 0.621826
0.488220 0.757019 0.621826
0.621826 0.757019 0.621826
0.757019 0.757019 0.621826
0.000000 0.000000 0.757019
0.000000 0.000000 0.757019
0.000000 0.000000 0.757019
0.215912 0.000000 0.757019
0.354706 0.000000 0.757019
0.488220 0.000000 0.757019
0.621826 0.000000 0.757019
0.757019 0.000000 0.757019
0.000000 0.000000 0.757019
0.000000 0.000000 0.757019
0.000000 0.000000 0.757019
0.215912 0.000000 0.757019
0.354706 0.000000 0.757019
0.488220 0.000000 0.757019
0.621826 0.000000 0.757019
0.757019 0.000000 0.757019
0.000000 0.000000 0.757019
0.000000 0.000000 0.757019
0.000000 0.000000 0.757019
0.215912 0.000000 0.757019
0.354706 0.000000 0.757019
0.488220 0.000000 0.757019
0.621826 0.000000 0.757019
0.757019 0.000000 0.757019
0.000000 0.215912 0.757019
0.000000 0.215912 0.757019
0.000000 0.215912 0.757019
0.215912 0.215912 0.757019
0.354706 0.215912 0.757019
0.488220 0.215912 0.757019
0.621826 0.215912 0.757019
0.757019 0.215912 0.757019
0.000000 0.354706 0.757019
0.000000 0.354706 0.757019
0.000000 0.354706 0.757019
0.215912 0.354706 0.757019
0.354706 0.354706 0.757019
0.488220 0.354706 0.757019
0.621826 0.354706 0.757019
0.757019 0.354706 0.757019
0.000000 0.488220 0.757019
0.000000 0.488220 0.757019
0.000000 0.488220 0.757019
0.215912 0.488220 0.757019
0.354706 0.488220 0.757019
0.488220 0.488220 0.757019
0.621826 0.488220 0.757019
0.757019 0.488220 0.757019
0.000000 0.621826 0.757019
0.000000 0.621826 0.757019
0.000000 0.621826 0.757019
0.215912 0.621826 0.757019
0.354706 0.621826 0.757019
0.488220 0.621826 0.757019
0.621826 0.621826 0.757019
0.757019 0.621826 0.757019
0.000000 0.757019 0.757019
0.000000 0.757019 0.757019
0.000000 0.757019 0.757019
0.215912 0.757019 0.757019
0.354706 0.757019 0.757019
0.488220 0.757019 0.757019
0.621826 0.757019 0.757019
0.757019 0.757019 0.757019
