public/luts/MOLM Västerås Factory Manufacturing - 17-Large_2.CUBE
#Created by: Adobe Photoshop Export Color Lookup Plugin
TITLE "MOLM Västerås Factory Manufacturing - 17-Large_2.psd"
#LUT size
LUT_3D_SIZE 32
#data domain
DOMAIN_MIN 0.0 0.0 0.0
DOMAIN_MAX 1.0 1.0 1.0
#LUT data points
0.000000 0.000000 0.000000
0.017609 0.000000 0.000000
0.039795 0.000000 0.000000
0.064087 0.000000 0.000000
0.089905 0.000000 0.000000
0.116882 0.000000 0.000000
0.144836 0.000000 0.000000
0.173645 0.000000 0.000000
0.203186 0.000000 0.000000
0.233398 0.000000 0.000000
0.264191 0.000000 0.000000
0.295532 0.000000 0.000000
0.327393 0.000000 0.000000
0.359711 0.000000 0.000000
0.392487 0.000000 0.000000
0.425690 0.000000 0.000000
0.459290 0.000000 0.000000
0.493225 0.000000 0.000000
0.527527 0.000000 0.000000
0.562195 0.000000 0.000000
0.597168 0.000000 0.000000
0.632446 0.000000 0.000000
0.668030 0.000000 0.000000
0.703888 0.000000 0.000000
0.740021 0.000000 0.000000
0.776398 0.000000 0.000000
0.813080 0.000000 0.000000
0.850006 0.000000 0.000000
0.887146 0.000000 0.000000
0.924561 0.000000 0.000000
0.962158 0.000000 0.000000
1.000000 0.000000 0.000000
0.000000 0.031158 0.000000
0.017609 0.031158 0.000000
0.039795 0.031158 0.000000
0.064087 0.031158 0.000000
0.089905 0.031158 0.000000
0.116882 0.031158 0.000000
0.144836 0.031158 0.000000
0.173645 0.031158 0.000000
0.203186 0.031158 0.000000
0.233398 0.031158 0.000000
0.264191 0.031158 0.000000
0.295532 0.031158 0.000000
0.327393 0.031158 0.000000
0.359711 0.031158 0.000000
0.392487 0.031158 0.000000
0.425690 0.031158 0.000000
0.459290 0.031158 0.000000
0.493225 0.031158 0.000000
0.527527 0.031158 0.000000
0.562195 0.031158 0.000000
0.597168 0.031158 0.000000
0.632446 0.031158 0.000000
0.668030 0.031158 0.000000
0.703888 0.031158 0.000000
0.740021 0.031158 0.000000
0.776398 0.031158 0.000000
0.813080 0.031158 0.000000
0.850006 0.031158 0.000000
0.887146 0.031158 0.000000
0.924561 0.031158 0.000000
0.962158 0.031158 0.000000
1.000000 0.031158 0.000000
0.000000 0.062744 0.000000
0.017609 0.062744 0.000000
0.039795 0.062744 0.000000
0.064087 0.062744 0.000000
0.089905 0.062744 0.000000
0.116882 0.062744 0.000000
0.144836 0.062744 0.000000
0.173645 0.062744 0.000000
0.203186 0.062744 0.000000
0.233398 0.062744 0.000000
0.264191 0.062744 0.000000
0.295532 0.062744 0.000000
0.327393 0.062744 0.000000
0.359711 0.062744 0.000000
0.392487 0.062744 0.000000
0.425690 0.062744 0.000000
0.459290 0.062744 0.000000
0.493225 0.062744 0.000000
0.527527 0.062744 0.000000
0.562195 0.062744 0.000000
0.597168 0.062744 0.000000
0.632446 0.062744 0.000000
0.668030 0.062744 0.000000
0.703888 0.062744 0.000000
0.740021 0.062744 0.000000
0.776398 0.062744 0.000000
0.813080 0.062744 0.000000
0.850006 0.062744 0.000000
0.887146 0.062744 0.000000
0.924561 0.062744 0.000000
0.962158 0.062744 0.000000
1.000000 0.062744 0.000000
0.000000 0.094513 0.000000
0.017609 0.094513 0.000000
0.039795 0.094513 0.000000
0.064087 0.094513 0.000000
0.089905 0.094513 0.000000
0.116882 0.094513 0.000000
0.144836 0.094513 0.000000
0.173645 0.094513 0.000000
0.203186 0.094513 0.000000
0.233398 0.094513 0.000000
0.264191 0.094513 0.000000
0.295532 0.094513 0.000000
0.327393 0.094513 0.000000
0.359711 0.094513 0.000000
0.392487 0.094513 0.000000
0.425690 0.094513 0.000000
0.459290 0.094513 0.000000
0.493225 0.094513 0.000000
0.527527 0.094513 0.000000
0.562195 0.094513 0.000000
0.597168 0.094513 0.000000
0.632446 0.094513 0.000000
0.668030 0.094513 0.000000
0.703888 0.094513 0.000000
0.740021 0.094513 0.000000
0.776398 0.094513 0.000000
0.813080 0.094513 0.000000
0.850006 0.094513 0.000000
0.887146 0.094513 0.000000
0.924561 0.094513 0.000000
0.962158 0.094513 0.000000
1.000000 0.094513 0.000000
0.000000 0.126373 0.000000
0.017609 0.126373 0.000000
0.039795 0.126373 0.000000
0.064087 0.126373 0.000000
0.089905 0.126373 0.000000
0.116882 0.126373 0.000000
0.144836 0.126373 0.000000
0.173645 0.126373 0.000000
0.203186 0.126373 0.000000
0.233398 0.126373 0.000000
0.264191 0.126373 0.000000
0.295532 0.126373 0.000000
0.327393 0.126373 0.000000
0.359711 0.126373 0.000000
0.392487 0.126373 0.000000
0.425690 0.126373 0.000000
0.459290 0.126373 0.000000
0.493225 0.126373 0.000000
0.527527 0.126373 0.000000
0.562195 0.126373 0.000000
0.597168 0.126373 0.000000
0.632446 0.126373 0.000000
0.668030 0.126373 0.000000
0.703888 0.126373 0.000000
0.740021 0.126373 0.000000
0.776398 0.126373 0.000000
0.813080 0.126373 0.000000
0.850006 0.126373 0.000000
0.887146 0.126373 0.000000
0.924561 0.126373 0.000000
0.962158 0.126373 0.000000
1.000000 0.126373 0.000000
0.000000 0.158325 0.000000
0.017609 0.158325 0.000000
0.039795 0.158325 0.000000
0.064087 0.158325 0.000000
0.089905 0.158325 0.000000
0.116882 0.158325 0.000000
0.144836 0.158325 0.000000
0.173645 0.158325 0.000000
0.203186 0.158325 0.000000
0.233398 0.158325 0.000000
0.264191 0.158325 0.000000
0.295532 0.158325 0.000000
0.327393 0.158325 0.000000
0.359711 0.158325 0.000000
0.392487 0.158325 0.000000
0.425690 0.158325 0.000000
0.459290 0.158325 0.000000
0.493225 0.158325 0.000000
0.527527 0.158325 0.000000
0.562195 0.158325 0.000000
0.597168 0.158325 0.000000
0.632446 0.158325 0.000000
0.668030 0.158325 0.000000
0.703888 0.158325 0.000000
0.740021 0.158325 0.000000
0.776398 0.158325 0.000000
0.813080 0.158325 0.000000
0.850006 0.158325 0.000000
0.887146 0.158325 0.000000
0.924561 0.158325 0.000000
0.962158 0.158325 0.000000
1.000000 0.158325 0.000000
0.000000 0.190369 0.000000
0.017609 0.190369 0.000000
0.039795 0.190369 0.000000
0.064087 0.190369 0.000000
0.089905 0.190369 0.000000
0.116882 0.190369 0.000000
0.144836 0.190369 0.000000
0.173645 0.190369 0.000000
0.203186 0.190369 0.000000
0.233398 0.190369 0.000000
0.264191 0.190369 0.000000
0.295532 0.190369 0.000000
0.327393 0.190369 0.000000
0.359711 0.190369 0.000000
0.392487 0.190369 0.000000
0.425690 0.190369 0.000000
0.459290 0.190369 0.000000
0.493225 0.190369 0.000000
0.527527 0.190369 0.000000
0.562195 0.190369 0.000000
0.597168 0.190369 0.000000
0.632446 0.190369 0.000000
0.668030 0.190369 0.000000
0.703888 0.190369 0.000000
0.740021 0.190369 0.000000
0.776398 0.190369 0.000000
0.813080 0.190369 0.000000
0.850006 0.190369 0.000000
0.887146 0.190369 0.000000
0.924561 0.190369 0.000000
0.962158 0.190369 0.000000
1.000000 0.190369 0.000000
0.000000 0.222443 0.000000
0.017609 0.222443 0.000000
0.039795 0.222443 0.000000
0.064087 0.222443 0.000000
0.089905 0.222443 0.000000
0.116882 0.222443 0.000000
0.144836 0.222443 0.000000
0.173645 0.222443 0.000000
0.203186 0.222443 0.000000
0.233398 0.222443 0.000000
0.264191 0.222443 0.000000
0.295532 0.222443 0.000000
0.327393 0.222443 0.000000
0.359711 0.222443 0.000000
0.392487 0.222443 0.000000
0.425690 0.222443 0.000000
0.459290 0.222443 0.000000
0.493225 0.222443 0.000000
0.527527 0.222443 0.000000
0.562195 0.222443 0.000000
0.597168 0.222443 0.000000
0.632446 0.222443 0.000000
0.668030 0.222443 0.000000
0.703888 0.222443 0.000000
0.740021 0.222443 0.000000
0.776398 0.222443 0.000000
0.813080 0.222443 0.000000
0.850006 0.222443 0.000000
0.887146 0.222443 0.000000
0.924561 0.222443 0.000000
0.962158 0.222443 0.000000
1.000000 0.222443 0.000000
0.000000 0.254547 0.000000
0.017609 0.254547 0.000000
0.039795 0.254547 0.000000
0.064087 0.254547 0.000000
0.089905 0.254547 0.000000
0.116882 0.254547 0.000000
0.144836 0.254547 0.000000
0.173645 0.254547 0.000000
0.203186 0.254547 0.000000
0.233398 0.254547 0.000000
0.264191 0.254547 0.000000
0.295532 0.254547 0.000000
0.327393 0.254547 0.000000
0.359711 0.254547 0.000000
0.392487 0.254547 0.000000
0.425690 0.254547 0.000000
0.459290 0.254547 0.000000
0.493225 0.254547 0.000000
0.527527 0.254547 0.000000
0.562195 0.254547 0.000000
0.597168 0.254547 0.000000
0.632446 0.254547 0.000000
0.668030 0.254547 0.000000
0.703888 0.254547 0.000000
0.740021 0.254547 0.000000
0.776398 0.254547 0.000000
0.813080 0.254547 0.000000
0.850006 0.254547 0.000000
0.887146 0.254547 0.000000
0.924561 0.254547 0.000000
0.962158 0.254547 0.000000
1.000000 0.254547 0.000000
0.000000 0.286713 0.000000
0.017609 0.286713 0.000000
0.039795 0.286713 0.000000
0.064087 0.286713 0.000000
0.089905 0.286713 0.000000
0.116882 0.286713 0.000000
0.144836 0.286713 0.000000
0.173645 0.286713 0.000000
0.203186 0.286713 0.000000
0.233398 0.286713 0.000000
0.264191 0.286713 0.000000
0.295532 0.286713 0.000000
0.327393 0.286713 0.000000
0.359711 0.286713 0.000000
0.392487 0.286713 0.000000
0.425690 0.286713 0.000000
0.459290 0.286713 0.000000
0.493225 0.286713 0.000000
0.527527 0.286713 0.000000
0.562195 0.286713 0.000000
0.597168 0.286713 0.000000
0.632446 0.286713 0.000000
0.668030 0.286713 0.000000
0.703888 0.286713 0.000000
0.740021 0.286713 0.000000
0.776398 0.286713 0.000000
0.813080 0.286713 0.000000
0.850006 0.286713 0.000000
0.887146 0.286713 0.000000
0.924561 0.286713 0.000000
0.962158 0.286713 0.000000
1.000000 0.286713 0.000000
0.000000 0.318909 0.000000
0.017609 0.318909 0.000000
0.039795 0.318909 0.000000
0.064087 0.318909 0.000000
0.089905 0.318909 0.000000
0.116882 0.318909 0.000000
0.144836 0.318909 0.000000
0.173645 0.318909 0.000000
0.203186 0.318909 0.000000
0.233398 0.318909 0.000000
0.264191 0.318909 0.000000
0.295532 0.318909 0.000000
0.327393 0.318909 0.000000
0.359711 0.318909 0.000000
0.392487 0.318909 0.000000
0.425690 0.318909 0.000000
0.459290 0.318909 0.000000
0.493225 0.318909 0.000000
0.527527 0.318909 0.000000
0.562195 0.318909 0.000000
0.597168 0.318909 0.000000
0.632446 0.318909 0.000000
0.668030 0.318909 0.000000
0.703888 0.318909 0.000000
0.740021 0.318909 0.000000
0.776398 0.318909 0.000000
0.813080 0.318909 0.000000
0.850006 0.318909 0.000000
0.887146 0.318909 0.000000
0.924561 0.318909 0.000000
0.962158 0.318909 0.000000
1.000000 0.318909 0.000000
0.000000 0.351135 0.000000
0.017609 0.351135 0.000000
0.039795 0.351135 0.000000
0.064087 0.351135 0.000000
0.089905 0.351135 0.000000
0.116882 0.351135 0.000000
0.144836 0.351135 0.000000
0.173645 0.351135 0.000000
0.203186 0.351135 0.000000
0.233398 0.351135 0.000000
0.264191 0.351135 0.000000
0.295532 0.351135 0.000000
0.327393 0.351135 0.000000
0.359711 0.351135 0.000000
0.392487 0.351135 0.000000
0.425690 0.351135 0.000000
0.459290 0.351135 0.000000
0.493225 0.351135 0.000000
0.527527 0.351135 0.000000
0.562195 0.351135 0.000000
0.597168 0.351135 0.000000
0.632446 0.351135 0.000000
0.668030 0.351135 0.000000
0.703888 0.351135 0.000000
0.740021 0.351135 0.000000
0.776398 0.351135 0.000000
0.813080 0.351135 0.000000
0.850006 0.351135 0.000000
0.887146 0.351135 0.000000
0.924561 0.351135 0.000000
0.962158 0.351135 0.000000
1.000000 0.351135 0.000000
0.000000 0.383392 0.000000
0.017609 0.383392 0.000000
0.039795 0.383392 0.000000
0.064087 0.383392 0.000000
0.089905 0.383392 0.000000
0.116882 0.383392 0.000000
0.144836 0.383392 0.000000
0.173645 0.383392 0.000000
0.203186 0.383392 0.000000
0.233398 0.383392 0.000000
0.264191 0.383392 0.000000
0.295532 0.383392 0.000000
0.327393 0.383392 0.000000
0.359711 0.383392 0.000000
0.392487 0.383392 0.000000
0.425690 0.383392 0.000000
0.459290 0.383392 0.000000
0.493225 0.383392 0.000000
0.527527 0.383392 0.000000
0.562195 0.383392 0.000000
0.597168 0.383392 0.000000
0.632446 0.383392 0.000000
0.668030 0.383392 0.000000
0.703888 0.383392 0.000000
0.740021 0.383392 0.000000
0.776398 0.383392 0.000000
0.813080 0.383392 0.000000
0.850006 0.383392 0.000000
0.887146 0.383392 0.000000
0.924561 0.383392 0.000000
0.962158 0.383392 0.000000
1.000000 0.383392 0.000000
0.000000 0.415680 0.000000
0.017609 0.415680 0.000000
0.039795 0.415680 0.000000
0.064087 0.415680 0.000000
0.089905 0.415680 0.000000
0.116882 0.415680 0.000000
0.144836 0.415680 0.000000
0.173645 0.415680 0.000000
0.203186 0.415680 0.000000
0.233398 0.415680 0.000000
0.264191 0.415680 0.000000
0.295532 0.415680 0.000000
0.327393 0.415680 0.000000
0.359711 0.415680 0.000000
0.392487 0.415680 0.000000
0.425690 0.415680 0.000000
0.459290 0.415680 0.000000
0.493225 0.415680 0.000000
0.527527 0.415680 0.000000
0.562195 0.415680 0.000000
0.597168 0.415680 0.000000
0.632446 0.415680 0.000000
0.668030 0.415680 0.000000
0.703888 0.415680 0.000000
0.740021 0.415680 0.000000
0.776398 0.415680 0.000000
0.813080 0.415680 0.000000
0.850006 0.415680 0.000000
0.887146 0.415680 0.000000
0.924561 0.415680 0.000000
0.962158 0.415680 0.000000
1.000000 0.415680 0.000000
0.000000 0.447998 0.000000
0.017609 0.447998 0.000000
0.039795 0.447998 0.000000
0.064087 0.447998 0.000000
0.089905 0.447998 0.000000
0.116882 0.447998 0.000000
0.144836 0.447998 0.000000
0.173645 0.447998 0.000000
0.203186 0.447998 0.000000
0.233398 0.447998 0.000000
0.264191 0.447998 0.000000
0.295532 0.447998 0.000000
0.327393 0.447998 0.000000
0.359711 0.447998 0.000000
0.392487 0.447998 0.000000
0.425690 0.447998 0.000000
0.459290 0.447998 0.000000
0.493225 0.447998 0.000000
0.527527 0.447998 0.000000
0.562195 0.447998 0.000000
0.597168 0.447998 0.000000
0.632446 0.447998 0.000000
0.668030 0.447998 0.000000
0.703888 0.447998 0.000000
0.740021 0.447998 0.000000
0.776398 0.447998 0.000000
0.813080 0.447998 0.000000
0.850006 0.447998 0.000000
0.887146 0.447998 0.000000
0.924561 0.447998 0.000000
0.962158 0.447998 0.000000
1.000000 0.447998 0.000000
0.000000 0.480316 0.000000
0.017609 0.480316 0.000000
0.039795 0.480316 0.000000
0.064087 0.480316 0.000000
0.089905 0.480316 0.000000
0.116882 0.480316 0.000000
0.144836 0.480316 0.000000
0.173645 0.480316 0.000000
0.203186 0.480316 0.000000
0.233398 0.480316 0.000000
0.264191 0.480316 0.000000
0.295532 0.480316 0.000000
0.327393 0.480316 0.000000
0.359711 0.480316 0.000000
0.392487 0.480316 0.000000
0.425690 0.480316 0.000000
0.459290 0.480316 0.000000
0.493225 0.480316 0.000000
0.527527 0.480316 0.000000
0.562195 0.480316 0.000000
0.597168 0.480316 0.000000
0.632446 0.480316 0.000000
0.668030 0.480316 0.000000
0.703888 0.480316 0.000000
0.740021 0.480316 0.000000
0.776398 0.480316 0.000000
0.813080 0.480316 0.000000
0.850006 0.480316 0.000000
0.887146 0.480316 0.000000
0.924561 0.480316 0.000000
0.962158 0.480316 0.000000
1.000000 0.480316 0.000000
0.000000 0.512695 0.000000
0.017609 0.512695 0.000000
0.039795 0.512695 0.000000
0.064087 0.512695 0.000000
0.089905 0.512695 0.000000
0.116882 0.512695 0.000000
0.144836 0.512695 0.000000
0.173645 0.512695 0.000000
0.203186 0.512695 0.000000
0.233398 0.512695 0.000000
0.264191 0.512695 0.000000
0.295532 0.512695 0.000000
0.327393 0.512695 0.000000
0.359711 0.512695 0.000000
0.392487 0.512695 0.000000
0.425690 0.512695 0.000000
0.459290 0.512695 0.000000
0.493225 0.512695 0.000000
0.527527 0.512695 0.000000
0.562195 0.512695 0.000000
0.597168 0.512695 0.000000
0.632446 0.512695 0.000000
0.668030 0.512695 0.000000
0.703888 0.512695 0.000000
0.740021 0.512695 0.000000
0.776398 0.512695 0.000000
0.813080 0.512695 0.000000
0.850006 0.512695 0.000000
0.887146 0.512695 0.000000
0.924561 0.512695 0.000000
0.962158 0.512695 0.000000
1.000000 0.512695 0.000000
0.000000 0.545074 0.000000
0.017609 0.545074 0.000000
0.039795 0.545074 0.000000
0.064087 0.545074 0.000000
0.089905 0.545074 0.000000
0.116882 0.545074 0.000000
0.144836 0.545074 0.000000
0.173645 0.545074 0.000000
0.203186 0.545074 0.000000
0.233398 0.545074 0.000000
0.264191 0.545074 0.000000
0.295532 0.545074 0.000000
0.327393 0.545074 0.000000
0.359711 0.545074 0.000000
0.392487 0.545074 0.000000
0.425690 0.545074 0.000000
0.459290 0.545074 0.000000
0.493225 0.545074 0.000000
0.527527 0.545074 0.000000
0.562195 0.545074 0.000000
0.597168 0.545074 0.000000
0.632446 0.545074 0.000000
0.668030 0.545074 0.000000
0.703888 0.545074 0.000000
0.740021 0.545074 0.000000
0.776398 0.545074 0.000000
0.813080 0.545074 0.000000
0.850006 0.545074 0.000000
0.887146 0.545074 0.000000
0.924561 0.545074 0.000000
0.962158 0.545074 0.000000
1.000000 0.545074 0.000000
0.000000 0.577484 0.000000
0.017609 0.577484 0.000000
0.039795 0.577484 0.000000
0.064087 0.577484 0.000000
0.089905 0.577484 0.000000
0.116882 0.577484 0.000000
0.144836 0.577484 0.000000
0.173645 0.577484 0.000000
0.203186 0.577484 0.000000
0.233398 0.577484 0.000000
0.264191 0.577484 0.000000
0.295532 0.577484 0.000000
0.327393 0.577484 0.000000
0.359711 0.577484 0.000000
0.392487 0.577484 0.000000
0.425690 0.577484 0.000000
0.459290 0.577484 0.000000
0.493225 0.577484 0.000000
0.527527 0.577484 0.000000
0.562195 0.577484 0.000000
0.597168 0.577484 0.000000
0.632446 0.577484 0.000000
0.668030 0.577484 0.000000
0.703888 0.577484 0.000000
0.740021 0.577484 0.000000
0.776398 0.577484 0.000000
0.813080 0.577484 0.000000
0.850006 0.577484 0.000000
0.887146 0.577484 0.000000
0.924561 0.577484 0.000000
0.962158 0.577484 0.000000
1.000000 0.577484 0.000000
0.000000 0.609894 0.000000
0.017609 0.609894 0.000000
0.039795 0.609894 0.000000
0.064087 0.609894 0.000000
0.089905 0.609894 0.000000
0.116882 0.609894 0.000000
0.144836 0.609894 0.000000
0.173645 0.609894 0.000000
0.203186 0.609894 0.000000
0.233398 0.609894 0.000000
0.264191 0.609894 0.000000
0.295532 0.609894 0.000000
0.327393 0.609894 0.000000
0.359711 0.609894 0.000000
0.392487 0.609894 0.000000
0.425690 0.609894 0.000000
0.459290 0.609894 0.000000
0.493225 0.609894 0.000000
0.527527 0.609894 0.000000
0.562195 0.609894 0.000000
0.597168 0.609894 0.000000
0.632446 0.609894 0.000000
0.668030 0.609894 0.000000
0.703888 0.609894 0.000000
0.740021 0.609894 0.000000
0.776398 0.609894 0.000000
0.813080 0.609894 0.000000
0.850006 0.609894 0.000000
0.887146 0.609894 0.000000
0.924561 0.609894 0.000000
0.962158 0.609894 0.000000
1.000000 0.609894 0.000000
0.000000 0.642334 0.000000
0.017609 0.642334 0.000000
0.039795 0.642334 0.000000
0.064087 0.642334 0.000000
0.089905 0.642334 0.000000
0.116882 0.642334 0.000000
0.144836 0.642334 0.000000
0.173645 0.642334 0.000000
0.203186 0.642334 0.000000
0.233398 0.642334 0.000000
0.264191 0.642334 0.000000
0.295532 0.642334 0.000000
0.327393 0.642334 0.000000
0.359711 0.642334 0.000000
0.392487 0.642334 0.000000
0.425690 0.642334 0.000000
0.459290 0.642334 0.000000
0.493225 0.642334 0.000000
0.527527 0.642334 0.000000
0.562195 0.642334 0.000000
0.597168 0.642334 0.000000
0.632446 0.642334 0.000000
0.668030 0.642334 0.000000
0.703888 0.642334 0.000000
0.740021 0.642334 0.000000
0.776398 0.642334 0.000000
0.813080 0.642334 0.000000
0.850006 0.642334 0.000000
0.887146 0.642334 0.000000
0.924561 0.642334 0.000000
0.962158 0.642334 0.000000
1.000000 0.642334 0.000000
0.000000 0.674774 0.000000
0.017609 0.674774 0.000000
0.039795 0.674774 0.000000
0.064087 0.674774 0.000000
0.089905 0.674774 0.000000
0.116882 0.674774 0.000000
0.144836 0.674774 0.000000
0.173645 0.674774 0.000000
0.203186 0.674774 0.000000
0.233398 0.674774 0.000000
0.264191 0.674774 0.000000
0.295532 0.674774 0.000000
0.327393 0.674774 0.000000
0.359711 0.674774 0.000000
0.392487 0.674774 0.000000
0.425690 0.674774 0.000000
0.459290 0.674774 0.000000
0.493225 0.674774 0.000000
0.527527 0.674774 0.000000
0.562195 0.674774 0.000000
0.597168 0.674774 0.000000
0.632446 0.674774 0.000000
0.668030 0.674774 0.000000
0.703888 0.674774 0.000000
0.740021 0.674774 0.000000
0.776398 0.674774 0.000000
0.813080 0.674774 0.000000
0.850006 0.674774 0.000000
0.887146 0.674774 0.000000
0.924561 0.674774 0.000000
0.962158 0.674774 0.000000
1.000000 0.674774 0.000000
0.000000 0.707245 0.000000
0.017609 0.707245 0.000000
0.039795 0.707245 0.000000
0.064087 0.707245 0.000000
0.089905 0.707245 0.000000
0.116882 0.707245 0.000000
0.144836 0.707245 0.000000
0.173645 0.707245 0.000000
0.203186 0.707245 0.000000
0.233398 0.707245 0.000000
0.264191 0.707245 0.000000
0.295532 0.707245 0.000000
0.327393 0.707245 0.000000
0.359711 0.707245 0.000000
0.392487 0.707245 0.000000
0.425690 0.707245 0.000000
0.459290 0.707245 0.000000
0.493225 0.707245 0.000000
0.527527 0.707245 0.000000
0.562195 0.707245 0.000000
0.597168 0.707245 0.000000
0.632446 0.707245 0.000000
0.668030 0.707245 0.000000
0.703888 0.707245 0.000000
0.740021 0.707245 0.000000
0.776398 0.707245 0.000000
0.813080 0.707245 0.000000
0.850006 0.707245 0.000000
0.887146 0.707245 0.000000
0.924561 0.707245 0.000000
0.962158 0.707245 0.000000
1.000000 0.707245 0.000000
0.000000 0.739716 0.000000
0.017609 0.739716 0.000000
0.039795 0.739716 0.000000
0.064087 0.739716 0.000000
0.089905 0.739716 0.000000
0.116882 0.739716 0.000000
0.144836 0.739716 0.000000
0.173645 0.739716 0.000000
0.203186 0.739716 0.000000
0.233398 0.739716 0.000000
0.264191 0.739716 0.000000
0.295532 0.739716 0.000000
0.327393 0.739716 0.000000
0.359711 0.739716 0.000000
0.392487 0.739716 0.000000
0.425690 0.739716 0.000000
0.459290 0.739716 0.000000
0.493225 0.739716 0.000000
0.527527 0.739716 0.000000
0.562195 0.739716 0.000000
0.597168 0.739716 0.000000
0.632446 0.739716 0.000000
0.668030 0.739716 0.000000
0.703888 0.739716 0.000000
0.740021 0.739716 0.000000
0.776398 0.739716 0.000000
0.813080 0.739716 0.000000
0.850006 0.739716 0.000000
0.887146 0.739716 0.000000
0.924561 0.739716 0.000000
0.962158 0.739716 0.000000
1.000000 0.739716 0.000000
0.000000 0.772186 0.000000
0.017609 0.772186 0.000000
0.039795 0.772186 0.000000
0.064087 0.772186 0.000000
0.089905 0.772186 0.000000
0.116882 0.772186 0.000000
0.144836 0.772186 0.000000
0.173645 0.772186 0.000000
0.203186 0.772186 0.000000
0.233398 0.772186 0.000000
0.264191 0.772186 0.000000
0.295532 0.772186 0.000000
0.327393 0.772186 0.000000
0.359711 0.772186 0.000000
0.392487 0.772186 0.000000
0.425690 0.772186 0.000000
0.459290 0.772186 0.000000
0.493225 0.772186 0.000000
0.527527 0.772186 0.000000
0.562195 0.772186 0.000000
0.597168 0.772186 0.000000
0.632446 0.772186 0.000000
0.668030 0.772186 0.000000
0.703888 0.772186 0.000000
0.740021 0.772186 0.000000
0.776398 0.772186 0.000000
0.813080 0.772186 0.000000
0.850006 0.772186 0.000000
0.887146 0.772186 0.000000
0.924561 0.772186 0.000000
0.962158 0.772186 0.000000
1.000000 0.772186 0.000000
0.000000 0.804718 0.000000
0.017609 0.804718 0.000000
0.039795 0.804718 0.000000
0.064087 0.804718 0.000000
0.089905 0.804718 0.000000
0.116882 0.804718 0.000000
0.144836 0.804718 0.000000
0.173645 0.804718 0.000000
0.203186 0.804718 0.000000
0.233398 0.804718 0.000000
0.264191 0.804718 0.000000
0.295532 0.804718 0.000000
0.327393 0.804718 0.000000
0.359711 0.804718 0.000000
0.392487 0.804718 0.000000
0.425690 0.804718 0.000000
0.459290 0.804718 0.000000
0.493225 0.804718 0.000000
0.527527 0.804718 0.000000
0.562195 0.804718 0.000000
0.597168 0.804718 0.000000
0.632446 0.804718 0.000000
0.668030 0.804718 0.000000
0.703888 0.804718 0.000000
0.740021 0.804718 0.000000
0.776398 0.804718 0.000000
0.813080 0.804718 0.000000
0.850006 0.804718 0.000000
0.887146 0.804718 0.000000
0.924561 0.804718 0.000000
0.962158 0.804718 0.000000
1.000000 0.804718 0.000000
0.000000 0.837219 0.000000
0.017609 0.837219 0.000000
0.039795 0.837219 0.000000
0.064087 0.837219 0.000000
0.089905 0.837219 0.000000
0.116882 0.837219 0.000000
0.144836 0.837219 0.000000
0.173645 0.837219 0.000000
0.203186 0.837219 0.000000
0.233398 0.837219 0.000000
0.264191 0.837219 0.000000
0.295532 0.837219 0.000000
0.327393 0.837219 0.000000
0.359711 0.837219 0.000000
0.392487 0.837219 0.000000
0.425690 0.837219 0.000000
0.459290 0.837219 0.000000
0.493225 0.837219 0.000000
0.527527 0.837219 0.000000
0.562195 0.837219 0.000000
0.597168 0.837219 0.000000
0.632446 0.837219 0.000000
0.668030 0.837219 0.000000
0.703888 0.837219 0.000000
0.740021 0.837219 0.000000
0.776398 0.837219 0.000000
0.813080 0.837219 0.000000
0.850006 0.837219 0.000000
0.887146 0.837219 0.000000
0.924561 0.837219 0.000000
0.962158 0.837219 0.000000
1.000000 0.837219 0.000000
0.000000 0.869751 0.000000
0.017609 0.869751 0.000000
0.039795 0.869751 0.000000
0.064087 0.869751 0.000000
0.089905 0.869751 0.000000
0.116882 0.869751 0.000000
0.144836 0.869751 0.000000
0.173645 0.869751 0.000000
0.203186 0.869751 0.000000
0.233398 0.869751 0.000000
0.264191 0.869751 0.000000
0.295532 0.869751 0.000000
0.327393 0.869751 0.000000
0.359711 0.869751 0.000000
0.392487 0.869751 0.000000
0.425690 0.869751 0.000000
