public/luts/MOLM Helsinki Factory Product Painting - 3-Large.CUBE
#Created by: Adobe Photoshop Export Color Lookup Plugin
TITLE "MOLM Helsinki Factory Product Painting - 3-Large.psd"
#LUT size
LUT_3D_SIZE 32
#data domain
DOMAIN_MIN 0.0 0.0 0.0
DOMAIN_MAX 1.0 1.0 1.0
#LUT data points
0.000000 0.000000 0.000000
0.000000 0.000000 0.000000
0.000000 0.000000 0.000000
0.000000 0.000000 0.000000
0.000000 0.000000 0.000000
0.000000 0.000000 0.000000
0.000000 0.000000 0.000000
0.000000 0.000000 0.000000
0.000000 0.000000 0.000000
0.088287 0.000000 0.000000
0.137115 0.000000 0.000000
0.178192 0.000000 0.000000
0.215912 0.000000 0.000000
0.251862 0.000000 0.000000
0.286713 0.000000 0.000000
0.320892 0.000000 0.000000
0.354706 0.000000 0.000000
0.388245 0.000000 0.000000
0.421631 0.000000 0.000000
0.454926 0.000000 0.000000
0.488220 0.000000 0.000000
0.521515 0.000000 0.000000
0.554871 0.000000 0.000000
0.588318 0.000000 0.000000
0.621826 0.000000 0.000000
0.655457 0.000000 0.000000
0.689178 0.000000 0.000000
0.723022 0.000000 0.000000
0.757019 0.000000 0.000000
0.791107 0.000000 0.000000
0.825348 0.000000 0.000000
0.859711 0.000000 0.000000
0.000000 0.000000 0.000000
0.000000 0.000000 0.000000
0.000000 0.000000 0.000000
0.000000 0.000000 0.000000
0.000000 0.000000 0.000000
0.000000 0.000000 0.000000
0.000000 0.000000 0.000000
0.000000 0.000000 0.000000
0.000000 0.000000 0.000000
0.088287 0.000000 0.000000
0.137115 0.000000 0.000000
0.178192 0.000000 0.000000
0.215912 0.000000 0.000000
0.251862 0.000000 0.000000
0.286713 0.000000 0.000000
0.320892 0.000000 0.000000
0.354706 0.000000 0.000000
0.388245 0.000000 0.000000
0.421631 0.000000 0.000000
0.454926 0.000000 0.000000
0.488220 0.000000 0.000000
0.521515 0.000000 0.000000
0.554871 0.000000 0.000000
0.588318 0.000000 0.000000
0.621826 0.000000 0.000000
0.655457 0.000000 0.000000
0.689178 0.000000 0.000000
0.723022 0.000000 0.000000
0.757019 0.000000 0.000000
0.791107 0.000000 0.000000
0.825348 0.000000 0.000000
0.859711 0.000000 0.000000
0.000000 0.000000 0.000000
0.000000 0.000000 0.000000
0.000000 0.000000 0.000000
0.000000 0.000000 0.000000
0.000000 0.000000 0.000000
0.000000 0.000000 0.000000
0.000000 0.000000 0.000000
0.000000 0.000000 0.000000
0.000000 0.000000 0.000000
0.088287 0.000000 0.000000
0.137115 0.000000 0.000000
0.178192 0.000000 0.000000
0.215912 0.000000 0.000000
0.251862 0.000000 0.000000
0.286713 0.000000 0.000000
0.320892 0.000000 0.000000
0.354706 0.000000 0.000000
0.388245 0.000000 0.000000
0.421631 0.000000 0.000000
0.454926 0.000000 0.000000
0.488220 0.000000 0.000000
0.521515 0.000000 0.000000
0.554871 0.000000 0.000000
0.588318 0.000000 0.000000
0.621826 0.000000 0.000000
0.655457 0.000000 0.000000
0.689178 0.000000 0.000000
0.723022 0.000000 0.000000
0.757019 0.000000 0.000000
0.791107 0.000000 0.000000
0.825348 0.000000 0.000000
0.859711 0.000000 0.000000
0.000000 0.000000 0.000000
0.000000 0.000000 0.000000
0.000000 0.000000 0.000000
0.000000 0.000000 0.000000
0.000000 0.000000 0.000000
0.000000 0.000000 0.000000
0.000000 0.000000 0.000000
0.000000 0.000000 0.000000
0.000000 0.000000 0.000000
0.088287 0.000000 0.000000
0.137115 0.000000 0.000000
0.178192 0.000000 0.000000
0.215912 0.000000 0.000000
0.251862 0.000000 0.000000
0.286713 0.000000 0.000000
0.320892 0.000000 0.000000
0.354706 0.000000 0.000000
0.388245 0.000000 0.000000
0.421631 0.000000 0.000000
0.454926 0.000000 0.000000
0.488220 0.000000 0.000000
0.521515 0.000000 0.000000
0.554871 0.000000 0.000000
0.588318 0.000000 0.000000
0.621826 0.000000 0.000000
0.655457 0.000000 0.000000
0.689178 0.000000 0.000000
0.723022 0.000000 0.000000
0.757019 0.000000 0.000000
0.791107 0.000000 0.000000
0.825348 0.000000 0.000000
0.859711 0.000000 0.000000
0.000000 0.000000 0.000000
0.000000 0.000000 0.000000
0.000000 0.000000 0.000000
0.000000 0.000000 0.000000
0.000000 0.000000 0.000000
0.000000 0.000000 0.000000
0.000000 0.000000 0.000000
0.000000 0.000000 0.000000
0.000000 0.000000 0.000000
0.088287 0.000000 0.000000
0.137115 0.000000 0.000000
0.178192 0.000000 0.000000
0.215912 0.000000 0.000000
0.251862 0.000000 0.000000
0.286713 0.000000 0.000000
0.320892 0.000000 0.000000
0.354706 0.000000 0.000000
0.388245 0.000000 0.000000
0.421631 0.000000 0.000000
0.454926 0.000000 0.000000
0.488220 0.000000 0.000000
0.521515 0.000000 0.000000
0.554871 0.000000 0.000000
0.588318 0.000000 0.000000
0.621826 0.000000 0.000000
0.655457 0.000000 0.000000
0.689178 0.000000 0.000000
0.723022 0.000000 0.000000
0.757019 0.000000 0.000000
0.791107 0.000000 0.000000
0.825348 0.000000 0.000000
0.859711 0.000000 0.000000
0.000000 0.000000 0.000000
0.000000 0.000000 0.000000
0.000000 0.000000 0.000000
0.000000 0.000000 0.000000
0.000000 0.000000 0.000000
0.000000 0.000000 0.000000
0.000000 0.000000 0.000000
0.000000 0.000000 0.000000
0.000000 0.000000 0.000000
0.088287 0.000000 0.000000
0.137115 0.000000 0.000000
0.178192 0.000000 0.000000
0.215912 0.000000 0.000000
0.251862 0.000000 0.000000
0.286713 0.000000 0.000000
0.320892 0.000000 0.000000
0.354706 0.000000 0.000000
0.388245 0.000000 0.000000
0.421631 0.000000 0.000000
0.454926 0.000000 0.000000
0.488220 0.000000 0.000000
0.521515 0.000000 0.000000
0.554871 0.000000 0.000000
0.588318 0.000000 0.000000
0.621826 0.000000 0.000000
0.655457 0.000000 0.000000
0.689178 0.000000 0.000000
0.723022 0.000000 0.000000
0.757019 0.000000 0.000000
0.791107 0.000000 0.000000
0.825348 0.000000 0.000000
0.859711 0.000000 0.000000
0.000000 0.000000 0.000000
0.000000 0.000000 0.000000
0.000000 0.000000 0.000000
0.000000 0.000000 0.000000
0.000000 0.000000 0.000000
0.000000 0.000000 0.000000
0.000000 0.000000 0.000000
0.000000 0.000000 0.000000
0.000000 0.000000 0.000000
0.088287 0.000000 0.000000
0.137115 0.000000 0.000000
0.178192 0.000000 0.000000
0.215912 0.000000 0.000000
0.251862 0.000000 0.000000
0.286713 0.000000 0.000000
0.320892 0.000000 0.000000
0.354706 0.000000 0.000000
0.388245 0.000000 0.000000
0.421631 0.000000 0.000000
0.454926 0.000000 0.000000
0.488220 0.000000 0.000000
0.521515 0.000000 0.000000
0.554871 0.000000 0.000000
0.588318 0.000000 0.000000
0.621826 0.000000 0.000000
0.655457 0.000000 0.000000
0.689178 0.000000 0.000000
0.723022 0.000000 0.000000
0.757019 0.000000 0.000000
0.791107 0.000000 0.000000
0.825348 0.000000 0.000000
0.859711 0.000000 0.000000
0.000000 0.000000 0.000000
0.000000 0.000000 0.000000
0.000000 0.000000 0.000000
0.000000 0.000000 0.000000
0.000000 0.000000 0.000000
0.000000 0.000000 0.000000
0.000000 0.000000 0.000000
0.000000 0.000000 0.000000
0.000000 0.000000 0.000000
0.088287 0.000000 0.000000
0.137115 0.000000 0.000000
0.178192 0.000000 0.000000
0.215912 0.000000 0.000000
0.251862 0.000000 0.000000
0.286713 0.000000 0.000000
0.320892 0.000000 0.000000
0.354706 0.000000 0.000000
0.388245 0.000000 0.000000
0.421631 0.000000 0.000000
0.454926 0.000000 0.000000
0.488220 0.000000 0.000000
0.521515 0.000000 0.000000
0.554871 0.000000 0.000000
0.588318 0.000000 0.000000
0.621826 0.000000 0.000000
0.655457 0.000000 0.000000
0.689178 0.000000 0.000000
0.723022 0.000000 0.000000
0.757019 0.000000 0.000000
0.791107 0.000000 0.000000
0.825348 0.000000 0.000000
0.859711 0.000000 0.000000
0.000000 0.000000 0.000000
0.000000 0.000000 0.000000
0.000000 0.000000 0.000000
0.000000 0.000000 0.000000
0.000000 0.000000 0.000000
0.000000 0.000000 0.000000
0.000000 0.000000 0.000000
0.000000 0.000000 0.000000
0.000000 0.000000 0.000000
0.088287 0.000000 0.000000
0.137115 0.000000 0.000000
0.178192 0.000000 0.000000
0.215912 0.000000 0.000000
0.251862 0.000000 0.000000
0.286713 0.000000 0.000000
0.320892 0.000000 0.000000
0.354706 0.000000 0.000000
0.388245 0.000000 0.000000
0.421631 0.000000 0.000000
0.454926 0.000000 0.000000
0.488220 0.000000 0.000000
0.521515 0.000000 0.000000
0.554871 0.000000 0.000000
0.588318 0.000000 0.000000
0.621826 0.000000 0.000000
0.655457 0.000000 0.000000
0.689178 0.000000 0.000000
0.723022 0.000000 0.000000
0.757019 0.000000 0.000000
0.791107 0.000000 0.000000
0.825348 0.000000 0.000000
0.859711 0.000000 0.000000
0.000000 0.088287 0.000000
0.000000 0.088287 0.000000
0.000000 0.088287 0.000000
0.000000 0.088287 0.000000
0.000000 0.088287 0.000000
0.000000 0.088287 0.000000
0.000000 0.088287 0.000000
0.000000 0.088287 0.000000
0.000000 0.088287 0.000000
0.088287 0.088287 0.000000
0.137115 0.088287 0.000000
0.178192 0.088287 0.000000
0.215912 0.088287 0.000000
0.251862 0.088287 0.000000
0.286713 0.088287 0.000000
0.320892 0.088287 0.000000
0.354706 0.088287 0.000000
0.388245 0.088287 0.000000
0.421631 0.088287 0.000000
0.454926 0.088287 0.000000
0.488220 0.088287 0.000000
0.521515 0.088287 0.000000
0.554871 0.088287 0.000000
0.588318 0.088287 0.000000
0.621826 0.088287 0.000000
0.655457 0.088287 0.000000
0.689178 0.088287 0.000000
0.723022 0.088287 0.000000
0.757019 0.088287 0.000000
0.791107 0.088287 0.000000
0.825348 0.088287 0.000000
0.859711 0.088287 0.000000
0.000000 0.137115 0.000000
0.000000 0.137115 0.000000
0.000000 0.137115 0.000000
0.000000 0.137115 0.000000
0.000000 0.137115 0.000000
0.000000 0.137115 0.000000
0.000000 0.137115 0.000000
0.000000 0.137115 0.000000
0.000000 0.137115 0.000000
0.088287 0.137115 0.000000
0.137115 0.137115 0.000000
0.178192 0.137115 0.000000
0.215912 0.137115 0.000000
0.251862 0.137115 0.000000
0.286713 0.137115 0.000000
0.320892 0.137115 0.000000
0.354706 0.137115 0.000000
0.388245 0.137115 0.000000
0.421631 0.137115 0.000000
0.454926 0.137115 0.000000
0.488220 0.137115 0.000000
0.521515 0.137115 0.000000
0.554871 0.137115 0.000000
0.588318 0.137115 0.000000
0.621826 0.137115 0.000000
0.655457 0.137115 0.000000
0.689178 0.137115 0.000000
0.723022 0.137115 0.000000
0.757019 0.137115 0.000000
0.791107 0.137115 0.000000
0.825348 0.137115 0.000000
0.859711 0.137115 0.000000
0.000000 0.178192 0.000000
0.000000 0.178192 0.000000
0.000000 0.178192 0.000000
0.000000 0.178192 0.000000
0.000000 0.178192 0.000000
0.000000 0.178192 0.000000
0.000000 0.178192 0.000000
0.000000 0.178192 0.000000
0.000000 0.178192 0.000000
0.088287 0.178192 0.000000
0.137115 0.178192 0.000000
0.178192 0.178192 0.000000
0.215912 0.178192 0.000000
0.251862 0.178192 0.000000
0.286713 0.178192 0.000000
0.320892 0.178192 0.000000
0.354706 0.178192 0.000000
0.388245 0.178192 0.000000
0.421631 0.178192 0.000000
0.454926 0.178192 0.000000
0.488220 0.178192 0.000000
0.521515 0.178192 0.000000
0.554871 0.178192 0.000000
0.588318 0.178192 0.000000
0.621826 0.178192 0.000000
0.655457 0.178192 0.000000
0.689178 0.178192 0.000000
0.723022 0.178192 0.000000
0.757019 0.178192 0.000000
0.791107 0.178192 0.000000
0.825348 0.178192 0.000000
0.859711 0.178192 0.000000
0.000000 0.215912 0.000000
0.000000 0.215912 0.000000
0.000000 0.215912 0.000000
0.000000 0.215912 0.000000
0.000000 0.215912 0.000000
0.000000 0.215912 0.000000
0.000000 0.215912 0.000000
0.000000 0.215912 0.000000
0.000000 0.215912 0.000000
0.088287 0.215912 0.000000
0.137115 0.215912 0.000000
0.178192 0.215912 0.000000
0.215912 0.215912 0.000000
0.251862 0.215912 0.000000
0.286713 0.215912 0.000000
0.320892 0.215912 0.000000
0.354706 0.215912 0.000000
0.388245 0.215912 0.000000
0.421631 0.215912 0.000000
0.454926 0.215912 0.000000
0.488220 0.215912 0.000000
0.521515 0.215912 0.000000
0.554871 0.215912 0.000000
0.588318 0.215912 0.000000
0.621826 0.215912 0.000000
0.655457 0.215912 0.000000
0.689178 0.215912 0.000000
0.723022 0.215912 0.000000
0.757019 0.215912 0.000000
0.791107 0.215912 0.000000
0.825348 0.215912 0.000000
0.859711 0.215912 0.000000
0.000000 0.251862 0.000000
0.000000 0.251862 0.000000
0.000000 0.251862 0.000000
0.000000 0.251862 0.000000
0.000000 0.251862 0.000000
0.000000 0.251862 0.000000
0.000000 0.251862 0.000000
0.000000 0.251862 0.000000
0.000000 0.251862 0.000000
0.088287 0.251862 0.000000
0.137115 0.251862 0.000000
0.178192 0.251862 0.000000
0.215912 0.251862 0.000000
0.251862 0.251862 0.000000
0.286713 0.251862 0.000000
0.320892 0.251862 0.000000
0.354706 0.251862 0.000000
0.388245 0.251862 0.000000
0.421631 0.251862 0.000000
0.454926 0.251862 0.000000
0.488220 0.251862 0.000000
0.521515 0.251862 0.000000
0.554871 0.251862 0.000000
0.588318 0.251862 0.000000
0.621826 0.251862 0.000000
0.655457 0.251862 0.000000
0.689178 0.251862 0.000000
0.723022 0.251862 0.000000
0.757019 0.251862 0.000000
0.791107 0.251862 0.000000
0.825348 0.251862 0.000000
0.859711 0.251862 0.000000
0.000000 0.286713 0.000000
0.000000 0.286713 0.000000
0.000000 0.286713 0.000000
0.000000 0.286713 0.000000
0.000000 0.286713 0.000000
0.000000 0.286713 0.000000
0.000000 0.286713 0.000000
0.000000 0.286713 0.000000
0.000000 0.286713 0.000000
0.088287 0.286713 0.000000
0.137115 0.286713 0.000000
0.178192 0.286713 0.000000
0.215912 0.286713 0.000000
0.251862 0.286713 0.000000
0.286713 0.286713 0.000000
0.320892 0.286713 0.000000
0.354706 0.286713 0.000000
0.388245 0.286713 0.000000
0.421631 0.286713 0.000000
0.454926 0.286713 0.000000
0.488220 0.286713 0.000000
0.521515 0.286713 0.000000
0.554871 0.286713 0.000000
0.588318 0.286713 0.000000
0.621826 0.286713 0.000000
0.655457 0.286713 0.000000
0.689178 0.286713 0.000000
0.723022 0.286713 0.000000
0.757019 0.286713 0.000000
0.791107 0.286713 0.000000
0.825348 0.286713 0.000000
0.859711 0.286713 0.000000
0.000000 0.320892 0.000000
0.000000 0.320892 0.000000
0.000000 0.320892 0.000000
0.000000 0.320892 0.000000
0.000000 0.320892 0.000000
0.000000 0.320892 0.000000
0.000000 0.320892 0.000000
0.000000 0.320892 0.000000
0.000000 0.320892 0.000000
0.088287 0.320892 0.000000
0.137115 0.320892 0.000000
0.178192 0.320892 0.000000
0.215912 0.320892 0.000000
0.251862 0.320892 0.000000
0.286713 0.320892 0.000000
0.320892 0.320892 0.000000
0.354706 0.320892 0.000000
0.388245 0.320892 0.000000
0.421631 0.320892 0.000000
0.454926 0.320892 0.000000
0.488220 0.320892 0.000000
0.521515 0.320892 0.000000
0.554871 0.320892 0.000000
0.588318 0.320892 0.000000
0.621826 0.320892 0.000000
0.655457 0.320892 0.000000
0.689178 0.320892 0.000000
0.723022 0.320892 0.000000
0.757019 0.320892 0.000000
0.791107 0.320892 0.000000
0.825348 0.320892 0.000000
0.859711 0.320892 0.000000
0.000000 0.354706 0.000000
0.000000 0.354706 0.000000
0.000000 0.354706 0.000000
0.000000 0.354706 0.000000
0.000000 0.354706 0.000000
0.000000 0.354706 0.000000
0.000000 0.354706 0.000000
0.000000 0.354706 0.000000
0.000000 0.354706 0.000000
0.088287 0.354706 0.000000
0.137115 0.354706 0.000000
0.178192 0.354706 0.000000
0.215912 0.354706 0.000000
0.251862 0.354706 0.000000
0.286713 0.354706 0.000000
0.320892 0.354706 0.000000
0.354706 0.354706 0.000000
0.388245 0.354706 0.000000
0.421631 0.354706 0.000000
0.454926 0.354706 0.000000
0.488220 0.354706 0.000000
0.521515 0.354706 0.000000
0.554871 0.354706 0.000000
0.588318 0.354706 0.000000
0.621826 0.354706 0.000000
0.655457 0.354706 0.000000
0.689178 0.354706 0.000000
0.723022 0.354706 0.000000
0.757019 0.354706 0.000000
0.791107 0.354706 0.000000
0.825348 0.354706 0.000000
0.859711 0.354706 0.000000
0.000000 0.388245 0.000000
0.000000 0.388245 0.000000
0.000000 0.388245 0.000000
0.000000 0.388245 0.000000
0.000000 0.388245 0.000000
0.000000 0.388245 0.000000
0.000000 0.388245 0.000000
0.000000 0.388245 0.000000
0.000000 0.388245 0.000000
0.088287 0.388245 0.000000
0.137115 0.388245 0.000000
0.178192 0.388245 0.000000
0.215912 0.388245 0.000000
0.251862 0.388245 0.000000
0.286713 0.388245 0.000000
0.320892 0.388245 0.000000
0.354706 0.388245 0.000000
0.388245 0.388245 0.000000
0.421631 0.388245 0.000000
0.454926 0.388245 0.000000
0.488220 0.388245 0.000000
0.521515 0.388245 0.000000
0.554871 0.388245 0.000000
0.588318 0.388245 0.000000
0.621826 0.388245 0.000000
0.655457 0.388245 0.000000
0.689178 0.388245 0.000000
0.723022 0.388245 0.000000
0.757019 0.388245 0.000000
0.791107 0.388245 0.000000
0.825348 0.388245 0.000000
0.859711 0.388245 0.000000
0.000000 0.421631 0.000000
0.000000 0.421631 0.000000
0.000000 0.421631 0.000000
0.000000 0.421631 0.000000
0.000000 0.421631 0.000000
0.000000 0.421631 0.000000
0.000000 0.421631 0.000000
0.000000 0.421631 0.000000
0.000000 0.421631 0.000000
0.088287 0.421631 0.000000
0.137115 0.421631 0.000000
0.178192 0.421631 0.000000
0.215912 0.421631 0.000000
0.251862 0.421631 0.000000
0.286713 0.421631 0.000000
0.320892 0.421631 0.000000
0.354706 0.421631 0.000000
0.388245 0.421631 0.000000
0.421631 0.421631 0.000000
0.454926 0.421631 0.000000
0.488220 0.421631 0.000000
0.521515 0.421631 0.000000
0.554871 0.421631 0.000000
0.588318 0.421631 0.000000
0.621826 0.421631 0.000000
0.655457 0.421631 0.000000
0.689178 0.421631 0.000000
0.723022 0.421631 0.000000
0.757019 0.421631 0.000000
0.791107 0.421631 0.000000
0.825348 0.421631 0.000000
0.859711 0.421631 0.000000
0.000000 0.454926 0.000000
0.000000 0.454926 0.000000
0.000000 0.454926 0.000000
0.000000 0.454926 0.000000
0.000000 0.454926 0.000000
0.000000 0.454926 0.000000
0.000000 0.454926 0.000000
0.000000 0.454926 0.000000
0.000000 0.454926 0.000000
0.088287 0.454926 0.000000
0.137115 0.454926 0.000000
0.178192 0.454926 0.000000
0.215912 0.454926 0.000000
0.251862 0.454926 0.000000
0.286713 0.454926 0.000000
0.320892 0.454926 0.000000
0.354706 0.454926 0.000000
0.388245 0.454926 0.000000
0.421631 0.454926 0.000000
0.454926 0.454926 0.000000
0.488220 0.454926 0.000000
0.521515 0.454926 0.000000
0.554871 0.454926 0.000000
0.588318 0.454926 0.000000
0.621826 0.454926 0.000000
0.655457 0.454926 0.000000
0.689178 0.454926 0.000000
0.723022 0.454926 0.000000
0.757019 0.454926 0.000000
0.791107 0.454926 0.000000
0.825348 0.454926 0.000000
0.859711 0.454926 0.000000
0.000000 0.488220 0.000000
0.000000 0.488220 0.000000
0.000000 0.488220 0.000000
0.000000 0.488220 0.000000
0.000000 0.488220 0.000000
0.000000 0.488220 0.000000
0.000000 0.488220 0.000000
0.000000 0.488220 0.000000
0.000000 0.488220 0.000000
0.088287 0.488220 0.000000
0.137115 0.488220 0.000000
0.178192 0.488220 0.000000
0.215912 0.488220 0.000000
0.251862 0.488220 0.000000
0.286713 0.488220 0.000000
0.320892 0.488220 0.000000
0.354706 0.488220 0.000000
0.388245 0.488220 0.000000
0.421631 0.488220 0.000000
0.454926 0.488220 0.000000
0.488220 0.488220 0.000000
0.521515 0.488220 0.000000
0.554871 0.488220 0.000000
0.588318 0.488220 0.000000
0.621826 0.488220 0.000000
0.655457 0.488220 0.000000
0.689178 0.488220 0.000000
0.723022 0.488220 0.000000
0.757019 0.488220 0.000000
0.791107 0.488220 0.000000
0.825348 0.488220 0.000000
0.859711 0.488220 0.000000
0.000000 0.521515 0.000000
0.000000 0.521515 0.000000
0.000000 0.521515 0.000000
0.000000 0.521515 0.000000
0.000000 0.521515 0.000000
0.000000 0.521515 0.000000
0.000000 0.521515 0.000000
0.000000 0.521515 0.000000
0.000000 0.521515 0.000000
0.088287 0.521515 0.000000
0.137115 0.521515 0.000000
0.178192 0.521515 0.000000
0.215912 0.521515 0.000000
0.251862 0.521515 0.000000
0.286713 0.521515 0.000000
0.320892 0.521515 0.000000
0.354706 0.521515 0.000000
0.388245 0.521515 0.000000
0.421631 0.521515 0.000000
0.454926 0.521515 0.000000
0.488220 0.521515 0.000000
0.521515 0.521515 0.000000
0.554871 0.521515 0.000000
0.588318 0.521515 0.000000
0.621826 0.521515 0.000000
0.655457 0.521515 0.000000
0.689178 0.521515 0.000000
0.723022 0.521515 0.000000
0.757019 0.521515 0.000000
0.791107 0.521515 0.000000
0.825348 0.521515 0.000000
0.859711 0.521515 0.000000
0.000000 0.554871 0.000000
0.000000 0.554871 0.000000
0.000000 0.554871 0.000000
0.000000 0.554871 0.000000
0.000000 0.554871 0.000000
0.000000 0.554871 0.000000
0.000000 0.554871 0.000000
0.000000 0.554871 0.000000
0.000000 0.554871 0.000000
0.088287 0.554871 0.000000
0.137115 0.554871 0.000000
0.178192 0.554871 0.000000
0.215912 0.554871 0.000000
0.251862 0.554871 0.000000
0.286713 0.554871 0.000000
0.320892 0.554871 0.000000
0.354706 0.554871 0.000000
0.388245 0.554871 0.000000
0.421631 0.554871 0.000000
0.454926 0.554871 0.000000
0.488220 0.554871 0.000000
0.521515 0.554871 0.000000
0.554871 0.554871 0.000000
0.588318 0.554871 0.000000
0.621826 0.554871 0.000000
0.655457 0.554871 0.000000
0.689178 0.554871 0.000000
0.723022 0.554871 0.000000
0.757019 0.554871 0.000000
0.791107 0.554871 0.000000
0.825348 0.554871 0.000000
0.859711 0.554871 0.000000
0.000000 0.588318 0.000000
0.000000 0.588318 0.000000
0.000000 0.588318 0.000000
0.000000 0.588318 0.000000
0.000000 0.588318 0.000000
0.000000 0.588318 0.000000
0.000000 0.588318 0.000000
0.000000 0.588318 0.000000
0.000000 0.588318 0.000000
0.088287 0.588318 0.000000
0.137115 0.588318 0.000000
0.178192 0.588318 0.000000
0.215912 0.588318 0.000000
0.251862 0.588318 0.000000
0.286713 0.588318 0.000000
0.320892 0.588318 0.000000
0.354706 0.588318 0.000000
0.388245 0.588318 0.000000
0.421631 0.588318 0.000000
0.454926 0.588318 0.000000
0.488220 0.588318 0.000000
0.521515 0.588318 0.000000
0.554871 0.588318 0.000000
0.588318 0.588318 0.000000
0.621826 0.588318 0.000000
0.655457 0.588318 0.000000
0.689178 0.588318 0.000000
0.723022 0.588318 0.000000
0.757019 0.588318 0.000000
0.791107 0.588318 0.000000
0.825348 0.588318 0.000000
0.859711 0.588318 0.000000
0.000000 0.621826 0.000000
0.000000 0.621826 0.000000
0.000000 0.621826 0.000000
0.000000 0.621826 0.000000
0.000000 0.621826 0.000000
0.000000 0.621826 0.000000
0.000000 0.621826 0.000000
0.000000 0.621826 0.000000
0.000000 0.621826 0.000000
0.088287 0.621826 0.000000
0.137115 0.621826 0.000000
0.178192 0.621826 0.000000
0.215912 0.621826 0.000000
0.251862 0.621826 0.000000
0.286713 0.621826 0.000000
0.320892 0.621826 0.000000
0.354706 0.621826 0.000000
0.388245 0.621826 0.000000
0.421631 0.621826 0.000000
0.454926 0.621826 0.000000
0.488220 0.621826 0.000000
0.521515 0.621826 0.000000
0.554871 0.621826 0.000000
0.588318 0.621826 0.000000
0.621826 0.621826 0.000000
0.655457 0.621826 0.000000
0.689178 0.621826 0.000000
0.723022 0.621826 0.000000
0.757019 0.621826 0.000000
0.791107 0.621826 0.000000
0.825348 0.621826 0.000000
0.859711 0.621826 0.000000
0.000000 0.655457 0.000000
0.000000 0.655457 0.000000
0.000000 0.655457 0.000000
0.000000 0.655457 0.000000
0.000000 0.655457 0.000000
0.000000 0.655457 0.000000
0.000000 0.655457 0.000000
0.000000 0.655457 0.000000
0.000000 0.655457 0.000000
0.088287 0.655457 0.000000
0.137115 0.655457 0.000000
0.178192 0.655457 0.000000
0.215912 0.655457 0.000000
0.251862 0.655457 0.000000
0.286713 0.655457 0.000000
0.320892 0.655457 0.000000
0.354706 0.655457 0.000000
0.388245 0.655457 0.000000
0.421631 0.655457 0.000000
0.454926 0.655457 0.000000
0.488220 0.655457 0.000000
0.521515 0.655457 0.000000
0.554871 0.655457 0.000000
0.588318 0.655457 0.000000
0.621826 0.655457 0.000000
0.655457 0.655457 0.000000
0.689178 0.655457 0.000000
0.723022 0.655457 0.000000
0.757019 0.655457 0.000000
0.791107 0.655457 0.000000
0.825348 0.655457 0.000000
0.859711 0.655457 0.000000
0.000000 0.689178 0.000000
0.000000 0.689178 0.000000
0.000000 0.689178 0.000000
0.000000 0.689178 0.000000
0.000000 0.689178 0.000000
0.000000 0.689178 0.000000
0.000000 0.689178 0.000000
0.000000 0.689178 0.000000
0.000000 0.689178 0.000000
0.088287 0.689178 0.000000
0.137115 0.689178 0.000000
0.178192 0.689178 0.000000
0.215912 0.689178 0.000000
0.251862 0.689178 0.000000
0.286713 0.689178 0.000000
0.320892 0.689178 0.000000
0.354706 0.689178 0.000000
0.388245 0.689178 0.000000
0.421631 0.689178 0.000000
0.454926 0.689178 0.000000
0.488220 0.689178 0.000000
0.521515 0.689178 0.000000
0.554871 0.689178 0.000000
0.588318 0.689178 0.000000
0.621826 0.689178 0.000000
0.655457 0.689178 0.000000
0.689178 0.689178 0.000000
0.723022 0.689178 0.000000
0.757019 0.689178 0.000000
0.791107 0.689178 0.000000
0.825348 0.689178 0.000000
0.859711 0.689178 0.000000
0.000000 0.723022 0.000000
0.000000 0.723022 0.000000
0.000000 0.723022 0.000000
0.000000 0.723022 0.000000
0.000000 0.723022 0.000000
0.000000 0.723022 0.000000
0.000000 0.723022 0.000000
0.000000 0.723022 0.000000
0.000000 0.723022 0.000000
0.088287 0.723022 0.000000
0.137115 0.723022 0.000000
0.178192 0.723022 0.000000
0.215912 0.723022 0.000000
0.251862 0.723022 0.000000
0.286713 0.723022 0.000000
0.320892 0.723022 0.000000
