public/luts/MOLM Västerås Factory Manufacturing - 17-Large_2.CUBE
#Created by: Adobe Photoshop Export Color Lookup Plugin
TITLE "MOLM Västerås Factory Manufacturing - 17-Large_2.psd"
#LUT size
LUT_3D_SIZE 5
#data domain
#LUT data points
DOMAIN_MIN 0.000000 0.000000 0.000000
DOMAIN_MAX 0.903226 0.903226 0.903226
0.000000 0.000000 0.000000
0.173645 0.000000 0.000000
0.392487 0.000000 0.000000
0.632446 0.000000 0.000000
0.887146 0.000000 0.000000
0.000000 0.222443 0.000000
0.173645 0.222443 0.000000
0.392487 0.222443 0.000000
0.632446 0.222443 0.000000
0.887146 0.222443 0.000000
0.000000 0.447998 0.000000
0.173645 0.447998 0.000000
0.392487 0.447998 0.000000
0.632446 0.447998 0.000000
0.887146 0.447998 0.000000
0.000000 0.674774 0.000000
0.173645 0.674774 0.000000
0.392487 0.674774 0.000000
0.632446 0.674774 0.000000
0.887146 0.674774 0.000000
0.000000 0.902313 0.000000
0.173645 0.902313 0.000000
0.392487 0.902313 0.000000
0.632446 0.902313 0.000000
0.887146 0.902313 0.000000
0.000000 0.000000 0.280304
0.173645 0.000000 0.280304
0.392487 0.000000 0.280304
0.632446 0.000000 0.280304
0.887146 0.000000 0.280304
0.000000 0.222443 0.280304
0.173645 0.222443 0.280304
0.392487 0.222443 0.280304
0.632446 0.222443 0.280304
0.887146 0.222443 0.280304
0.000000 0.447998 0.280304
0.173645 0.447998 0.280304
0.392487 0.447998 0.280304
0.632446 0.447998 0.280304
0.887146 0.447998 0.280304
0.000000 0.674774 0.280304
0.173645 0.674774 0.280304
0.392487 0.674774 0.280304
0.632446 0.674774 0.280304
0.887146 0.674774 0.280304
0.000000 0.902313 0.280304
0.173645 0.902313 0.280304
0.392487 0.902313 0.280304
0.632446 0.902313 0.280304
0.887146 0.902313 0.280304
0.000000 0.000000 0.506897
0.173645 0.000000 0.506897
0.392487 0.000000 0.506897
0.632446 0.000000 0.506897
0.887146 0.000000 0.506897
0.000000 0.222443 0.506897
0.173645 0.222443 0.506897
0.392487 0.222443 0.506897
0.632446 0.222443 0.506897
0.887146 0.222443 0.506897
0.000000 0.447998 0.506897
0.173645 0.447998 0.506897
0.392487 0.447998 0.506897
0.632446 0.447998 0.506897
0.887146 0.447998 0.506897
0.000000 0.674774 0.506897
0.173645 0.674774 0.506897
0.392487 0.674774 0.506897
0.632446 0.674774 0.506897
0.887146 0.674774 0.506897
0.000000 0.902313 0.506897
0.173645 0.902313 0.506897
0.392487 0.902313 0.506897
0.632446 0.902313 0.506897
0.887146 0.902313 0.506897
0.000000 0.000000 0.716858
0.173645 0.000000 0.716858
0.392487 0.000000 0.716858
0.632446 0.000000 0.716858
0.887146 0.000000 0.716858
0.000000 0.222443 0.716858
0.173645 0.222443 0.716858
0.392487 0.222443 0.716858
0.632446 0.222443 0.716858
0.887146 0.222443 0.716858
0.000000 0.447998 0.716858
0.173645 0.447998 0.716858
0.392487 0.447998 0.716858
0.632446 0.447998 0.716858
0.887146 0.447998 0.716858
0.000000 0.674774 0.716858
0.173645 0.674774 0.716858
0.392487 0.674774 0.716858
0.632446 0.674774 0.716858
0.887146 0.674774 0.716858
0.000000 0.902313 0.716858
0.173645 0.902313 0.716858
0.392487 0.902313 0.716858
0.632446 0.902313 0.716858
0.887146 0.902313 0.716858
0.000000 0.000000 0.916687
0.173645 0.000000 0.916687
0.392487 0.000000 0.916687
0.632446 0.000000 0.916687
0.887146 0.000000 0.916687
0.000000 0.222443 0.916687
0.173645 0.222443 0.916687
0.392487 0.222443 0.916687
0.632446 0.222443 0.916687
0.887146 0.222443 0.916687
0.000000 0.447998 0.916687
0.173645 0.447998 0.916687
0.392487 0.447998 0.916687
0.632446 0.447998 0.916687
0.887146 0.447998 0.916687
0.000000 0.674774 0.916687
0.173645 0.674774 0.916687
0.392487 0.674774 0.916687
0.632446 0.674774 0.916687
0.887146 0.674774 0.916687
0.000000 0.902313 0.916687
0.173645 0.902313 0.916687
0.392487 0.902313 0.916687
0.632446 0.902313 0.916687
0.887146 0.902313 0.916687
