public/luts/MOLM Västerås Factory Manufacturing - 17-Large_2.CUBE
#Created by: Adobe Photoshop Export Color Lookup Plugin
TITLE "MOLM Västerås Factory Manufacturing - 17-Large_2.psd"
#LUT size
LUT_3D_SIZE 8
#data domain
#LUT data points
DOMAIN_MIN 0.000000 0.000000 0.000000
DOMAIN_MAX 0.903226 0.903226 0.903226
0.000000 0.000000 0.000000
0.089905 0.000000 0.000000
0.203186 0.000000 0.000000
0.327393 0.000000 0.000000
0.459290 0.000000 0.000000
0.597168 0.000000 0.000000
0.740021 0.000000 0.000000
0.887146 0.000000 0.000000
0.000000 0.126373 0.000000
0.089905 0.126373 0.000000
0.203186 0.126373 0.000000
0.327393 0.126373 0.000000
0.459290 0.126373 0.000000
0.597168 0.126373 0.000000
0.740021 0.126373 0.000000
0.887146 0.126373 0.000000
0.000000 0.254547 0.000000
0.089905 0.254547 0.000000
0.203186 0.254547 0.000000
0.327393 0.254547 0.000000
0.459290 0.254547 0.000000
0.597168 0.254547 0.000000
0.740021 0.254547 0.000000
0.887146 0.254547 0.000000
0.000000 0.383392 0.000000
0.089905 0.383392 0.000000
0.203186 0.383392 0.000000
0.327393 0.383392 0.000000
0.459290 0.383392 0.000000
0.597168 0.383392 0.000000
0.740021 0.383392 0.000000
0.887146 0.383392 0.000000
0.000000 0.512695 0.000000
0.089905 0.512695 0.000000
0.203186 0.512695 0.000000
0.327393 0.512695 0.000000
0.459290 0.512695 0.000000
0.597168 0.512695 0.000000
0.740021 0.512695 0.000000
0.887146 0.512695 0.000000
0.000000 0.642334 0.000000
0.089905 0.642334 0.000000
0.203186 0.642334 0.000000
0.327393 0.642334 0.000000
0.459290 0.642334 0.000000
0.597168 0.642334 0.000000
0.740021 0.642334 0.000000
0.887146 0.642334 0.000000
0.000000 0.772186 0.000000
0.089905 0.772186 0.000000
0.203186 0.772186 0.000000
0.327393 0.772186 0.000000
0.459290 0.772186 0.000000
0.597168 0.772186 0.000000
0.740021 0.772186 0.000000
0.887146 0.772186 0.000000
0.000000 0.902313 0.000000
0.089905 0.902313 0.000000
0.203186 0.902313 0.000000
0.327393 0.902313 0.000000
0.459290 0.902313 0.000000
0.597168 0.902313 0.000000
0.740021 0.902313 0.000000
0.887146 0.902313 0.000000
0.000000 0.000000 0.173767
0.089905 0.000000 0.173767
0.203186 0.000000 0.173767
0.327393 0.000000 0.173767
0.459290 0.000000 0.173767
0.597168 0.000000 0.173767
0.740021 0.000000 0.173767
0.887146 0.000000 0.173767
0.000000 0.126373 0.173767
0.089905 0.126373 0.173767
0.203186 0.126373 0.173767
0.327393 0.126373 0.173767
0.459290 0.126373 0.173767
0.597168 0.126373 0.173767
0.740021 0.126373 0.173767
0.887146 0.126373 0.173767
0.000000 0.254547 0.173767
0.089905 0.254547 0.173767
0.203186 0.254547 0.173767
0.327393 0.254547 0.173767
0.459290 0.254547 0.173767
0.597168 0.254547 0.173767
0.740021 0.254547 0.173767
0.887146 0.254547 0.173767
0.000000 0.383392 0.173767
0.089905 0.383392 0.173767
0.203186 0.383392 0.173767
0.327393 0.383392 0.173767
0.459290 0.383392 0.173767
0.597168 0.383392 0.173767
0.740021 0.383392 0.173767
0.887146 0.383392 0.173767
0.000000 0.512695 0.173767
0.089905 0.512695 0.173767
0.203186 0.512695 0.173767
0.327393 0.512695 0.173767
0.459290 0.512695 0.173767
0.597168 0.512695 0.173767
0.740021 0.512695 0.173767
0.887146 0.512695 0.173767
0.000000 0.642334 0.173767
0.089905 0.642334 0.173767
0.203186 0.642334 0.173767
0.327393 0.642334 0.173767
0.459290 0.642334 0.173767
0.597168 0.642334 0.173767
0.740021 0.642334 0.173767
0.887146 0.642334 0.173767
0.000000 0.772186 0.173767
0.089905 0.772186 0.173767
0.203186 0.772186 0.173767
0.327393 0.772186 0.173767
0.459290 0.772186 0.173767
0.597168 0.772186 0.173767
0.740021 0.772186 0.173767
0.887146 0.772186 0.173767
0.000000 0.902313 0.173767
0.089905 0.902313 0.173767
0.203186 0.902313 0.173767
0.327393 0.902313 0.173767
0.459290 0.902313 0.173767
0.597168 0.902313 0.173767
0.740021 0.902313 0.173767
0.887146 0.902313 0.173767
0.000000 0.000000 0.314178
0.089905 0.000000 0.314178
0.203186 0.000000 0.314178
0.327393 0.000000 0.314178
0.459290 0.000000 0.314178
0.597168 0.000000 0.314178
0.740021 0.000000 0.314178
0.887146 0.000000 0.314178
0.000000 0.126373 0.314178
0.089905 0.126373 0.314178
0.203186 0.126373 0.314178
0.327393 0.126373 0.314178
0.459290 0.126373 0.314178
0.597168 0.126373 0.314178
0.740021 0.126373 0.314178
0.887146 0.126373 0.314178
0.000000 0.254547 0.314178
0.089905 0.254547 0.314178
0.203186 0.254547 0.314178
0.327393 0.254547 0.314178
0.459290 0.254547 0.314178
0.597168 0.254547 0.314178
0.740021 0.254547 0.314178
0.887146 0.254547 0.314178
0.000000 0.383392 0.314178
0.089905 0.383392 0.314178
0.203186 0.383392 0.314178
0.327393 0.383392 0.314178
0.459290 0.383392 0.314178
0.597168 0.383392 0.314178
0.740021 0.383392 0.314178
0.887146 0.383392 0.314178
0.000000 0.512695 0.314178
0.089905 0.512695 0.314178
0.203186 0.512695 0.314178
0.327393 0.512695 0.314178
0.459290 0.512695 0.314178
0.597168 0.512695 0.314178
0.740021 0.512695 0.314178
0.887146 0.512695 0.314178
0.000000 0.642334 0.314178
0.089905 0.642334 0.314178
0.203186 0.642334 0.314178
0.327393 0.642334 0.314178
0.459290 0.642334 0.314178
0.597168 0.642334 0.314178
0.740021 0.642334 0.314178
0.887146 0.642334 0.314178
0.000000 0.772186 0.314178
0.089905 0.772186 0.314178
0.203186 0.772186 0.314178
0.327393 0.772186 0.314178
0.459290 0.772186 0.314178
0.597168 0.772186 0.314178
0.740021 0.772186 0.314178
0.887146 0.772186 0.314178
0.000000 0.902313 0.314178
0.089905 0.902313 0.314178
0.203186 0.902313 0.314178
0.327393 0.902313 0.314178
0.459290 0.902313 0.314178
0.597168 0.902313 0.314178
0.740021 0.902313 0.314178
0.887146 0.902313 0.314178
0.000000 0.000000 0.444336
0.089905 0.000000 0.444336
0.203186 0.000000 0.444336
0.327393 0.000000 0.444336
0.459290 0.000000 0.444336
0.597168 0.000000 0.444336
0.740021 0.000000 0.444336
0.887146 0.000000 0.444336
0.000000 0.126373 0.444336
0.089905 0.126373 0.444336
0.203186 0.126373 0.444336
0.327393 0.126373 0.444336
0.459290 0.126373 0.444336
0.597168 0.126373 0.444336
0.740021 0.126373 0.444336
0.887146 0.126373 0.444336
0.000000 0.254547 0.444336
0.089905 0.254547 0.444336
0.203186 0.254547 0.444336
0.327393 0.254547 0.444336
0.459290 0.254547 0.444336
0.597168 0.254547 0.444336
0.740021 0.254547 0.444336
0.887146 0.254547 0.444336
0.000000 0.383392 0.444336
0.089905 0.383392 0.444336
0.203186 0.383392 0.444336
0.327393 0.383392 0.444336
0.459290 0.383392 0.444336
0.597168 0.383392 0.444336
0.740021 0.383392 0.444336
0.887146 0.383392 0.444336
0.000000 0.512695 0.444336
0.089905 0.512695 0.444336
0.203186 0.512695 0.444336
0.327393 0.512695 0.444336
0.459290 0.512695 0.444336
0.597168 0.512695 0.444336
0.740021 0.512695 0.444336
0.887146 0.512695 0.444336
0.000000 0.642334 0.444336
0.089905 0.642334 0.444336
0.203186 0.642334 0.444336
0.327393 0.642334 0.444336
0.459290 0.642334 0.444336
0.597168 0.642334 0.444336
0.740021 0.642334 0.444336
0.887146 0.642334 0.444336
0.000000 0.772186 0.444336
0.089905 0.772186 0.444336
0.203186 0.772186 0.444336
0.327393 0.772186 0.444336
0.459290 0.772186 0.444336
0.597168 0.772186 0.444336
0.740021 0.772186 0.444336
0.887146 0.772186 0.444336
0.000000 0.902313 0.444336
0.089905 0.902313 0.444336
0.203186 0.902313 0.444336
0.327393 0.902313 0.444336
0.459290 0.902313 0.444336
0.597168 0.902313 0.444336
0.740021 0.902313 0.444336
0.887146 0.902313 0.444336
0.000000 0.000000 0.568207
0.089905 0.000000 0.568207
0.203186 0.000000 0.568207
0.327393 0.000000 0.568207
0.459290 0.000000 0.568207
0.597168 0.000000 0.568207
0.740021 0.000000 0.568207
0.887146 0.000000 0.568207
0.000000 0.126373 0.568207
0.089905 0.126373 0.568207
0.203186 0.126373 0.568207
0.327393 0.126373 0.568207
0.459290 0.126373 0.568207
0.597168 0.126373 0.568207
0.740021 0.126373 0.568207
0.887146 0.126373 0.568207
0.000000 0.254547 0.568207
0.089905 0.254547 0.568207
0.203186 0.254547 0.568207
0.327393 0.254547 0.568207
0.459290 0.254547 0.568207
0.597168 0.254547 0.568207
0.740021 0.254547 0.568207
0.887146 0.254547 0.568207
0.000000 0.383392 0.568207
0.089905 0.383392 0.568207
0.203186 0.383392 0.568207
0.327393 0.383392 0.568207
0.459290 0.383392 0.568207
0.597168 0.383392 0.568207
0.740021 0.383392 0.568207
0.887146 0.383392 0.568207
0.000000 0.512695 0.568207
0.089905 0.512695 0.568207
0.203186 0.512695 0.568207
0.327393 0.512695 0.568207
0.459290 0.512695 0.568207
0.597168 0.512695 0.568207
0.740021 0.512695 0.568207
0.887146 0.512695 0.568207
0.000000 0.642334 0.568207
0.089905 0.642334 0.568207
0.203186 0.642334 0.568207
0.327393 0.642334 0.568207
0.459290 0.642334 0.568207
0.597168 0.642334 0.568207
0.740021 0.642334 0.568207
0.887146 0.642334 0.568207
0.000000 0.772186 0.568207
0.089905 0.772186 0.568207
0.203186 0.772186 0.568207
0.327393 0.772186 0.568207
0.459290 0.772186 0.568207
0.597168 0.772186 0.568207
0.740021 0.772186 0.568207
0.887146 0.772186 0.568207
0.000000 0.902313 0.568207
0.089905 0.902313 0.568207
0.203186 0.902313 0.568207
0.327393 0.902313 0.568207
0.459290 0.902313 0.568207
0.597168 0.902313 0.568207
0.740021 0.902313 0.568207
0.887146 0.902313 0.568207
0.000000 0.000000 0.687592
0.089905 0.000000 0.687592
0.203186 0.000000 0.687592
0.327393 0.000000 0.687592
0.459290 0.000000 0.687592
0.597168 0.000000 0.687592
0.740021 0.000000 0.687592
0.887146 0.000000 0.687592
0.000000 0.126373 0.687592
0.089905 0.126373 0.687592
0.203186 0.126373 0.687592
0.327393 0.126373 0.687592
0.459290 0.126373 0.687592
0.597168 0.126373 0.687592
0.740021 0.126373 0.687592
0.887146 0.126373 0.687592
0.000000 0.254547 0.687592
0.089905 0.254547 0.687592
0.203186 0.254547 0.687592
0.327393 0.254547 0.687592
0.459290 0.254547 0.687592
0.597168 0.254547 0.687592
0.740021 0.254547 0.687592
0.887146 0.254547 0.687592
0.000000 0.383392 0.687592
0.089905 0.383392 0.687592
0.203186 0.383392 0.687592
0.327393 0.383392 0.687592
0.459290 0.383392 0.687592
0.597168 0.383392 0.687592
0.740021 0.383392 0.687592
0.887146 0.383392 0.687592
0.000000 0.512695 0.687592
0.089905 0.512695 0.687592
0.203186 0.512695 0.687592
0.327393 0.512695 0.687592
0.459290 0.512695 0.687592
0.597168 0.512695 0.687592
0.740021 0.512695 0.687592
0.887146 0.512695 0.687592
0.000000 0.642334 0.687592
0.089905 0.642334 0.687592
0.203186 0.642334 0.687592
0.327393 0.642334 0.687592
0.459290 0.642334 0.687592
0.597168 0.642334 0.687592
0.740021 0.642334 0.687592
0.887146 0.642334 0.687592
0.000000 0.772186 0.687592
0.089905 0.772186 0.687592
0.203186 0.772186 0.687592
0.327393 0.772186 0.687592
0.459290 0.772186 0.687592
0.597168 0.772186 0.687592
0.740021 0.772186 0.687592
0.887146 0.772186 0.687592
0.000000 0.902313 0.687592
0.089905 0.902313 0.687592
0.203186 0.902313 0.687592
0.327393 0.902313 0.687592
0.459290 0.902313 0.687592
0.597168 0.902313 0.687592
0.740021 0.902313 0.687592
0.887146 0.902313 0.687592
0.000000 0.000000 0.803528
0.089905 0.000000 0.803528
0.203186 0.000000 0.803528
0.327393 0.000000 0.803528
0.459290 0.000000 0.803528
0.597168 0.000000 0.803528
0.740021 0.000000 0.803528
0.887146 0.000000 0.803528
0.000000 0.126373 0.803528
0.089905 0.126373 0.803528
0.203186 0.126373 0.803528
0.327393 0.126373 0.803528
0.459290 0.126373 0.803528
0.597168 0.126373 0.803528
0.740021 0.126373 0.803528
0.887146 0.126373 0.803528
0.000000 0.254547 0.803528
0.089905 0.254547 0.803528
0.203186 0.254547 0.803528
0.327393 0.254547 0.803528
0.459290 0.254547 0.803528
0.597168 0.254547 0.803528
0.740021 0.254547 0.803528
0.887146 0.254547 0.803528
0.000000 0.383392 0.803528
0.089905 0.383392 0.803528
0.203186 0.383392 0.803528
0.327393 0.383392 0.803528
0.459290 0.383392 0.803528
0.597168 0.383392 0.803528
0.740021 0.383392 0.803528
0.887146 0.383392 0.803528
0.000000 0.512695 0.803528
0.089905 0.512695 0.803528
0.203186 0.512695 0.803528
0.327393 0.512695 0.803528
0.459290 0.512695 0.803528
0.597168 0.512695 0.803528
0.740021 0.512695 0.803528
0.887146 0.512695 0.803528
0.000000 0.642334 0.803528
0.089905 0.642334 0.803528
0.203186 0.642334 0.803528
0.327393 0.642334 0.803528
0.459290 0.642334 0.803528
0.597168 0.642334 0.803528
0.740021 0.642334 0.803528
0.887146 0.642334 0.803528
0.000000 0.772186 0.803528
0.089905 0.772186 0.803528
0.203186 0.772186 0.803528
0.327393 0.772186 0.803528
0.459290 0.772186 0.803528
0.597168 0.772186 0.803528
0.740021 0.772186 0.803528
0.887146 0.772186 0.803528
0.000000 0.902313 0.803528
0.089905 0.902313 0.803528
0.203186 0.902313 0.803528
0.327393 0.902313 0.803528
0.459290 0.902313 0.803528
0.597168 0.902313 0.803528
0.740021 0.902313 0.803528
0.887146 0.902313 0.803528
0.000000 0.000000 0.916687
0.089905 0.000000 0.916687
0.203186 0.000000 0.916687
0.327393 0.000000 0.916687
0.459290 0.000000 0.916687
0.597168 0.000000 0.916687
0.740021 0.000000 0.916687
0.887146 0.000000 0.916687
0.000000 0.126373 0.916687
0.089905 0.126373 0.916687
0.203186 0.126373 0.916687
0.327393 0.126373 0.916687
0.459290 0.126373 0.916687
0.597168 0.126373 0.916687
0.740021 0.126373 0.916687
0.887146 0.126373 0.916687
0.000000 0.254547 0.916687
0.089905 0.254547 0.916687
0.203186 0.254547 0.916687
0.327393 0.254547 0.916687
0.459290 0.254547 0.916687
0.597168 0.254547 0.916687
0.740021 0.254547 0.916687
0.887146 0.254547 0.916687
0.000000 0.383392 0.916687
0.089905 0.383392 0.916687
0.203186 0.383392 0.916687
0.327393 0.383392 0.916687
0.459290 0.383392 0.916687
0.597168 0.383392 0.916687
0.740021 0.383392 0.916687
0.887146 0.383392 0.916687
0.000000 0.512695 0.916687
0.089905 0.512695 0.916687
0.203186 0.512695 0.916687
0.327393 0.512695 0.916687
0.459290 0.512695 0.916687
0.597168 0.512695 0.916687
0.740021 0.512695 0.916687
0.887146 0.512695 0.916687
0.000000 0.642334 0.916687
0.089905 0.642334 0.916687
0.203186 0.642334 0.916687
0.327393 0.642334 0.916687
0.459290 0.642334 0.916687
0.597168 0.642334 0.916687
0.740021 0.642334 0.916687
0.887146 0.642334 0.916687
0.000000 0.772186 0.916687
0.089905 0.772186 0.916687
0.203186 0.772186 0.916687
0.327393 0.772186 0.916687
0.459290 0.772186 0.916687
0.597168 0.772186 0.916687
0.740021 0.772186 0.916687
0.887146 0.772186 0.916687
0.000000 0.902313 0.916687
0.089905 0.902313 0.916687
0.203186 0.902313 0.916687
0.327393 0.902313 0.916687
0.459290 0.902313 0.916687
0.597168 0.902313 0.916687
0.740021 0.902313 0.916687
0.887146 0.902313 0.916687
