public/luts/MOLM Helsinki Factory Product Painting - 3-Large.CUBE
#Created by: Adobe Photoshop Export Color Lookup Plugin
TITLE "MOLM Helsinki Factory Product Painting - 3-Large.psd"
#LUT size
LUT_3D_SIZE 5
#data domain
#LUT data points
DOMAIN_MIN 0.000000 0.000000 0.000000
DOMAIN_MAX 0.903226 0.903226 0.903226
0.000000 0.000000 0.000000
0.000000 0.000000 0.000000
0.286713 0.000000 0.000000
0.521515 0.000000 0.000000
0.757019 0.000000 0.000000
0.000000 0.000000 0.000000
0.000000 0.000000 0.000000
0.286713 0.000000 0.000000
0.521515 0.000000 0.000000
0.757019 0.000000 0.000000
0.000000 0.286713 0.000000
0.000000 0.286713 0.000000
0.286713 0.286713 0.000000
0.521515 0.286713 0.000000
0.757019 0.286713 0.000000
0.000000 0.521515 0.000000
0.000000 0.521515 0.000000
0.286713 0.521515 0.000000
0.521515 0.521515 0.000000
0.757019 0.521515 0.000000
0.000000 0.757019 0.000000
0.000000 0.757019 0.000000
0.286713 0.757019 0.000000
0.521515 0.757019 0.000000
0.757019 0.757019 0.000000
0.000000 0.000000 0.000000
0.000000 0.000000 0.000000
0.286713 0.000000 0.000000
0.521515 0.000000 0.000000
0.757019 0.000000 0.000000
0.000000 0.000000 0.000000
0.000000 0.000000 0.000000
0.286713 0.000000 0.000000
0.521515 0.000000 0.000000
0.757019 0.000000 0.000000
0.000000 0.286713 0.000000
0.000000 0.286713 0.000000
0.286713 0.286713 0.000000
0.521515 0.286713 0.000000
0.757019 0.286713 0.000000
0.000000 0.521515 0.000000
0.000000 0.521515 0.000000
0.286713 0.521515 0.000000
0.521515 0.521515 0.000000
0.757019 0.521515 0.000000
0.000000 0.757019 0.000000
0.000000 0.757019 0.000000
0.286713 0.757019 0.000000
0.521515 0.757019 0.000000
0.757019 0.757019 0.000000
0.000000 0.000000 0.286713
0.000000 0.000000 0.286713
0.286713 0.000000 0.286713
0.521515 0.000000 0.286713
0.757019 0.000000 0.286713
0.000000 0.000000 0.286713
0.000000 0.000000 0.286713
0.286713 0.000000 0.286713
0.521515 0.000000 0.286713
0.757019 0.000000 0.286713
0.000000 0.286713 0.286713
0.000000 0.286713 0.286713
0.286713 0.286713 0.286713
0.521515 0.286713 0.286713
0.757019 0.286713 0.286713
0.000000 0.521515 0.286713
0.000000 0.521515 0.286713
0.286713 0.521515 0.286713
0.521515 0.521515 0.286713
0.757019 0.521515 0.286713
0.000000 0.757019 0.286713
0.000000 0.757019 0.286713
0.286713 0.757019 0.286713
0.521515 0.757019 0.286713
0.757019 0.757019 0.286713
0.000000 0.000000 0.521515
0.000000 0.000000 0.521515
0.286713 0.000000 0.521515
0.521515 0.000000 0.521515
0.757019 0.000000 0.521515
0.000000 0.000000 0.521515
0.000000 0.000000 0.521515
0.286713 0.000000 0.521515
0.521515 0.000000 0.521515
0.757019 0.000000 0.521515
0.000000 0.286713 0.521515
0.000000 0.286713 0.521515
0.286713 0.286713 0.521515
0.521515 0.286713 0.521515
0.757019 0.286713 0.521515
0.000000 0.521515 0.521515
0.000000 0.521515 0.521515
0.286713 0.521515 0.521515
0.521515 0.521515 0.521515
0.757019 0.521515 0.521515
0.000000 0.757019 0.521515
0.000000 0.757019 0.521515
0.286713 0.757019 0.521515
0.521515 0.757019 0.521515
0.757019 0.757019 0.521515
0.000000 0.000000 0.757019
0.000000 0.000000 0.757019
0.286713 0.000000 0.757019
0.521515 0.000000 0.757019
0.757019 0.000000 0.757019
0.000000 0.000000 0.757019
0.000000 0.000000 0.757019
0.286713 0.000000 0.757019
0.521515 0.000000 0.757019
0.757019 0.000000 0.757019
0.000000 0.286713 0.757019
0.000000 0.286713 0.757019
0.286713 0.286713 0.757019
0.521515 0.286713 0.757019
0.757019 0.286713 0.757019
0.000000 0.521515 0.757019
0.000000 0.521515 0.757019
0.286713 0.521515 0.757019
0.521515 0.521515 0.757019
0.757019 0.521515 0.757019
0.000000 0.757019 0.757019
0.000000 0.757019 0.757019
0.286713 0.757019 0.757019
0.521515 0.757019 0.757019
0.757019 0.757019 0.757019
