public/luts/Solar powered agricultural robot industriously operating in the field 2.CUBE
#Created by: Adobe Photoshop Export Color Lookup Plugin
TITLE "Solar powered agricultural robot industriously operating in the field 2.psd"
#LUT size
LUT_3D_SIZE 8
#data domain
#LUT data points
DOMAIN_MIN 0.000000 0.000000 0.000000
DOMAIN_MAX 0.903226 0.903226 0.903226
0.000000 0.000000 0.000000
0.082306 0.000000 0.000000
0.191681 0.000000 0.000000
0.314301 0.000000 0.000000
0.446381 0.000000 0.000000
0.585999 0.000000 0.000000
0.731903 0.000000 0.000000
0.883270 0.000000 0.000000
0.000000 0.126373 0.000000
0.082306 0.126373 0.000000
0.191681 0.126373 0.000000
0.314301 0.126373 0.000000
0.446381 0.126373 0.000000
0.585999 0.126373 0.000000
0.731903 0.126373 0.000000
0.883270 0.126373 0.000000
0.000000 0.254547 0.000000
0.082306 0.254547 0.000000
0.191681 0.254547 0.000000
0.314301 0.254547 0.000000
0.446381 0.254547 0.000000
0.585999 0.254547 0.000000
0.731903 0.254547 0.000000
0.883270 0.254547 0.000000
0.000000 0.383392 0.000000
0.082306 0.383392 0.000000
0.191681 0.383392 0.000000
0.314301 0.383392 0.000000
0.446381 0.383392 0.000000
0.585999 0.383392 0.000000
0.731903 0.383392 0.000000
0.883270 0.383392 0.000000
0.000000 0.512695 0.000000
0.082306 0.512695 0.000000
0.191681 0.512695 0.000000
0.314301 0.512695 0.000000
0.446381 0.512695 0.000000
0.585999 0.512695 0.000000
0.731903 0.512695 0.000000
0.883270 0.512695 0.000000
0.000000 0.642334 0.000000
0.082306 0.642334 0.000000
0.191681 0.642334 0.000000
0.314301 0.642334 0.000000
0.446381 0.642334 0.000000
0.585999 0.642334 0.000000
0.731903 0.642334 0.000000
0.883270 0.642334 0.000000
0.000000 0.772186 0.000000
0.082306 0.772186 0.000000
0.191681 0.772186 0.000000
0.314301 0.772186 0.000000
0.446381 0.772186 0.000000
0.585999 0.772186 0.000000
0.731903 0.772186 0.000000
0.883270 0.772186 0.000000
0.000000 0.902313 0.000000
0.082306 0.902313 0.000000
0.191681 0.902313 0.000000
0.314301 0.902313 0.000000
0.446381 0.902313 0.000000
0.585999 0.902313 0.000000
0.731903 0.902313 0.000000
0.883270 0.902313 0.000000
0.000000 0.000000 0.189240
0.082306 0.000000 0.189240
0.191681 0.000000 0.189240
0.314301 0.000000 0.189240
0.446381 0.000000 0.189240
0.585999 0.000000 0.189240
0.731903 0.000000 0.189240
0.883270 0.000000 0.189240
0.000000 0.126373 0.189240
0.082306 0.126373 0.189240
0.191681 0.126373 0.189240
0.314301 0.126373 0.189240
0.446381 0.126373 0.189240
0.585999 0.126373 0.189240
0.731903 0.126373 0.189240
0.883270 0.126373 0.189240
0.000000 0.254547 0.189240
0.082306 0.254547 0.189240
0.191681 0.254547 0.189240
0.314301 0.254547 0.189240
0.446381 0.254547 0.189240
0.585999 0.254547 0.189240
0.731903 0.254547 0.189240
0.883270 0.254547 0.189240
0.000000 0.383392 0.189240
0.082306 0.383392 0.189240
0.191681 0.383392 0.189240
0.314301 0.383392 0.189240
0.446381 0.383392 0.189240
0.585999 0.383392 0.189240
0.731903 0.383392 0.189240
0.883270 0.383392 0.189240
0.000000 0.512695 0.189240
0.082306 0.512695 0.189240
0.191681 0.512695 0.189240
0.314301 0.512695 0.189240
0.446381 0.512695 0.189240
0.585999 0.512695 0.189240
0.731903 0.512695 0.189240
0.883270 0.512695 0.189240
0.000000 0.642334 0.189240
0.082306 0.642334 0.189240
0.191681 0.642334 0.189240
0.314301 0.642334 0.189240
0.446381 0.642334 0.189240
0.585999 0.642334 0.189240
0.731903 0.642334 0.189240
0.883270 0.642334 0.189240
0.000000 0.772186 0.189240
0.082306 0.772186 0.189240
0.191681 0.772186 0.189240
0.314301 0.772186 0.189240
0.446381 0.772186 0.189240
0.585999 0.772186 0.189240
0.731903 0.772186 0.189240
0.883270 0.772186 0.189240
0.000000 0.902313 0.189240
0.082306 0.902313 0.189240
0.191681 0.902313 0.189240
0.314301 0.902313 0.189240
0.446381 0.902313 0.189240
0.585999 0.902313 0.189240
0.731903 0.902313 0.189240
0.883270 0.902313 0.189240
0.000000 0.000000 0.332458
0.082306 0.000000 0.332458
0.191681 0.000000 0.332458
0.314301 0.000000 0.332458
0.446381 0.000000 0.332458
0.585999 0.000000 0.332458
0.731903 0.000000 0.332458
0.883270 0.000000 0.332458
0.000000 0.126373 0.332458
0.082306 0.126373 0.332458
0.191681 0.126373 0.332458
0.314301 0.126373 0.332458
0.446381 0.126373 0.332458
0.585999 0.126373 0.332458
0.731903 0.126373 0.332458
0.883270 0.126373 0.332458
0.000000 0.254547 0.332458
0.082306 0.254547 0.332458
0.191681 0.254547 0.332458
0.314301 0.254547 0.332458
0.446381 0.254547 0.332458
0.585999 0.254547 0.332458
0.731903 0.254547 0.332458
0.883270 0.254547 0.332458
0.000000 0.383392 0.332458
0.082306 0.383392 0.332458
0.191681 0.383392 0.332458
0.314301 0.383392 0.332458
0.446381 0.383392 0.332458
0.585999 0.383392 0.332458
0.731903 0.383392 0.332458
0.883270 0.383392 0.332458
0.000000 0.512695 0.332458
0.082306 0.512695 0.332458
0.191681 0.512695 0.332458
0.314301 0.512695 0.332458
0.446381 0.512695 0.332458
0.585999 0.512695 0.332458
0.731903 0.512695 0.332458
0.883270 0.512695 0.332458
0.000000 0.642334 0.332458
0.082306 0.642334 0.332458
0.191681 0.642334 0.332458
0.314301 0.642334 0.332458
0.446381 0.642334 0.332458
0.585999 0.642334 0.332458
0.731903 0.642334 0.332458
0.883270 0.642334 0.332458
0.000000 0.772186 0.332458
0.082306 0.772186 0.332458
0.191681 0.772186 0.332458
0.314301 0.772186 0.332458
0.446381 0.772186 0.332458
0.585999 0.772186 0.332458
0.731903 0.772186 0.332458
0.883270 0.772186 0.332458
0.000000 0.902313 0.332458
0.082306 0.902313 0.332458
0.191681 0.902313 0.332458
0.314301 0.902313 0.332458
0.446381 0.902313 0.332458
0.585999 0.902313 0.332458
0.731903 0.902313 0.332458
0.883270 0.902313 0.332458
0.000000 0.000000 0.462250
0.082306 0.000000 0.462250
0.191681 0.000000 0.462250
0.314301 0.000000 0.462250
0.446381 0.000000 0.462250
0.585999 0.000000 0.462250
0.731903 0.000000 0.462250
0.883270 0.000000 0.462250
0.000000 0.126373 0.462250
0.082306 0.126373 0.462250
0.191681 0.126373 0.462250
0.314301 0.126373 0.462250
0.446381 0.126373 0.462250
0.585999 0.126373 0.462250
0.731903 0.126373 0.462250
0.883270 0.126373 0.462250
0.000000 0.254547 0.462250
0.082306 0.254547 0.462250
0.191681 0.254547 0.462250
0.314301 0.254547 0.462250
0.446381 0.254547 0.462250
0.585999 0.254547 0.462250
0.731903 0.254547 0.462250
0.883270 0.254547 0.462250
0.000000 0.383392 0.462250
0.082306 0.383392 0.462250
0.191681 0.383392 0.462250
0.314301 0.383392 0.462250
0.446381 0.383392 0.462250
0.585999 0.383392 0.462250
0.731903 0.383392 0.462250
0.883270 0.383392 0.462250
0.000000 0.512695 0.462250
0.082306 0.512695 0.462250
0.191681 0.512695 0.462250
0.314301 0.512695 0.462250
0.446381 0.512695 0.462250
0.585999 0.512695 0.462250
0.731903 0.512695 0.462250
0.883270 0.512695 0.462250
0.000000 0.642334 0.462250
0.082306 0.642334 0.462250
0.191681 0.642334 0.462250
0.314301 0.642334 0.462250
0.446381 0.642334 0.462250
0.585999 0.642334 0.462250
0.731903 0.642334 0.462250
0.883270 0.642334 0.462250
0.000000 0.772186 0.462250
0.082306 0.772186 0.462250
0.191681 0.772186 0.462250
0.314301 0.772186 0.462250
0.446381 0.772186 0.462250
0.585999 0.772186 0.462250
0.731903 0.772186 0.462250
0.883270 0.772186 0.462250
0.000000 0.902313 0.462250
0.082306 0.902313 0.462250
0.191681 0.902313 0.462250
0.314301 0.902313 0.462250
0.446381 0.902313 0.462250
0.585999 0.902313 0.462250
0.731903 0.902313 0.462250
0.883270 0.902313 0.462250
0.000000 0.000000 0.584106
0.082306 0.000000 0.584106
0.191681 0.000000 0.584106
0.314301 0.000000 0.584106
0.446381 0.000000 0.584106
0.585999 0.000000 0.584106
0.731903 0.000000 0.584106
0.883270 0.000000 0.584106
0.000000 0.126373 0.584106
0.082306 0.126373 0.584106
0.191681 0.126373 0.584106
0.314301 0.126373 0.584106
0.446381 0.126373 0.584106
0.585999 0.126373 0.584106
0.731903 0.126373 0.584106
0.883270 0.126373 0.584106
0.000000 0.254547 0.584106
0.082306 0.254547 0.584106
0.191681 0.254547 0.584106
0.314301 0.254547 0.584106
0.446381 0.254547 0.584106
0.585999 0.254547 0.584106
0.731903 0.254547 0.584106
0.883270 0.254547 0.584106
0.000000 0.383392 0.584106
0.082306 0.383392 0.584106
0.191681 0.383392 0.584106
0.314301 0.383392 0.584106
0.446381 0.383392 0.584106
0.585999 0.383392 0.584106
0.731903 0.383392 0.584106
0.883270 0.383392 0.584106
0.000000 0.512695 0.584106
0.082306 0.512695 0.584106
0.191681 0.512695 0.584106
0.314301 0.512695 0.584106
0.446381 0.512695 0.584106
0.585999 0.512695 0.584106
0.731903 0.512695 0.584106
0.883270 0.512695 0.584106
0.000000 0.642334 0.584106
0.082306 0.642334 0.584106
0.191681 0.642334 0.584106
0.314301 0.642334 0.584106
0.446381 0.642334 0.584106
0.585999 0.642334 0.584106
0.731903 0.642334 0.584106
0.883270 0.642334 0.584106
0.000000 0.772186 0.584106
0.082306 0.772186 0.584106
0.191681 0.772186 0.584106
0.314301 0.772186 0.584106
0.446381 0.772186 0.584106
0.585999 0.772186 0.584106
0.731903 0.772186 0.584106
0.883270 0.772186 0.584106
0.000000 0.902313 0.584106
0.082306 0.902313 0.584106
0.191681 0.902313 0.584106
0.314301 0.902313 0.584106
0.446381 0.902313 0.584106
0.585999 0.902313 0.584106
0.731903 0.902313 0.584106
0.883270 0.902313 0.584106
0.000000 0.000000 0.700256
0.082306 0.000000 0.700256
0.191681 0.000000 0.700256
0.314301 0.000000 0.700256
0.446381 0.000000 0.700256
0.585999 0.000000 0.700256
0.731903 0.000000 0.700256
0.883270 0.000000 0.700256
0.000000 0.126373 0.700256
0.082306 0.126373 0.700256
0.191681 0.126373 0.700256
0.314301 0.126373 0.700256
0.446381 0.126373 0.700256
0.585999 0.126373 0.700256
0.731903 0.126373 0.700256
0.883270 0.126373 0.700256
0.000000 0.254547 0.700256
0.082306 0.254547 0.700256
0.191681 0.254547 0.700256
0.314301 0.254547 0.700256
0.446381 0.254547 0.700256
0.585999 0.254547 0.700256
0.731903 0.254547 0.700256
0.883270 0.254547 0.700256
0.000000 0.383392 0.700256
0.082306 0.383392 0.700256
0.191681 0.383392 0.700256
0.314301 0.383392 0.700256
0.446381 0.383392 0.700256
0.585999 0.383392 0.700256
0.731903 0.383392 0.700256
0.883270 0.383392 0.700256
0.000000 0.512695 0.700256
0.082306 0.512695 0.700256
0.191681 0.512695 0.700256
0.314301 0.512695 0.700256
0.446381 0.512695 0.700256
0.585999 0.512695 0.700256
0.731903 0.512695 0.700256
0.883270 0.512695 0.700256
0.000000 0.642334 0.700256
0.082306 0.642334 0.700256
0.191681 0.642334 0.700256
0.314301 0.642334 0.700256
0.446381 0.642334 0.700256
0.585999 0.642334 0.700256
0.731903 0.642334 0.700256
0.883270 0.642334 0.700256
0.000000 0.772186 0.700256
0.082306 0.772186 0.700256
0.191681 0.772186 0.700256
0.314301 0.772186 0.700256
0.446381 0.772186 0.700256
0.585999 0.772186 0.700256
0.731903 0.772186 0.700256
0.883270 0.772186 0.700256
0.000000 0.902313 0.700256
0.082306 0.902313 0.700256
0.191681 0.902313 0.700256
0.314301 0.902313 0.700256
0.446381 0.902313 0.700256
0.585999 0.902313 0.700256
0.731903 0.902313 0.700256
0.883270 0.902313 0.700256
0.000000 0.000000 0.812164
0.082306 0.000000 0.812164
0.191681 0.000000 0.812164
0.314301 0.000000 0.812164
0.446381 0.000000 0.812164
0.585999 0.000000 0.812164
0.731903 0.000000 0.812164
0.883270 0.000000 0.812164
0.000000 0.126373 0.812164
0.082306 0.126373 0.812164
0.191681 0.126373 0.812164
0.314301 0.126373 0.812164
0.446381 0.126373 0.812164
0.585999 0.126373 0.812164
0.731903 0.126373 0.812164
0.883270 0.126373 0.812164
0.000000 0.254547 0.812164
0.082306 0.254547 0.812164
0.191681 0.254547 0.812164
0.314301 0.254547 0.812164
0.446381 0.254547 0.812164
0.585999 0.254547 0.812164
0.731903 0.254547 0.812164
0.883270 0.254547 0.812164
0.000000 0.383392 0.812164
0.082306 0.383392 0.812164
0.191681 0.383392 0.812164
0.314301 0.383392 0.812164
0.446381 0.383392 0.812164
0.585999 0.383392 0.812164
0.731903 0.383392 0.812164
0.883270 0.383392 0.812164
0.000000 0.512695 0.812164
0.082306 0.512695 0.812164
0.191681 0.512695 0.812164
0.314301 0.512695 0.812164
0.446381 0.512695 0.812164
0.585999 0.512695 0.812164
0.731903 0.512695 0.812164
0.883270 0.512695 0.812164
0.000000 0.642334 0.812164
0.082306 0.642334 0.812164
0.191681 0.642334 0.812164
0.314301 0.642334 0.812164
0.446381 0.642334 0.812164
0.585999 0.642334 0.812164
0.731903 0.642334 0.812164
0.883270 0.642334 0.812164
0.000000 0.772186 0.812164
0.082306 0.772186 0.812164
0.191681 0.772186 0.812164
0.314301 0.772186 0.812164
0.446381 0.772186 0.812164
0.585999 0.772186 0.812164
0.731903 0.772186 0.812164
0.883270 0.772186 0.812164
0.000000 0.902313 0.812164
0.082306 0.902313 0.812164
0.191681 0.902313 0.812164
0.314301 0.902313 0.812164
0.446381 0.902313 0.812164
0.585999 0.902313 0.812164
0.731903 0.902313 0.812164
0.883270 0.902313 0.812164
0.000000 0.000000 0.920593
0.082306 0.000000 0.920593
0.191681 0.000000 0.920593
0.314301 0.000000 0.920593
0.446381 0.000000 0.920593
0.585999 0.000000 0.920593
0.731903 0.000000 0.920593
0.883270 0.000000 0.920593
0.000000 0.126373 0.920593
0.082306 0.126373 0.920593
0.191681 0.126373 0.920593
0.314301 0.126373 0.920593
0.446381 0.126373 0.920593
0.585999 0.126373 0.920593
0.731903 0.126373 0.920593
0.883270 0.126373 0.920593
0.000000 0.254547 0.920593
0.082306 0.254547 0.920593
0.191681 0.254547 0.920593
0.314301 0.254547 0.920593
0.446381 0.254547 0.920593
0.585999 0.254547 0.920593
0.731903 0.254547 0.920593
0.883270 0.254547 0.920593
0.000000 0.383392 0.920593
0.082306 0.383392 0.920593
0.191681 0.383392 0.920593
0.314301 0.383392 0.920593
0.446381 0.383392 0.920593
0.585999 0.383392 0.920593
0.731903 0.383392 0.920593
0.883270 0.383392 0.920593
0.000000 0.512695 0.920593
0.082306 0.512695 0.920593
0.191681 0.512695 0.920593
0.314301 0.512695 0.920593
0.446381 0.512695 0.920593
0.585999 0.512695 0.920593
0.731903 0.512695 0.920593
0.883270 0.512695 0.920593
0.000000 0.642334 0.920593
0.082306 0.642334 0.920593
0.191681 0.642334 0.920593
0.314301 0.642334 0.920593
0.446381 0.642334 0.920593
0.585999 0.642334 0.920593
0.731903 0.642334 0.920593
0.883270 0.642334 0.920593
0.000000 0.772186 0.920593
0.082306 0.772186 0.920593
0.191681 0.772186 0.920593
0.314301 0.772186 0.920593
0.446381 0.772186 0.920593
0.585999 0.772186 0.920593
0.731903 0.772186 0.920593
0.883270 0.772186 0.920593
0.000000 0.902313 0.920593
0.082306 0.902313 0.920593
0.191681 0.902313 0.920593
0.314301 0.902313 0.920593
0.446381 0.902313 0.920593
0.585999 0.902313 0.920593
0.731903 0.902313 0.920593
0.883270 0.902313 0.920593
