public/luts/Solar powered agricultural robot industriously operating in the field 2.CUBE
#Created by: Adobe Photoshop Export Color Lookup Plugin
TITLE "Solar powered agricultural robot industriously operating in the field 2.psd"
#LUT size
LUT_3D_SIZE 5
#data domain
#LUT data points
DOMAIN_MIN 0.000000 0.000000 0.000000
DOMAIN_MAX 0.903226 0.903226 0.903226
0.000000 0.000000 0.000000
0.162872 0.000000 0.000000
0.379303 0.000000 0.000000
0.621918 0.000000 0.000000
0.883270 0.000000 0.000000
0.000000 0.222443 0.000000
0.162872 0.222443 0.000000
0.379303 0.222443 0.000000
0.621918 0.222443 0.000000
0.883270 0.222443 0.000000
0.000000 0.447998 0.000000
0.162872 0.447998 0.000000
0.379303 0.447998 0.000000
0.621918 0.447998 0.000000
0.883270 0.447998 0.000000
0.000000 0.674774 0.000000
0.162872 0.674774 0.000000
0.379303 0.674774 0.000000
0.621918 0.674774 0.000000
0.883270 0.674774 0.000000
0.000000 0.902313 0.000000
0.162872 0.902313 0.000000
0.379303 0.902313 0.000000
0.621918 0.902313 0.000000
0.883270 0.902313 0.000000
0.000000 0.000000 0.298248
0.162872 0.000000 0.298248
0.379303 0.000000 0.298248
0.621918 0.000000 0.298248
0.883270 0.000000 0.298248
0.000000 0.222443 0.298248
0.162872 0.222443 0.298248
0.379303 0.222443 0.298248
0.621918 0.222443 0.298248
0.883270 0.222443 0.298248
0.000000 0.447998 0.298248
0.162872 0.447998 0.298248
0.379303 0.447998 0.298248
0.621918 0.447998 0.298248
0.883270 0.447998 0.298248
0.000000 0.674774 0.298248
0.162872 0.674774 0.298248
0.379303 0.674774 0.298248
0.621918 0.674774 0.298248
0.883270 0.674774 0.298248
0.000000 0.902313 0.298248
0.162872 0.902313 0.298248
0.379303 0.902313 0.298248
0.621918 0.902313 0.298248
0.883270 0.902313 0.298248
0.000000 0.000000 0.523987
0.162872 0.000000 0.523987
0.379303 0.000000 0.523987
0.621918 0.000000 0.523987
0.883270 0.000000 0.523987
0.000000 0.222443 0.523987
0.162872 0.222443 0.523987
0.379303 0.222443 0.523987
0.621918 0.222443 0.523987
0.883270 0.222443 0.523987
0.000000 0.447998 0.523987
0.162872 0.447998 0.523987
0.379303 0.447998 0.523987
0.621918 0.447998 0.523987
0.883270 0.447998 0.523987
0.000000 0.674774 0.523987
0.162872 0.674774 0.523987
0.379303 0.674774 0.523987
0.621918 0.674774 0.523987
0.883270 0.674774 0.523987
0.000000 0.902313 0.523987
0.162872 0.902313 0.523987
0.379303 0.902313 0.523987
0.621918 0.902313 0.523987
0.883270 0.902313 0.523987
0.000000 0.000000 0.728607
0.162872 0.000000 0.728607
0.379303 0.000000 0.728607
0.621918 0.000000 0.728607
0.883270 0.000000 0.728607
0.000000 0.222443 0.728607
0.162872 0.222443 0.728607
0.379303 0.222443 0.728607
0.621918 0.222443 0.728607
0.883270 0.222443 0.728607
0.000000 0.447998 0.728607
0.162872 0.447998 0.728607
0.379303 0.447998 0.728607
0.621918 0.447998 0.728607
0.883270 0.447998 0.728607
0.000000 0.674774 0.728607
0.162872 0.674774 0.728607
0.379303 0.674774 0.728607
0.621918 0.674774 0.728607
0.883270 0.674774 0.728607
0.000000 0.902313 0.728607
0.162872 0.902313 0.728607
0.379303 0.902313 0.728607
0.621918 0.902313 0.728607
0.883270 0.902313 0.728607
0.000000 0.000000 0.920593
0.162872 0.000000 0.920593
0.379303 0.000000 0.920593
0.621918 0.000000 0.920593
0.883270 0.000000 0.920593
0.000000 0.222443 0.920593
0.162872 0.222443 0.920593
0.379303 0.222443 0.920593
0.621918 0.222443 0.920593
0.883270 0.222443 0.920593
0.000000 0.447998 0.920593
0.162872 0.447998 0.920593
0.379303 0.447998 0.920593
0.621918 0.447998 0.920593
0.883270 0.447998 0.920593
0.000000 0.674774 0.920593
0.162872 0.674774 0.920593
0.379303 0.674774 0.920593
0.621918 0.674774 0.920593
0.883270 0.674774 0.920593
0.000000 0.902313 0.920593
0.162872 0.902313 0.920593
0.379303 0.902313 0.920593
0.621918 0.902313 0.920593
0.883270 0.902313 0.920593
