public/luts/Solar powered agricultural robot industriously operating in the field.CUBE
#Created by: Adobe Photoshop Export Color Lookup Plugin
TITLE "Solar powered agricultural robot industriously operating in the field.psd"
#LUT size
LUT_3D_SIZE 8
#data domain
#LUT data points
DOMAIN_MIN 0.000000 0.000000 0.000000
DOMAIN_MAX 0.903226 0.903226 0.903226
0.000000 0.000000 0.000000
0.105377 0.000000 0.000000
0.225708 0.000000 0.000000
0.352417 0.000000 0.000000
0.483459 0.000000 0.000000
0.617798 0.000000 0.000000
0.754852 0.000000 0.000000
0.894196 0.000000 0.000000
0.000000 0.123749 0.000000
0.105377 0.123749 0.000000
0.225708 0.123749 0.000000
0.352417 0.123749 0.000000
0.483459 0.123749 0.000000
0.617798 0.123749 0.000000
0.754852 0.123749 0.000000
0.894196 0.123749 0.000000
0.000000 0.251007 0.000000
0.105377 0.251007 0.000000
0.225708 0.251007 0.000000
0.352417 0.251007 0.000000
0.483459 0.251007 0.000000
0.617798 0.251007 0.000000
0.754852 0.251007 0.000000
0.894196 0.251007 0.000000
0.000000 0.379669 0.000000
0.105377 0.379669 0.000000
0.225708 0.379669 0.000000
0.352417 0.379669 0.000000
0.483459 0.379669 0.000000
0.617798 0.379669 0.000000
0.754852 0.379669 0.000000
0.894196 0.379669 0.000000
0.000000 0.509216 0.000000
0.105377 0.509216 0.000000
0.225708 0.509216 0.000000
0.352417 0.509216 0.000000
0.483459 0.509216 0.000000
0.617798 0.509216 0.000000
0.754852 0.509216 0.000000
0.894196 0.509216 0.000000
0.000000 0.639435 0.000000
0.105377 0.639435 0.000000
0.225708 0.639435 0.000000
0.352417 0.639435 0.000000
0.483459 0.639435 0.000000
0.617798 0.639435 0.000000
0.754852 0.639435 0.000000
0.894196 0.639435 0.000000
0.000000 0.770172 0.000000
0.105377 0.770172 0.000000
0.225708 0.770172 0.000000
0.352417 0.770172 0.000000
0.483459 0.770172 0.000000
0.617798 0.770172 0.000000
0.754852 0.770172 0.000000
0.894196 0.770172 0.000000
0.000000 0.901367 0.000000
0.105377 0.901367 0.000000
0.225708 0.901367 0.000000
0.352417 0.901367 0.000000
0.483459 0.901367 0.000000
0.617798 0.901367 0.000000
0.754852 0.901367 0.000000
0.894196 0.901367 0.000000
0.000000 0.000000 0.152802
0.105377 0.000000 0.152802
0.225708 0.000000 0.152802
0.352417 0.000000 0.152802
0.483459 0.000000 0.152802
0.617798 0.000000 0.152802
0.754852 0.000000 0.152802
0.894196 0.000000 0.152802
0.000000 0.123749 0.152802
0.105377 0.123749 0.152802
0.225708 0.123749 0.152802
0.352417 0.123749 0.152802
0.483459 0.123749 0.152802
0.617798 0.123749 0.152802
0.754852 0.123749 0.152802
0.894196 0.123749 0.152802
0.000000 0.251007 0.152802
0.105377 0.251007 0.152802
0.225708 0.251007 0.152802
0.352417 0.251007 0.152802
0.483459 0.251007 0.152802
0.617798 0.251007 0.152802
0.754852 0.251007 0.152802
0.894196 0.251007 0.152802
0.000000 0.379669 0.152802
0.105377 0.379669 0.152802
0.225708 0.379669 0.152802
0.352417 0.379669 0.152802
0.483459 0.379669 0.152802
0.617798 0.379669 0.152802
0.754852 0.379669 0.152802
0.894196 0.379669 0.152802
0.000000 0.509216 0.152802
0.105377 0.509216 0.152802
0.225708 0.509216 0.152802
0.352417 0.509216 0.152802
0.483459 0.509216 0.152802
0.617798 0.509216 0.152802
0.754852 0.509216 0.152802
0.894196 0.509216 0.152802
0.000000 0.639435 0.152802
0.105377 0.639435 0.152802
0.225708 0.639435 0.152802
0.352417 0.639435 0.152802
0.483459 0.639435 0.152802
0.617798 0.639435 0.152802
0.754852 0.639435 0.152802
0.894196 0.639435 0.152802
0.000000 0.770172 0.152802
0.105377 0.770172 0.152802
0.225708 0.770172 0.152802
0.352417 0.770172 0.152802
0.483459 0.770172 0.152802
0.617798 0.770172 0.152802
0.754852 0.770172 0.152802
0.894196 0.770172 0.152802
0.000000 0.901367 0.152802
0.105377 0.901367 0.152802
0.225708 0.901367 0.152802
0.352417 0.901367 0.152802
0.483459 0.901367 0.152802
0.617798 0.901367 0.152802
0.754852 0.901367 0.152802
0.894196 0.901367 0.152802
0.000000 0.000000 0.288605
0.105377 0.000000 0.288605
0.225708 0.000000 0.288605
0.352417 0.000000 0.288605
0.483459 0.000000 0.288605
0.617798 0.000000 0.288605
0.754852 0.000000 0.288605
0.894196 0.000000 0.288605
0.000000 0.123749 0.288605
0.105377 0.123749 0.288605
0.225708 0.123749 0.288605
0.352417 0.123749 0.288605
0.483459 0.123749 0.288605
0.617798 0.123749 0.288605
0.754852 0.123749 0.288605
0.894196 0.123749 0.288605
0.000000 0.251007 0.288605
0.105377 0.251007 0.288605
0.225708 0.251007 0.288605
0.352417 0.251007 0.288605
0.483459 0.251007 0.288605
0.617798 0.251007 0.288605
0.754852 0.251007 0.288605
0.894196 0.251007 0.288605
0.000000 0.379669 0.288605
0.105377 0.379669 0.288605
0.225708 0.379669 0.288605
0.352417 0.379669 0.288605
0.483459 0.379669 0.288605
0.617798 0.379669 0.288605
0.754852 0.379669 0.288605
0.894196 0.379669 0.288605
0.000000 0.509216 0.288605
0.105377 0.509216 0.288605
0.225708 0.509216 0.288605
0.352417 0.509216 0.288605
0.483459 0.509216 0.288605
0.617798 0.509216 0.288605
0.754852 0.509216 0.288605
0.894196 0.509216 0.288605
0.000000 0.639435 0.288605
0.105377 0.639435 0.288605
0.225708 0.639435 0.288605
0.352417 0.639435 0.288605
0.483459 0.639435 0.288605
0.617798 0.639435 0.288605
0.754852 0.639435 0.288605
0.894196 0.639435 0.288605
0.000000 0.770172 0.288605
0.105377 0.770172 0.288605
0.225708 0.770172 0.288605
0.352417 0.770172 0.288605
0.483459 0.770172 0.288605
0.617798 0.770172 0.288605
0.754852 0.770172 0.288605
0.894196 0.770172 0.288605
0.000000 0.901367 0.288605
0.105377 0.901367 0.288605
0.225708 0.901367 0.288605
0.352417 0.901367 0.288605
0.483459 0.901367 0.288605
0.617798 0.901367 0.288605
0.754852 0.901367 0.288605
0.894196 0.901367 0.288605
0.000000 0.000000 0.418640
0.105377 0.000000 0.418640
0.225708 0.000000 0.418640
0.352417 0.000000 0.418640
0.483459 0.000000 0.418640
0.617798 0.000000 0.418640
0.754852 0.000000 0.418640
0.894196 0.000000 0.418640
0.000000 0.123749 0.418640
0.105377 0.123749 0.418640
0.225708 0.123749 0.418640
0.352417 0.123749 0.418640
0.483459 0.123749 0.418640
0.617798 0.123749 0.418640
0.754852 0.123749 0.418640
0.894196 0.123749 0.418640
0.000000 0.251007 0.418640
0.105377 0.251007 0.418640
0.225708 0.251007 0.418640
0.352417 0.251007 0.418640
0.483459 0.251007 0.418640
0.617798 0.251007 0.418640
0.754852 0.251007 0.418640
0.894196 0.251007 0.418640
0.000000 0.379669 0.418640
0.105377 0.379669 0.418640
0.225708 0.379669 0.418640
0.352417 0.379669 0.418640
0.483459 0.379669 0.418640
0.617798 0.379669 0.418640
0.754852 0.379669 0.418640
0.894196 0.379669 0.418640
0.000000 0.509216 0.418640
0.105377 0.509216 0.418640
0.225708 0.509216 0.418640
0.352417 0.509216 0.418640
0.483459 0.509216 0.418640
0.617798 0.509216 0.418640
0.754852 0.509216 0.418640
0.894196 0.509216 0.418640
0.000000 0.639435 0.418640
0.105377 0.639435 0.418640
0.225708 0.639435 0.418640
0.352417 0.639435 0.418640
0.483459 0.639435 0.418640
0.617798 0.639435 0.418640
0.754852 0.639435 0.418640
0.894196 0.639435 0.418640
0.000000 0.770172 0.418640
0.105377 0.770172 0.418640
0.225708 0.770172 0.418640
0.352417 0.770172 0.418640
0.483459 0.770172 0.418640
0.617798 0.770172 0.418640
0.754852 0.770172 0.418640
0.894196 0.770172 0.418640
0.000000 0.901367 0.418640
0.105377 0.901367 0.418640
0.225708 0.901367 0.418640
0.352417 0.901367 0.418640
0.483459 0.901367 0.418640
0.617798 0.901367 0.418640
0.754852 0.901367 0.418640
0.894196 0.901367 0.418640
0.000000 0.000000 0.545105
0.105377 0.000000 0.545105
0.225708 0.000000 0.545105
0.352417 0.000000 0.545105
0.483459 0.000000 0.545105
0.617798 0.000000 0.545105
0.754852 0.000000 0.545105
0.894196 0.000000 0.545105
0.000000 0.123749 0.545105
0.105377 0.123749 0.545105
0.225708 0.123749 0.545105
0.352417 0.123749 0.545105
0.483459 0.123749 0.545105
0.617798 0.123749 0.545105
0.754852 0.123749 0.545105
0.894196 0.123749 0.545105
0.000000 0.251007 0.545105
0.105377 0.251007 0.545105
0.225708 0.251007 0.545105
0.352417 0.251007 0.545105
0.483459 0.251007 0.545105
0.617798 0.251007 0.545105
0.754852 0.251007 0.545105
0.894196 0.251007 0.545105
0.000000 0.379669 0.545105
0.105377 0.379669 0.545105
0.225708 0.379669 0.545105
0.352417 0.379669 0.545105
0.483459 0.379669 0.545105
0.617798 0.379669 0.545105
0.754852 0.379669 0.545105
0.894196 0.379669 0.545105
0.000000 0.509216 0.545105
0.105377 0.509216 0.545105
0.225708 0.509216 0.545105
0.352417 0.509216 0.545105
0.483459 0.509216 0.545105
0.617798 0.509216 0.545105
0.754852 0.509216 0.545105
0.894196 0.509216 0.545105
0.000000 0.639435 0.545105
0.105377 0.639435 0.545105
0.225708 0.639435 0.545105
0.352417 0.639435 0.545105
0.483459 0.639435 0.545105
0.617798 0.639435 0.545105
0.754852 0.639435 0.545105
0.894196 0.639435 0.545105
0.000000 0.770172 0.545105
0.105377 0.770172 0.545105
0.225708 0.770172 0.545105
0.352417 0.770172 0.545105
0.483459 0.770172 0.545105
0.617798 0.770172 0.545105
0.754852 0.770172 0.545105
0.894196 0.770172 0.545105
0.000000 0.901367 0.545105
0.105377 0.901367 0.545105
0.225708 0.901367 0.545105
0.352417 0.901367 0.545105
0.483459 0.901367 0.545105
0.617798 0.901367 0.545105
0.754852 0.901367 0.545105
0.894196 0.901367 0.545105
0.000000 0.000000 0.668945
0.105377 0.000000 0.668945
0.225708 0.000000 0.668945
0.352417 0.000000 0.668945
0.483459 0.000000 0.668945
0.617798 0.000000 0.668945
0.754852 0.000000 0.668945
0.894196 0.000000 0.668945
0.000000 0.123749 0.668945
0.105377 0.123749 0.668945
0.225708 0.123749 0.668945
0.352417 0.123749 0.668945
0.483459 0.123749 0.668945
0.617798 0.123749 0.668945
0.754852 0.123749 0.668945
0.894196 0.123749 0.668945
0.000000 0.251007 0.668945
0.105377 0.251007 0.668945
0.225708 0.251007 0.668945
0.352417 0.251007 0.668945
0.483459 0.251007 0.668945
0.617798 0.251007 0.668945
0.754852 0.251007 0.668945
0.894196 0.251007 0.668945
0.000000 0.379669 0.668945
0.105377 0.379669 0.668945
0.225708 0.379669 0.668945
0.352417 0.379669 0.668945
0.483459 0.379669 0.668945
0.617798 0.379669 0.668945
0.754852 0.379669 0.668945
0.894196 0.379669 0.668945
0.000000 0.509216 0.668945
0.105377 0.509216 0.668945
0.225708 0.509216 0.668945
0.352417 0.509216 0.668945
0.483459 0.509216 0.668945
0.617798 0.509216 0.668945
0.754852 0.509216 0.668945
0.894196 0.509216 0.668945
0.000000 0.639435 0.668945
0.105377 0.639435 0.668945
0.225708 0.639435 0.668945
0.352417 0.639435 0.668945
0.483459 0.639435 0.668945
0.617798 0.639435 0.668945
0.754852 0.639435 0.668945
0.894196 0.639435 0.668945
0.000000 0.770172 0.668945
0.105377 0.770172 0.668945
0.225708 0.770172 0.668945
0.352417 0.770172 0.668945
0.483459 0.770172 0.668945
0.617798 0.770172 0.668945
0.754852 0.770172 0.668945
0.894196 0.770172 0.668945
0.000000 0.901367 0.668945
0.105377 0.901367 0.668945
0.225708 0.901367 0.668945
0.352417 0.901367 0.668945
0.483459 0.901367 0.668945
0.617798 0.901367 0.668945
0.754852 0.901367 0.668945
0.894196 0.901367 0.668945
0.000000 0.000000 0.790741
0.105377 0.000000 0.790741
0.225708 0.000000 0.790741
0.352417 0.000000 0.790741
0.483459 0.000000 0.790741
0.617798 0.000000 0.790741
0.754852 0.000000 0.790741
0.894196 0.000000 0.790741
0.000000 0.123749 0.790741
0.105377 0.123749 0.790741
0.225708 0.123749 0.790741
0.352417 0.123749 0.790741
0.483459 0.123749 0.790741
0.617798 0.123749 0.790741
0.754852 0.123749 0.790741
0.894196 0.123749 0.790741
0.000000 0.251007 0.790741
0.105377 0.251007 0.790741
0.225708 0.251007 0.790741
0.352417 0.251007 0.790741
0.483459 0.251007 0.790741
0.617798 0.251007 0.790741
0.754852 0.251007 0.790741
0.894196 0.251007 0.790741
0.000000 0.379669 0.790741
0.105377 0.379669 0.790741
0.225708 0.379669 0.790741
0.352417 0.379669 0.790741
0.483459 0.379669 0.790741
0.617798 0.379669 0.790741
0.754852 0.379669 0.790741
0.894196 0.379669 0.790741
0.000000 0.509216 0.790741
0.105377 0.509216 0.790741
0.225708 0.509216 0.790741
0.352417 0.509216 0.790741
0.483459 0.509216 0.790741
0.617798 0.509216 0.790741
0.754852 0.509216 0.790741
0.894196 0.509216 0.790741
0.000000 0.639435 0.790741
0.105377 0.639435 0.790741
0.225708 0.639435 0.790741
0.352417 0.639435 0.790741
0.483459 0.639435 0.790741
0.617798 0.639435 0.790741
0.754852 0.639435 0.790741
0.894196 0.639435 0.790741
0.000000 0.770172 0.790741
0.105377 0.770172 0.790741
0.225708 0.770172 0.790741
0.352417 0.770172 0.790741
0.483459 0.770172 0.790741
0.617798 0.770172 0.790741
0.754852 0.770172 0.790741
0.894196 0.770172 0.790741
0.000000 0.901367 0.790741
0.105377 0.901367 0.790741
0.225708 0.901367 0.790741
0.352417 0.901367 0.790741
0.483459 0.901367 0.790741
0.617798 0.901367 0.790741
0.754852 0.901367 0.790741
0.894196 0.901367 0.790741
0.000000 0.000000 0.910858
0.105377 0.000000 0.910858
0.225708 0.000000 0.910858
0.352417 0.000000 0.910858
0.483459 0.000000 0.910858
0.617798 0.000000 0.910858
0.754852 0.000000 0.910858
0.894196 0.000000 0.910858
0.000000 0.123749 0.910858
0.105377 0.123749 0.910858
0.225708 0.123749 0.910858
0.352417 0.123749 0.910858
0.483459 0.123749 0.910858
0.617798 0.123749 0.910858
0.754852 0.123749 0.910858
0.894196 0.123749 0.910858
0.000000 0.251007 0.910858
0.105377 0.251007 0.910858
0.225708 0.251007 0.910858
0.352417 0.251007 0.910858
0.483459 0.251007 0.910858
0.617798 0.251007 0.910858
0.754852 0.251007 0.910858
0.894196 0.251007 0.910858
0.000000 0.379669 0.910858
0.105377 0.379669 0.910858
0.225708 0.379669 0.910858
0.352417 0.379669 0.910858
0.483459 0.379669 0.910858
0.617798 0.379669 0.910858
0.754852 0.379669 0.910858
0.894196 0.379669 0.910858
0.000000 0.509216 0.910858
0.105377 0.509216 0.910858
0.225708 0.509216 0.910858
0.352417 0.509216 0.910858
0.483459 0.509216 0.910858
0.617798 0.509216 0.910858
0.754852 0.509216 0.910858
0.894196 0.509216 0.910858
0.000000 0.639435 0.910858
0.105377 0.639435 0.910858
0.225708 0.639435 0.910858
0.352417 0.639435 0.910858
0.483459 0.639435 0.910858
0.617798 0.639435 0.910858
0.754852 0.639435 0.910858
0.894196 0.639435 0.910858
0.000000 0.770172 0.910858
0.105377 0.770172 0.910858
0.225708 0.770172 0.910858
0.352417 0.770172 0.910858
0.483459 0.770172 0.910858
0.617798 0.770172 0.910858
0.754852 0.770172 0.910858
0.894196 0.770172 0.910858
0.000000 0.901367 0.910858
0.105377 0.901367 0.910858
0.225708 0.901367 0.910858
0.352417 0.901367 0.910858
0.483459 0.901367 0.910858
0.617798 0.901367 0.910858
0.754852 0.901367 0.910858
0.894196 0.901367 0.910858
