public/luts/Solar powered agricultural robot industriously operating in the field 2.CUBE
#Created by: Adobe Photoshop Export Color Lookup Plugin
TITLE "Solar powered agricultural robot industriously operating in the field 2.psd"
#LUT size
LUT_3D_SIZE 32
#data domain
DOMAIN_MIN 0.0 0.0 0.0
DOMAIN_MAX 1.0 1.0 1.0
#LUT data points
0.000000 0.000000 0.000000
0.015198 0.000000 0.000000
0.035339 0.000000 0.000000
0.057953 0.000000 0.000000
0.082306 0.000000 0.000000
0.108063 0.000000 0.000000
0.134949 0.000000 0.000000
0.162872 0.000000 0.000000
0.191681 0.000000 0.000000
0.221283 0.000000 0.000000
0.251648 0.000000 0.000000
0.282654 0.000000 0.000000
0.314301 0.000000 0.000000
0.346527 0.000000 0.000000
0.379303 0.000000 0.000000
0.412567 0.000000 0.000000
0.446381 0.000000 0.000000
0.480652 0.000000 0.000000
0.515350 0.000000 0.000000
0.550476 0.000000 0.000000
0.585999 0.000000 0.000000
0.621918 0.000000 0.000000
0.658234 0.000000 0.000000
0.694885 0.000000 0.000000
0.731903 0.000000 0.000000
0.769257 0.000000 0.000000
0.806946 0.000000 0.000000
0.844971 0.000000 0.000000
0.883270 0.000000 0.000000
0.921906 0.000000 0.000000
0.960815 0.000000 0.000000
1.000000 0.000000 0.000000
0.000000 0.031158 0.000000
0.015198 0.031158 0.000000
0.035339 0.031158 0.000000
0.057953 0.031158 0.000000
0.082306 0.031158 0.000000
0.108063 0.031158 0.000000
0.134949 0.031158 0.000000
0.162872 0.031158 0.000000
0.191681 0.031158 0.000000
0.221283 0.031158 0.000000
0.251648 0.031158 0.000000
0.282654 0.031158 0.000000
0.314301 0.031158 0.000000
0.346527 0.031158 0.000000
0.379303 0.031158 0.000000
0.412567 0.031158 0.000000
0.446381 0.031158 0.000000
0.480652 0.031158 0.000000
0.515350 0.031158 0.000000
0.550476 0.031158 0.000000
0.585999 0.031158 0.000000
0.621918 0.031158 0.000000
0.658234 0.031158 0.000000
0.694885 0.031158 0.000000
0.731903 0.031158 0.000000
0.769257 0.031158 0.000000
0.806946 0.031158 0.000000
0.844971 0.031158 0.000000
0.883270 0.031158 0.000000
0.921906 0.031158 0.000000
0.960815 0.031158 0.000000
1.000000 0.031158 0.000000
0.000000 0.062744 0.000000
0.015198 0.062744 0.000000
0.035339 0.062744 0.000000
0.057953 0.062744 0.000000
0.082306 0.062744 0.000000
0.108063 0.062744 0.000000
0.134949 0.062744 0.000000
0.162872 0.062744 0.000000
0.191681 0.062744 0.000000
0.221283 0.062744 0.000000
0.251648 0.062744 0.000000
0.282654 0.062744 0.000000
0.314301 0.062744 0.000000
0.346527 0.062744 0.000000
0.379303 0.062744 0.000000
0.412567 0.062744 0.000000
0.446381 0.062744 0.000000
0.480652 0.062744 0.000000
0.515350 0.062744 0.000000
0.550476 0.062744 0.000000
0.585999 0.062744 0.000000
0.621918 0.062744 0.000000
0.658234 0.062744 0.000000
0.694885 0.062744 0.000000
0.731903 0.062744 0.000000
0.769257 0.062744 0.000000
0.806946 0.062744 0.000000
0.844971 0.062744 0.000000
0.883270 0.062744 0.000000
0.921906 0.062744 0.000000
0.960815 0.062744 0.000000
1.000000 0.062744 0.000000
0.000000 0.094513 0.000000
0.015198 0.094513 0.000000
0.035339 0.094513 0.000000
0.057953 0.094513 0.000000
0.082306 0.094513 0.000000
0.108063 0.094513 0.000000
0.134949 0.094513 0.000000
0.162872 0.094513 0.000000
0.191681 0.094513 0.000000
0.221283 0.094513 0.000000
0.251648 0.094513 0.000000
0.282654 0.094513 0.000000
0.314301 0.094513 0.000000
0.346527 0.094513 0.000000
0.379303 0.094513 0.000000
0.412567 0.094513 0.000000
0.446381 0.094513 0.000000
0.480652 0.094513 0.000000
0.515350 0.094513 0.000000
0.550476 0.094513 0.000000
0.585999 0.094513 0.000000
0.621918 0.094513 0.000000
0.658234 0.094513 0.000000
0.694885 0.094513 0.000000
0.731903 0.094513 0.000000
0.769257 0.094513 0.000000
0.806946 0.094513 0.000000
0.844971 0.094513 0.000000
0.883270 0.094513 0.000000
0.921906 0.094513 0.000000
0.960815 0.094513 0.000000
1.000000 0.094513 0.000000
0.000000 0.126373 0.000000
0.015198 0.126373 0.000000
0.035339 0.126373 0.000000
0.057953 0.126373 0.000000
0.082306 0.126373 0.000000
0.108063 0.126373 0.000000
0.134949 0.126373 0.000000
0.162872 0.126373 0.000000
0.191681 0.126373 0.000000
0.221283 0.126373 0.000000
0.251648 0.126373 0.000000
0.282654 0.126373 0.000000
0.314301 0.126373 0.000000
0.346527 0.126373 0.000000
0.379303 0.126373 0.000000
0.412567 0.126373 0.000000
0.446381 0.126373 0.000000
0.480652 0.126373 0.000000
0.515350 0.126373 0.000000
0.550476 0.126373 0.000000
0.585999 0.126373 0.000000
0.621918 0.126373 0.000000
0.658234 0.126373 0.000000
0.694885 0.126373 0.000000
0.731903 0.126373 0.000000
0.769257 0.126373 0.000000
0.806946 0.126373 0.000000
0.844971 0.126373 0.000000
0.883270 0.126373 0.000000
0.921906 0.126373 0.000000
0.960815 0.126373 0.000000
1.000000 0.126373 0.000000
0.000000 0.158325 0.000000
0.015198 0.158325 0.000000
0.035339 0.158325 0.000000
0.057953 0.158325 0.000000
0.082306 0.158325 0.000000
0.108063 0.158325 0.000000
0.134949 0.158325 0.000000
0.162872 0.158325 0.000000
0.191681 0.158325 0.000000
0.221283 0.158325 0.000000
0.251648 0.158325 0.000000
0.282654 0.158325 0.000000
0.314301 0.158325 0.000000
0.346527 0.158325 0.000000
0.379303 0.158325 0.000000
0.412567 0.158325 0.000000
0.446381 0.158325 0.000000
0.480652 0.158325 0.000000
0.515350 0.158325 0.000000
0.550476 0.158325 0.000000
0.585999 0.158325 0.000000
0.621918 0.158325 0.000000
0.658234 0.158325 0.000000
0.694885 0.158325 0.000000
0.731903 0.158325 0.000000
0.769257 0.158325 0.000000
0.806946 0.158325 0.000000
0.844971 0.158325 0.000000
0.883270 0.158325 0.000000
0.921906 0.158325 0.000000
0.960815 0.158325 0.000000
1.000000 0.158325 0.000000
0.000000 0.190369 0.000000
0.015198 0.190369 0.000000
0.035339 0.190369 0.000000
0.057953 0.190369 0.000000
0.082306 0.190369 0.000000
0.108063 0.190369 0.000000
0.134949 0.190369 0.000000
0.162872 0.190369 0.000000
0.191681 0.190369 0.000000
0.221283 0.190369 0.000000
0.251648 0.190369 0.000000
0.282654 0.190369 0.000000
0.314301 0.190369 0.000000
0.346527 0.190369 0.000000
0.379303 0.190369 0.000000
0.412567 0.190369 0.000000
0.446381 0.190369 0.000000
0.480652 0.190369 0.000000
0.515350 0.190369 0.000000
0.550476 0.190369 0.000000
0.585999 0.190369 0.000000
0.621918 0.190369 0.000000
0.658234 0.190369 0.000000
0.694885 0.190369 0.000000
0.731903 0.190369 0.000000
0.769257 0.190369 0.000000
0.806946 0.190369 0.000000
0.844971 0.190369 0.000000
0.883270 0.190369 0.000000
0.921906 0.190369 0.000000
0.960815 0.190369 0.000000
1.000000 0.190369 0.000000
0.000000 0.222443 0.000000
0.015198 0.222443 0.000000
0.035339 0.222443 0.000000
0.057953 0.222443 0.000000
0.082306 0.222443 0.000000
0.108063 0.222443 0.000000
0.134949 0.222443 0.000000
0.162872 0.222443 0.000000
0.191681 0.222443 0.000000
0.221283 0.222443 0.000000
0.251648 0.222443 0.000000
0.282654 0.222443 0.000000
0.314301 0.222443 0.000000
0.346527 0.222443 0.000000
0.379303 0.222443 0.000000
0.412567 0.222443 0.000000
0.446381 0.222443 0.000000
0.480652 0.222443 0.000000
0.515350 0.222443 0.000000
0.550476 0.222443 0.000000
0.585999 0.222443 0.000000
0.621918 0.222443 0.000000
0.658234 0.222443 0.000000
0.694885 0.222443 0.000000
0.731903 0.222443 0.000000
0.769257 0.222443 0.000000
0.806946 0.222443 0.000000
0.844971 0.222443 0.000000
0.883270 0.222443 0.000000
0.921906 0.222443 0.000000
0.960815 0.222443 0.000000
1.000000 0.222443 0.000000
0.000000 0.254547 0.000000
0.015198 0.254547 0.000000
0.035339 0.254547 0.000000
0.057953 0.254547 0.000000
0.082306 0.254547 0.000000
0.108063 0.254547 0.000000
0.134949 0.254547 0.000000
0.162872 0.254547 0.000000
0.191681 0.254547 0.000000
0.221283 0.254547 0.000000
0.251648 0.254547 0.000000
0.282654 0.254547 0.000000
0.314301 0.254547 0.000000
0.346527 0.254547 0.000000
0.379303 0.254547 0.000000
0.412567 0.254547 0.000000
0.446381 0.254547 0.000000
0.480652 0.254547 0.000000
0.515350 0.254547 0.000000
0.550476 0.254547 0.000000
0.585999 0.254547 0.000000
0.621918 0.254547 0.000000
0.658234 0.254547 0.000000
0.694885 0.254547 0.000000
0.731903 0.254547 0.000000
0.769257 0.254547 0.000000
0.806946 0.254547 0.000000
0.844971 0.254547 0.000000
0.883270 0.254547 0.000000
0.921906 0.254547 0.000000
0.960815 0.254547 0.000000
1.000000 0.254547 0.000000
0.000000 0.286713 0.000000
0.015198 0.286713 0.000000
0.035339 0.286713 0.000000
0.057953 0.286713 0.000000
0.082306 0.286713 0.000000
0.108063 0.286713 0.000000
0.134949 0.286713 0.000000
0.162872 0.286713 0.000000
0.191681 0.286713 0.000000
0.221283 0.286713 0.000000
0.251648 0.286713 0.000000
0.282654 0.286713 0.000000
0.314301 0.286713 0.000000
0.346527 0.286713 0.000000
0.379303 0.286713 0.000000
0.412567 0.286713 0.000000
0.446381 0.286713 0.000000
0.480652 0.286713 0.000000
0.515350 0.286713 0.000000
0.550476 0.286713 0.000000
0.585999 0.286713 0.000000
0.621918 0.286713 0.000000
0.658234 0.286713 0.000000
0.694885 0.286713 0.000000
0.731903 0.286713 0.000000
0.769257 0.286713 0.000000
0.806946 0.286713 0.000000
0.844971 0.286713 0.000000
0.883270 0.286713 0.000000
0.921906 0.286713 0.000000
0.960815 0.286713 0.000000
1.000000 0.286713 0.000000
0.000000 0.318909 0.000000
0.015198 0.318909 0.000000
0.035339 0.318909 0.000000
0.057953 0.318909 0.000000
0.082306 0.318909 0.000000
0.108063 0.318909 0.000000
0.134949 0.318909 0.000000
0.162872 0.318909 0.000000
0.191681 0.318909 0.000000
0.221283 0.318909 0.000000
0.251648 0.318909 0.000000
0.282654 0.318909 0.000000
0.314301 0.318909 0.000000
0.346527 0.318909 0.000000
0.379303 0.318909 0.000000
0.412567 0.318909 0.000000
0.446381 0.318909 0.000000
0.480652 0.318909 0.000000
0.515350 0.318909 0.000000
0.550476 0.318909 0.000000
0.585999 0.318909 0.000000
0.621918 0.318909 0.000000
0.658234 0.318909 0.000000
0.694885 0.318909 0.000000
0.731903 0.318909 0.000000
0.769257 0.318909 0.000000
0.806946 0.318909 0.000000
0.844971 0.318909 0.000000
0.883270 0.318909 0.000000
0.921906 0.318909 0.000000
0.960815 0.318909 0.000000
1.000000 0.318909 0.000000
0.000000 0.351135 0.000000
0.015198 0.351135 0.000000
0.035339 0.351135 0.000000
0.057953 0.351135 0.000000
0.082306 0.351135 0.000000
0.108063 0.351135 0.000000
0.134949 0.351135 0.000000
0.162872 0.351135 0.000000
0.191681 0.351135 0.000000
0.221283 0.351135 0.000000
0.251648 0.351135 0.000000
0.282654 0.351135 0.000000
0.314301 0.351135 0.000000
0.346527 0.351135 0.000000
0.379303 0.351135 0.000000
0.412567 0.351135 0.000000
0.446381 0.351135 0.000000
0.480652 0.351135 0.000000
0.515350 0.351135 0.000000
0.550476 0.351135 0.000000
0.585999 0.351135 0.000000
0.621918 0.351135 0.000000
0.658234 0.351135 0.000000
0.694885 0.351135 0.000000
0.731903 0.351135 0.000000
0.769257 0.351135 0.000000
0.806946 0.351135 0.000000
0.844971 0.351135 0.000000
0.883270 0.351135 0.000000
0.921906 0.351135 0.000000
0.960815 0.351135 0.000000
1.000000 0.351135 0.000000
0.000000 0.383392 0.000000
0.015198 0.383392 0.000000
0.035339 0.383392 0.000000
0.057953 0.383392 0.000000
0.082306 0.383392 0.000000
0.108063 0.383392 0.000000
0.134949 0.383392 0.000000
0.162872 0.383392 0.000000
0.191681 0.383392 0.000000
0.221283 0.383392 0.000000
0.251648 0.383392 0.000000
0.282654 0.383392 0.000000
0.314301 0.383392 0.000000
0.346527 0.383392 0.000000
0.379303 0.383392 0.000000
0.412567 0.383392 0.000000
0.446381 0.383392 0.000000
0.480652 0.383392 0.000000
0.515350 0.383392 0.000000
0.550476 0.383392 0.000000
0.585999 0.383392 0.000000
0.621918 0.383392 0.000000
0.658234 0.383392 0.000000
0.694885 0.383392 0.000000
0.731903 0.383392 0.000000
0.769257 0.383392 0.000000
0.806946 0.383392 0.000000
0.844971 0.383392 0.000000
0.883270 0.383392 0.000000
0.921906 0.383392 0.000000
0.960815 0.383392 0.000000
1.000000 0.383392 0.000000
0.000000 0.415680 0.000000
0.015198 0.415680 0.000000
0.035339 0.415680 0.000000
0.057953 0.415680 0.000000
0.082306 0.415680 0.000000
0.108063 0.415680 0.000000
0.134949 0.415680 0.000000
0.162872 0.415680 0.000000
0.191681 0.415680 0.000000
0.221283 0.415680 0.000000
0.251648 0.415680 0.000000
0.282654 0.415680 0.000000
0.314301 0.415680 0.000000
0.346527 0.415680 0.000000
0.379303 0.415680 0.000000
0.412567 0.415680 0.000000
0.446381 0.415680 0.000000
0.480652 0.415680 0.000000
0.515350 0.415680 0.000000
0.550476 0.415680 0.000000
0.585999 0.415680 0.000000
0.621918 0.415680 0.000000
0.658234 0.415680 0.000000
0.694885 0.415680 0.000000
0.731903 0.415680 0.000000
0.769257 0.415680 0.000000
0.806946 0.415680 0.000000
0.844971 0.415680 0.000000
0.883270 0.415680 0.000000
0.921906 0.415680 0.000000
0.960815 0.415680 0.000000
1.000000 0.415680 0.000000
0.000000 0.447998 0.000000
0.015198 0.447998 0.000000
0.035339 0.447998 0.000000
0.057953 0.447998 0.000000
0.082306 0.447998 0.000000
0.108063 0.447998 0.000000
0.134949 0.447998 0.000000
0.162872 0.447998 0.000000
0.191681 0.447998 0.000000
0.221283 0.447998 0.000000
0.251648 0.447998 0.000000
0.282654 0.447998 0.000000
0.314301 0.447998 0.000000
0.346527 0.447998 0.000000
0.379303 0.447998 0.000000
0.412567 0.447998 0.000000
0.446381 0.447998 0.000000
0.480652 0.447998 0.000000
0.515350 0.447998 0.000000
0.550476 0.447998 0.000000
0.585999 0.447998 0.000000
0.621918 0.447998 0.000000
0.658234 0.447998 0.000000
0.694885 0.447998 0.000000
0.731903 0.447998 0.000000
0.769257 0.447998 0.000000
0.806946 0.447998 0.000000
0.844971 0.447998 0.000000
0.883270 0.447998 0.000000
0.921906 0.447998 0.000000
0.960815 0.447998 0.000000
1.000000 0.447998 0.000000
0.000000 0.480316 0.000000
0.015198 0.480316 0.000000
0.035339 0.480316 0.000000
0.057953 0.480316 0.000000
0.082306 0.480316 0.000000
0.108063 0.480316 0.000000
0.134949 0.480316 0.000000
0.162872 0.480316 0.000000
0.191681 0.480316 0.000000
0.221283 0.480316 0.000000
0.251648 0.480316 0.000000
0.282654 0.480316 0.000000
0.314301 0.480316 0.000000
0.346527 0.480316 0.000000
0.379303 0.480316 0.000000
0.412567 0.480316 0.000000
0.446381 0.480316 0.000000
0.480652 0.480316 0.000000
0.515350 0.480316 0.000000
0.550476 0.480316 0.000000
0.585999 0.480316 0.000000
0.621918 0.480316 0.000000
0.658234 0.480316 0.000000
0.694885 0.480316 0.000000
0.731903 0.480316 0.000000
0.769257 0.480316 0.000000
0.806946 0.480316 0.000000
0.844971 0.480316 0.000000
0.883270 0.480316 0.000000
0.921906 0.480316 0.000000
0.960815 0.480316 0.000000
1.000000 0.480316 0.000000
0.000000 0.512695 0.000000
0.015198 0.512695 0.000000
0.035339 0.512695 0.000000
0.057953 0.512695 0.000000
0.082306 0.512695 0.000000
0.108063 0.512695 0.000000
0.134949 0.512695 0.000000
0.162872 0.512695 0.000000
0.191681 0.512695 0.000000
0.221283 0.512695 0.000000
0.251648 0.512695 0.000000
0.282654 0.512695 0.000000
0.314301 0.512695 0.000000
0.346527 0.512695 0.000000
0.379303 0.512695 0.000000
0.412567 0.512695 0.000000
0.446381 0.512695 0.000000
0.480652 0.512695 0.000000
0.515350 0.512695 0.000000
0.550476 0.512695 0.000000
0.585999 0.512695 0.000000
0.621918 0.512695 0.000000
0.658234 0.512695 0.000000
0.694885 0.512695 0.000000
0.731903 0.512695 0.000000
0.769257 0.512695 0.000000
0.806946 0.512695 0.000000
0.844971 0.512695 0.000000
0.883270 0.512695 0.000000
0.921906 0.512695 0.000000
0.960815 0.512695 0.000000
1.000000 0.512695 0.000000
0.000000 0.545074 0.000000
0.015198 0.545074 0.000000
0.035339 0.545074 0.000000
0.057953 0.545074 0.000000
0.082306 0.545074 0.000000
0.108063 0.545074 0.000000
0.134949 0.545074 0.000000
0.162872 0.545074 0.000000
0.191681 0.545074 0.000000
0.221283 0.545074 0.000000
0.251648 0.545074 0.000000
0.282654 0.545074 0.000000
0.314301 0.545074 0.000000
0.346527 0.545074 0.000000
0.379303 0.545074 0.000000
0.412567 0.545074 0.000000
0.446381 0.545074 0.000000
0.480652 0.545074 0.000000
0.515350 0.545074 0.000000
0.550476 0.545074 0.000000
0.585999 0.545074 0.000000
0.621918 0.545074 0.000000
0.658234 0.545074 0.000000
0.694885 0.545074 0.000000
0.731903 0.545074 0.000000
0.769257 0.545074 0.000000
0.806946 0.545074 0.000000
0.844971 0.545074 0.000000
0.883270 0.545074 0.000000
0.921906 0.545074 0.000000
0.960815 0.545074 0.000000
1.000000 0.545074 0.000000
0.000000 0.577484 0.000000
0.015198 0.577484 0.000000
0.035339 0.577484 0.000000
0.057953 0.577484 0.000000
0.082306 0.577484 0.000000
0.108063 0.577484 0.000000
0.134949 0.577484 0.000000
0.162872 0.577484 0.000000
0.191681 0.577484 0.000000
0.221283 0.577484 0.000000
0.251648 0.577484 0.000000
0.282654 0.577484 0.000000
0.314301 0.577484 0.000000
0.346527 0.577484 0.000000
0.379303 0.577484 0.000000
0.412567 0.577484 0.000000
0.446381 0.577484 0.000000
0.480652 0.577484 0.000000
0.515350 0.577484 0.000000
0.550476 0.577484 0.000000
0.585999 0.577484 0.000000
0.621918 0.577484 0.000000
0.658234 0.577484 0.000000
0.694885 0.577484 0.000000
0.731903 0.577484 0.000000
0.769257 0.577484 0.000000
0.806946 0.577484 0.000000
0.844971 0.577484 0.000000
0.883270 0.577484 0.000000
0.921906 0.577484 0.000000
0.960815 0.577484 0.000000
1.000000 0.577484 0.000000
0.000000 0.609894 0.000000
0.015198 0.609894 0.000000
0.035339 0.609894 0.000000
0.057953 0.609894 0.000000
0.082306 0.609894 0.000000
0.108063 0.609894 0.000000
0.134949 0.609894 0.000000
0.162872 0.609894 0.000000
0.191681 0.609894 0.000000
0.221283 0.609894 0.000000
0.251648 0.609894 0.000000
0.282654 0.609894 0.000000
0.314301 0.609894 0.000000
0.346527 0.609894 0.000000
0.379303 0.609894 0.000000
0.412567 0.609894 0.000000
0.446381 0.609894 0.000000
0.480652 0.609894 0.000000
0.515350 0.609894 0.000000
0.550476 0.609894 0.000000
0.585999 0.609894 0.000000
0.621918 0.609894 0.000000
0.658234 0.609894 0.000000
0.694885 0.609894 0.000000
0.731903 0.609894 0.000000
0.769257 0.609894 0.000000
0.806946 0.609894 0.000000
0.844971 0.609894 0.000000
0.883270 0.609894 0.000000
0.921906 0.609894 0.000000
0.960815 0.609894 0.000000
1.000000 0.609894 0.000000
0.000000 0.642334 0.000000
0.015198 0.642334 0.000000
0.035339 0.642334 0.000000
0.057953 0.642334 0.000000
0.082306 0.642334 0.000000
0.108063 0.642334 0.000000
0.134949 0.642334 0.000000
0.162872 0.642334 0.000000
0.191681 0.642334 0.000000
0.221283 0.642334 0.000000
0.251648 0.642334 0.000000
0.282654 0.642334 0.000000
0.314301 0.642334 0.000000
0.346527 0.642334 0.000000
0.379303 0.642334 0.000000
0.412567 0.642334 0.000000
0.446381 0.642334 0.000000
0.480652 0.642334 0.000000
0.515350 0.642334 0.000000
0.550476 0.642334 0.000000
0.585999 0.642334 0.000000
0.621918 0.642334 0.000000
0.658234 0.642334 0.000000
0.694885 0.642334 0.000000
0.731903 0.642334 0.000000
0.769257 0.642334 0.000000
0.806946 0.642334 0.000000
0.844971 0.642334 0.000000
0.883270 0.642334 0.000000
0.921906 0.642334 0.000000
0.960815 0.642334 0.000000
1.000000 0.642334 0.000000
0.000000 0.674774 0.000000
0.015198 0.674774 0.000000
0.035339 0.674774 0.000000
0.057953 0.674774 0.000000
0.082306 0.674774 0.000000
0.108063 0.674774 0.000000
0.134949 0.674774 0.000000
0.162872 0.674774 0.000000
0.191681 0.674774 0.000000
0.221283 0.674774 0.000000
0.251648 0.674774 0.000000
0.282654 0.674774 0.000000
0.314301 0.674774 0.000000
0.346527 0.674774 0.000000
0.379303 0.674774 0.000000
0.412567 0.674774 0.000000
0.446381 0.674774 0.000000
0.480652 0.674774 0.000000
0.515350 0.674774 0.000000
0.550476 0.674774 0.000000
0.585999 0.674774 0.000000
0.621918 0.674774 0.000000
0.658234 0.674774 0.000000
0.694885 0.674774 0.000000
0.731903 0.674774 0.000000
0.769257 0.674774 0.000000
0.806946 0.674774 0.000000
0.844971 0.674774 0.000000
0.883270 0.674774 0.000000
0.921906 0.674774 0.000000
0.960815 0.674774 0.000000
1.000000 0.674774 0.000000
0.000000 0.707245 0.000000
0.015198 0.707245 0.000000
0.035339 0.707245 0.000000
0.057953 0.707245 0.000000
0.082306 0.707245 0.000000
0.108063 0.707245 0.000000
0.134949 0.707245 0.000000
0.162872 0.707245 0.000000
0.191681 0.707245 0.000000
0.221283 0.707245 0.000000
0.251648 0.707245 0.000000
0.282654 0.707245 0.000000
0.314301 0.707245 0.000000
0.346527 0.707245 0.000000
0.379303 0.707245 0.000000
0.412567 0.707245 0.000000
0.446381 0.707245 0.000000
0.480652 0.707245 0.000000
0.515350 0.707245 0.000000
0.550476 0.707245 0.000000
0.585999 0.707245 0.000000
0.621918 0.707245 0.000000
0.658234 0.707245 0.000000
0.694885 0.707245 0.000000
0.731903 0.707245 0.000000
0.769257 0.707245 0.000000
0.806946 0.707245 0.000000
0.844971 0.707245 0.000000
0.883270 0.707245 0.000000
0.921906 0.707245 0.000000
0.960815 0.707245 0.000000
1.000000 0.707245 0.000000
0.000000 0.739716 0.000000
0.015198 0.739716 0.000000
0.035339 0.739716 0.000000
0.057953 0.739716 0.000000
0.082306 0.739716 0.000000
0.108063 0.739716 0.000000
0.134949 0.739716 0.000000
0.162872 0.739716 0.000000
0.191681 0.739716 0.000000
0.221283 0.739716 0.000000
0.251648 0.739716 0.000000
0.282654 0.739716 0.000000
0.314301 0.739716 0.000000
0.346527 0.739716 0.000000
0.379303 0.739716 0.000000
0.412567 0.739716 0.000000
0.446381 0.739716 0.000000
0.480652 0.739716 0.000000
0.515350 0.739716 0.000000
0.550476 0.739716 0.000000
0.585999 0.739716 0.000000
0.621918 0.739716 0.000000
0.658234 0.739716 0.000000
0.694885 0.739716 0.000000
0.731903 0.739716 0.000000
0.769257 0.739716 0.000000
0.806946 0.739716 0.000000
0.844971 0.739716 0.000000
0.883270 0.739716 0.000000
0.921906 0.739716 0.000000
0.960815 0.739716 0.000000
1.000000 0.739716 0.000000
0.000000 0.772186 0.000000
0.015198 0.772186 0.000000
0.035339 0.772186 0.000000
0.057953 0.772186 0.000000
0.082306 0.772186 0.000000
0.108063 0.772186 0.000000
0.134949 0.772186 0.000000
0.162872 0.772186 0.000000
0.191681 0.772186 0.000000
0.221283 0.772186 0.000000
0.251648 0.772186 0.000000
0.282654 0.772186 0.000000
0.314301 0.772186 0.000000
0.346527 0.772186 0.000000
0.379303 0.772186 0.000000
0.412567 0.772186 0.000000
0.446381 0.772186 0.000000
0.480652 0.772186 0.000000
0.515350 0.772186 0.000000
0.550476 0.772186 0.000000
0.585999 0.772186 0.000000
0.621918 0.772186 0.000000
0.658234 0.772186 0.000000
0.694885 0.772186 0.000000
0.731903 0.772186 0.000000
0.769257 0.772186 0.000000
0.806946 0.772186 0.000000
0.844971 0.772186 0.000000
0.883270 0.772186 0.000000
0.921906 0.772186 0.000000
0.960815 0.772186 0.000000
1.000000 0.772186 0.000000
0.000000 0.804718 0.000000
0.015198 0.804718 0.000000
0.035339 0.804718 0.000000
0.057953 0.804718 0.000000
0.082306 0.804718 0.000000
0.108063 0.804718 0.000000
0.134949 0.804718 0.000000
0.162872 0.804718 0.000000
0.191681 0.804718 0.000000
0.221283 0.804718 0.000000
0.251648 0.804718 0.000000
0.282654 0.804718 0.000000
0.314301 0.804718 0.000000
0.346527 0.804718 0.000000
0.379303 0.804718 0.000000
0.412567 0.804718 0.000000
0.446381 0.804718 0.000000
0.480652 0.804718 0.000000
0.515350 0.804718 0.000000
0.550476 0.804718 0.000000
0.585999 0.804718 0.000000
0.621918 0.804718 0.000000
0.658234 0.804718 0.000000
0.694885 0.804718 0.000000
0.731903 0.804718 0.000000
0.769257 0.804718 0.000000
0.806946 0.804718 0.000000
0.844971 0.804718 0.000000
0.883270 0.804718 0.000000
0.921906 0.804718 0.000000
0.960815 0.804718 0.000000
1.000000 0.804718 0.000000
0.000000 0.837219 0.000000
0.015198 0.837219 0.000000
0.035339 0.837219 0.000000
0.057953 0.837219 0.000000
0.082306 0.837219 0.000000
0.108063 0.837219 0.000000
0.134949 0.837219 0.000000
0.162872 0.837219 0.000000
0.191681 0.837219 0.000000
0.221283 0.837219 0.000000
0.251648 0.837219 0.000000
0.282654 0.837219 0.000000
0.314301 0.837219 0.000000
0.346527 0.837219 0.000000
0.379303 0.837219 0.000000
0.412567 0.837219 0.000000
0.446381 0.837219 0.000000
0.480652 0.837219 0.000000
0.515350 0.837219 0.000000
0.550476 0.837219 0.000000
0.585999 0.837219 0.000000
0.621918 0.837219 0.000000
0.658234 0.837219 0.000000
0.694885 0.837219 0.000000
0.731903 0.837219 0.000000
0.769257 0.837219 0.000000
0.806946 0.837219 0.000000
0.844971 0.837219 0.000000
0.883270 0.837219 0.000000
0.921906 0.837219 0.000000
0.960815 0.837219 0.000000
1.000000 0.837219 0.000000
0.000000 0.869751 0.000000
0.015198 0.869751 0.000000
0.035339 0.869751 0.000000
0.057953 0.869751 0.000000
0.082306 0.869751 0.000000
0.108063 0.869751 0.000000
0.134949 0.869751 0.000000
0.162872 0.869751 0.000000
0.191681 0.869751 0.000000
0.221283 0.869751 0.000000
0.251648 0.869751 0.000000
0.282654 0.869751 0.000000
0.314301 0.869751 0.000000
0.346527 0.869751 0.000000
0.379303 0.869751 0.000000
