public/luts/Solar powered agricultural robot industriously operating in the field.CUBE
#Created by: Adobe Photoshop Export Color Lookup Plugin
TITLE "Solar powered agricultural robot industriously operating in the field.psd"
#LUT size
LUT_3D_SIZE 5
#data domain
#LUT data points
DOMAIN_MIN 0.000000 0.000000 0.000000
DOMAIN_MAX 0.903226 0.903226 0.903226
0.000000 0.000000 0.000000
0.194885 0.000000 0.000000
0.417450 0.000000 0.000000
0.651825 0.000000 0.000000
0.894196 0.000000 0.000000
0.000000 0.219055 0.000000
0.194885 0.219055 0.000000
0.417450 0.219055 0.000000
0.651825 0.219055 0.000000
0.894196 0.219055 0.000000
0.000000 0.444336 0.000000
0.194885 0.444336 0.000000
0.417450 0.444336 0.000000
0.651825 0.444336 0.000000
0.894196 0.444336 0.000000
0.000000 0.672058 0.000000
0.194885 0.672058 0.000000
0.417450 0.672058 0.000000
0.651825 0.672058 0.000000
0.894196 0.672058 0.000000
0.000000 0.901367 0.000000
0.194885 0.901367 0.000000
0.417450 0.901367 0.000000
0.651825 0.901367 0.000000
0.894196 0.901367 0.000000
0.000000 0.000000 0.255310
0.194885 0.000000 0.255310
0.417450 0.000000 0.255310
0.651825 0.000000 0.255310
0.894196 0.000000 0.255310
0.000000 0.219055 0.255310
0.194885 0.219055 0.255310
0.417450 0.219055 0.255310
0.651825 0.219055 0.255310
0.894196 0.219055 0.255310
0.000000 0.444336 0.255310
0.194885 0.444336 0.255310
0.417450 0.444336 0.255310
0.651825 0.444336 0.255310
0.894196 0.444336 0.255310
0.000000 0.672058 0.255310
0.194885 0.672058 0.255310
0.417450 0.672058 0.255310
0.651825 0.672058 0.255310
0.894196 0.672058 0.255310
0.000000 0.901367 0.255310
0.194885 0.901367 0.255310
0.417450 0.901367 0.255310
0.651825 0.901367 0.255310
0.894196 0.901367 0.255310
0.000000 0.000000 0.482239
0.194885 0.000000 0.482239
0.417450 0.000000 0.482239
0.651825 0.000000 0.482239
0.894196 0.000000 0.482239
0.000000 0.219055 0.482239
0.194885 0.219055 0.482239
0.417450 0.219055 0.482239
0.651825 0.219055 0.482239
0.894196 0.219055 0.482239
0.000000 0.444336 0.482239
0.194885 0.444336 0.482239
0.417450 0.444336 0.482239
0.651825 0.444336 0.482239
0.894196 0.444336 0.482239
0.000000 0.672058 0.482239
0.194885 0.672058 0.482239
0.417450 0.672058 0.482239
0.651825 0.672058 0.482239
0.894196 0.672058 0.482239
0.000000 0.901367 0.482239
0.194885 0.901367 0.482239
0.417450 0.901367 0.482239
0.651825 0.901367 0.482239
0.894196 0.901367 0.482239
0.000000 0.000000 0.699554
0.194885 0.000000 0.699554
0.417450 0.000000 0.699554
0.651825 0.000000 0.699554
0.894196 0.000000 0.699554
0.000000 0.219055 0.699554
0.194885 0.219055 0.699554
0.417450 0.219055 0.699554
0.651825 0.219055 0.699554
0.894196 0.219055 0.699554
0.000000 0.444336 0.699554
0.194885 0.444336 0.699554
0.417450 0.444336 0.699554
0.651825 0.444336 0.699554
0.894196 0.444336 0.699554
0.000000 0.672058 0.699554
0.194885 0.672058 0.699554
0.417450 0.672058 0.699554
0.651825 0.672058 0.699554
0.894196 0.672058 0.699554
0.000000 0.901367 0.699554
0.194885 0.901367 0.699554
0.417450 0.901367 0.699554
0.651825 0.901367 0.699554
0.894196 0.901367 0.699554
0.000000 0.000000 0.910858
0.194885 0.000000 0.910858
0.417450 0.000000 0.910858
0.651825 0.000000 0.910858
0.894196 0.000000 0.910858
0.000000 0.219055 0.910858
0.194885 0.219055 0.910858
0.417450 0.219055 0.910858
0.651825 0.219055 0.910858
0.894196 0.219055 0.910858
0.000000 0.444336 0.910858
0.194885 0.444336 0.910858
0.417450 0.444336 0.910858
0.651825 0.444336 0.910858
0.894196 0.444336 0.910858
0.000000 0.672058 0.910858
0.194885 0.672058 0.910858
0.417450 0.672058 0.910858
0.651825 0.672058 0.910858
0.894196 0.672058 0.910858
0.000000 0.901367 0.910858
0.194885 0.901367 0.910858
0.417450 0.901367 0.910858
0.651825 0.901367 0.910858
0.894196 0.901367 0.910858
