public/luts/Solar powered agricultural robot industriously operating in the field.CUBE
#Created by: Adobe Photoshop Export Color Lookup Plugin
TITLE "Solar powered agricultural robot industriously operating in the field.psd"
#LUT size
LUT_3D_SIZE 32
#data domain
DOMAIN_MIN 0.0 0.0 0.0
DOMAIN_MAX 1.0 1.0 1.0
#LUT data points
0.000000 0.000000 0.000000
0.022980 0.000000 0.000000
0.049194 0.000000 0.000000
0.076813 0.000000 0.000000
0.105377 0.000000 0.000000
0.134644 0.000000 0.000000
0.164520 0.000000 0.000000
0.194885 0.000000 0.000000
0.225708 0.000000 0.000000
0.256897 0.000000 0.000000
0.288422 0.000000 0.000000
0.320282 0.000000 0.000000
0.352417 0.000000 0.000000
0.384796 0.000000 0.000000
0.417450 0.000000 0.000000
0.450348 0.000000 0.000000
0.483459 0.000000 0.000000
0.516754 0.000000 0.000000
0.550262 0.000000 0.000000
0.583954 0.000000 0.000000
0.617798 0.000000 0.000000
0.651825 0.000000 0.000000
0.686035 0.000000 0.000000
0.720367 0.000000 0.000000
0.754852 0.000000 0.000000
0.789490 0.000000 0.000000
0.824249 0.000000 0.000000
0.859161 0.000000 0.000000
0.894196 0.000000 0.000000
0.929352 0.000000 0.000000
0.964600 0.000000 0.000000
1.000000 0.000000 0.000000
0.000000 0.030090 0.000000
0.022980 0.030090 0.000000
0.049194 0.030090 0.000000
0.076813 0.030090 0.000000
0.105377 0.030090 0.000000
0.134644 0.030090 0.000000
0.164520 0.030090 0.000000
0.194885 0.030090 0.000000
0.225708 0.030090 0.000000
0.256897 0.030090 0.000000
0.288422 0.030090 0.000000
0.320282 0.030090 0.000000
0.352417 0.030090 0.000000
0.384796 0.030090 0.000000
0.417450 0.030090 0.000000
0.450348 0.030090 0.000000
0.483459 0.030090 0.000000
0.516754 0.030090 0.000000
0.550262 0.030090 0.000000
0.583954 0.030090 0.000000
0.617798 0.030090 0.000000
0.651825 0.030090 0.000000
0.686035 0.030090 0.000000
0.720367 0.030090 0.000000
0.754852 0.030090 0.000000
0.789490 0.030090 0.000000
0.824249 0.030090 0.000000
0.859161 0.030090 0.000000
0.894196 0.030090 0.000000
0.929352 0.030090 0.000000
0.964600 0.030090 0.000000
1.000000 0.030090 0.000000
0.000000 0.061005 0.000000
0.022980 0.061005 0.000000
0.049194 0.061005 0.000000
0.076813 0.061005 0.000000
0.105377 0.061005 0.000000
0.134644 0.061005 0.000000
0.164520 0.061005 0.000000
0.194885 0.061005 0.000000
0.225708 0.061005 0.000000
0.256897 0.061005 0.000000
0.288422 0.061005 0.000000
0.320282 0.061005 0.000000
0.352417 0.061005 0.000000
0.384796 0.061005 0.000000
0.417450 0.061005 0.000000
0.450348 0.061005 0.000000
0.483459 0.061005 0.000000
0.516754 0.061005 0.000000
0.550262 0.061005 0.000000
0.583954 0.061005 0.000000
0.617798 0.061005 0.000000
0.651825 0.061005 0.000000
0.686035 0.061005 0.000000
0.720367 0.061005 0.000000
0.754852 0.061005 0.000000
0.789490 0.061005 0.000000
0.824249 0.061005 0.000000
0.859161 0.061005 0.000000
0.894196 0.061005 0.000000
0.929352 0.061005 0.000000
0.964600 0.061005 0.000000
1.000000 0.061005 0.000000
0.000000 0.092255 0.000000
0.022980 0.092255 0.000000
0.049194 0.092255 0.000000
0.076813 0.092255 0.000000
0.105377 0.092255 0.000000
0.134644 0.092255 0.000000
0.164520 0.092255 0.000000
0.194885 0.092255 0.000000
0.225708 0.092255 0.000000
0.256897 0.092255 0.000000
0.288422 0.092255 0.000000
0.320282 0.092255 0.000000
0.352417 0.092255 0.000000
0.384796 0.092255 0.000000
0.417450 0.092255 0.000000
0.450348 0.092255 0.000000
0.483459 0.092255 0.000000
0.516754 0.092255 0.000000
0.550262 0.092255 0.000000
0.583954 0.092255 0.000000
0.617798 0.092255 0.000000
0.651825 0.092255 0.000000
0.686035 0.092255 0.000000
0.720367 0.092255 0.000000
0.754852 0.092255 0.000000
0.789490 0.092255 0.000000
0.824249 0.092255 0.000000
0.859161 0.092255 0.000000
0.894196 0.092255 0.000000
0.929352 0.092255 0.000000
0.964600 0.092255 0.000000
1.000000 0.092255 0.000000
0.000000 0.123749 0.000000
0.022980 0.123749 0.000000
0.049194 0.123749 0.000000
0.076813 0.123749 0.000000
0.105377 0.123749 0.000000
0.134644 0.123749 0.000000
0.164520 0.123749 0.000000
0.194885 0.123749 0.000000
0.225708 0.123749 0.000000
0.256897 0.123749 0.000000
0.288422 0.123749 0.000000
0.320282 0.123749 0.000000
0.352417 0.123749 0.000000
0.384796 0.123749 0.000000
0.417450 0.123749 0.000000
0.450348 0.123749 0.000000
0.483459 0.123749 0.000000
0.516754 0.123749 0.000000
0.550262 0.123749 0.000000
0.583954 0.123749 0.000000
0.617798 0.123749 0.000000
0.651825 0.123749 0.000000
0.686035 0.123749 0.000000
0.720367 0.123749 0.000000
0.754852 0.123749 0.000000
0.789490 0.123749 0.000000
0.824249 0.123749 0.000000
0.859161 0.123749 0.000000
0.894196 0.123749 0.000000
0.929352 0.123749 0.000000
0.964600 0.123749 0.000000
1.000000 0.123749 0.000000
0.000000 0.155396 0.000000
0.022980 0.155396 0.000000
0.049194 0.155396 0.000000
0.076813 0.155396 0.000000
0.105377 0.155396 0.000000
0.134644 0.155396 0.000000
0.164520 0.155396 0.000000
0.194885 0.155396 0.000000
0.225708 0.155396 0.000000
0.256897 0.155396 0.000000
0.288422 0.155396 0.000000
0.320282 0.155396 0.000000
0.352417 0.155396 0.000000
0.384796 0.155396 0.000000
0.417450 0.155396 0.000000
0.450348 0.155396 0.000000
0.483459 0.155396 0.000000
0.516754 0.155396 0.000000
0.550262 0.155396 0.000000
0.583954 0.155396 0.000000
0.617798 0.155396 0.000000
0.651825 0.155396 0.000000
0.686035 0.155396 0.000000
0.720367 0.155396 0.000000
0.754852 0.155396 0.000000
0.789490 0.155396 0.000000
0.824249 0.155396 0.000000
0.859161 0.155396 0.000000
0.894196 0.155396 0.000000
0.929352 0.155396 0.000000
0.964600 0.155396 0.000000
1.000000 0.155396 0.000000
0.000000 0.187164 0.000000
0.022980 0.187164 0.000000
0.049194 0.187164 0.000000
0.076813 0.187164 0.000000
0.105377 0.187164 0.000000
0.134644 0.187164 0.000000
0.164520 0.187164 0.000000
0.194885 0.187164 0.000000
0.225708 0.187164 0.000000
0.256897 0.187164 0.000000
0.288422 0.187164 0.000000
0.320282 0.187164 0.000000
0.352417 0.187164 0.000000
0.384796 0.187164 0.000000
0.417450 0.187164 0.000000
0.450348 0.187164 0.000000
0.483459 0.187164 0.000000
0.516754 0.187164 0.000000
0.550262 0.187164 0.000000
0.583954 0.187164 0.000000
0.617798 0.187164 0.000000
0.651825 0.187164 0.000000
0.686035 0.187164 0.000000
0.720367 0.187164 0.000000
0.754852 0.187164 0.000000
0.789490 0.187164 0.000000
0.824249 0.187164 0.000000
0.859161 0.187164 0.000000
0.894196 0.187164 0.000000
0.929352 0.187164 0.000000
0.964600 0.187164 0.000000
1.000000 0.187164 0.000000
0.000000 0.219055 0.000000
0.022980 0.219055 0.000000
0.049194 0.219055 0.000000
0.076813 0.219055 0.000000
0.105377 0.219055 0.000000
0.134644 0.219055 0.000000
0.164520 0.219055 0.000000
0.194885 0.219055 0.000000
0.225708 0.219055 0.000000
0.256897 0.219055 0.000000
0.288422 0.219055 0.000000
0.320282 0.219055 0.000000
0.352417 0.219055 0.000000
0.384796 0.219055 0.000000
0.417450 0.219055 0.000000
0.450348 0.219055 0.000000
0.483459 0.219055 0.000000
0.516754 0.219055 0.000000
0.550262 0.219055 0.000000
0.583954 0.219055 0.000000
0.617798 0.219055 0.000000
0.651825 0.219055 0.000000
0.686035 0.219055 0.000000
0.720367 0.219055 0.000000
0.754852 0.219055 0.000000
0.789490 0.219055 0.000000
0.824249 0.219055 0.000000
0.859161 0.219055 0.000000
0.894196 0.219055 0.000000
0.929352 0.219055 0.000000
0.964600 0.219055 0.000000
1.000000 0.219055 0.000000
0.000000 0.251007 0.000000
0.022980 0.251007 0.000000
0.049194 0.251007 0.000000
0.076813 0.251007 0.000000
0.105377 0.251007 0.000000
0.134644 0.251007 0.000000
0.164520 0.251007 0.000000
0.194885 0.251007 0.000000
0.225708 0.251007 0.000000
0.256897 0.251007 0.000000
0.288422 0.251007 0.000000
0.320282 0.251007 0.000000
0.352417 0.251007 0.000000
0.384796 0.251007 0.000000
0.417450 0.251007 0.000000
0.450348 0.251007 0.000000
0.483459 0.251007 0.000000
0.516754 0.251007 0.000000
0.550262 0.251007 0.000000
0.583954 0.251007 0.000000
0.617798 0.251007 0.000000
0.651825 0.251007 0.000000
0.686035 0.251007 0.000000
0.720367 0.251007 0.000000
0.754852 0.251007 0.000000
0.789490 0.251007 0.000000
0.824249 0.251007 0.000000
0.859161 0.251007 0.000000
0.894196 0.251007 0.000000
0.929352 0.251007 0.000000
0.964600 0.251007 0.000000
1.000000 0.251007 0.000000
0.000000 0.283081 0.000000
0.022980 0.283081 0.000000
0.049194 0.283081 0.000000
0.076813 0.283081 0.000000
0.105377 0.283081 0.000000
0.134644 0.283081 0.000000
0.164520 0.283081 0.000000
0.194885 0.283081 0.000000
0.225708 0.283081 0.000000
0.256897 0.283081 0.000000
0.288422 0.283081 0.000000
0.320282 0.283081 0.000000
0.352417 0.283081 0.000000
0.384796 0.283081 0.000000
0.417450 0.283081 0.000000
0.450348 0.283081 0.000000
0.483459 0.283081 0.000000
0.516754 0.283081 0.000000
0.550262 0.283081 0.000000
0.583954 0.283081 0.000000
0.617798 0.283081 0.000000
0.651825 0.283081 0.000000
0.686035 0.283081 0.000000
0.720367 0.283081 0.000000
0.754852 0.283081 0.000000
0.789490 0.283081 0.000000
0.824249 0.283081 0.000000
0.859161 0.283081 0.000000
0.894196 0.283081 0.000000
0.929352 0.283081 0.000000
0.964600 0.283081 0.000000
1.000000 0.283081 0.000000
0.000000 0.315216 0.000000
0.022980 0.315216 0.000000
0.049194 0.315216 0.000000
0.076813 0.315216 0.000000
0.105377 0.315216 0.000000
0.134644 0.315216 0.000000
0.164520 0.315216 0.000000
0.194885 0.315216 0.000000
0.225708 0.315216 0.000000
0.256897 0.315216 0.000000
0.288422 0.315216 0.000000
0.320282 0.315216 0.000000
0.352417 0.315216 0.000000
0.384796 0.315216 0.000000
0.417450 0.315216 0.000000
0.450348 0.315216 0.000000
0.483459 0.315216 0.000000
0.516754 0.315216 0.000000
0.550262 0.315216 0.000000
0.583954 0.315216 0.000000
0.617798 0.315216 0.000000
0.651825 0.315216 0.000000
0.686035 0.315216 0.000000
0.720367 0.315216 0.000000
0.754852 0.315216 0.000000
0.789490 0.315216 0.000000
0.824249 0.315216 0.000000
0.859161 0.315216 0.000000
0.894196 0.315216 0.000000
0.929352 0.315216 0.000000
0.964600 0.315216 0.000000
1.000000 0.315216 0.000000
0.000000 0.347412 0.000000
0.022980 0.347412 0.000000
0.049194 0.347412 0.000000
0.076813 0.347412 0.000000
0.105377 0.347412 0.000000
0.134644 0.347412 0.000000
0.164520 0.347412 0.000000
0.194885 0.347412 0.000000
0.225708 0.347412 0.000000
0.256897 0.347412 0.000000
0.288422 0.347412 0.000000
0.320282 0.347412 0.000000
0.352417 0.347412 0.000000
0.384796 0.347412 0.000000
0.417450 0.347412 0.000000
0.450348 0.347412 0.000000
0.483459 0.347412 0.000000
0.516754 0.347412 0.000000
0.550262 0.347412 0.000000
0.583954 0.347412 0.000000
0.617798 0.347412 0.000000
0.651825 0.347412 0.000000
0.686035 0.347412 0.000000
0.720367 0.347412 0.000000
0.754852 0.347412 0.000000
0.789490 0.347412 0.000000
0.824249 0.347412 0.000000
0.859161 0.347412 0.000000
0.894196 0.347412 0.000000
0.929352 0.347412 0.000000
0.964600 0.347412 0.000000
1.000000 0.347412 0.000000
0.000000 0.379669 0.000000
0.022980 0.379669 0.000000
0.049194 0.379669 0.000000
0.076813 0.379669 0.000000
0.105377 0.379669 0.000000
0.134644 0.379669 0.000000
0.164520 0.379669 0.000000
0.194885 0.379669 0.000000
0.225708 0.379669 0.000000
0.256897 0.379669 0.000000
0.288422 0.379669 0.000000
0.320282 0.379669 0.000000
0.352417 0.379669 0.000000
0.384796 0.379669 0.000000
0.417450 0.379669 0.000000
0.450348 0.379669 0.000000
0.483459 0.379669 0.000000
0.516754 0.379669 0.000000
0.550262 0.379669 0.000000
0.583954 0.379669 0.000000
0.617798 0.379669 0.000000
0.651825 0.379669 0.000000
0.686035 0.379669 0.000000
0.720367 0.379669 0.000000
0.754852 0.379669 0.000000
0.789490 0.379669 0.000000
0.824249 0.379669 0.000000
0.859161 0.379669 0.000000
0.894196 0.379669 0.000000
0.929352 0.379669 0.000000
0.964600 0.379669 0.000000
1.000000 0.379669 0.000000
0.000000 0.411957 0.000000
0.022980 0.411957 0.000000
0.049194 0.411957 0.000000
0.076813 0.411957 0.000000
0.105377 0.411957 0.000000
0.134644 0.411957 0.000000
0.164520 0.411957 0.000000
0.194885 0.411957 0.000000
0.225708 0.411957 0.000000
0.256897 0.411957 0.000000
0.288422 0.411957 0.000000
0.320282 0.411957 0.000000
0.352417 0.411957 0.000000
0.384796 0.411957 0.000000
0.417450 0.411957 0.000000
0.450348 0.411957 0.000000
0.483459 0.411957 0.000000
0.516754 0.411957 0.000000
0.550262 0.411957 0.000000
0.583954 0.411957 0.000000
0.617798 0.411957 0.000000
0.651825 0.411957 0.000000
0.686035 0.411957 0.000000
0.720367 0.411957 0.000000
0.754852 0.411957 0.000000
0.789490 0.411957 0.000000
0.824249 0.411957 0.000000
0.859161 0.411957 0.000000
0.894196 0.411957 0.000000
0.929352 0.411957 0.000000
0.964600 0.411957 0.000000
1.000000 0.411957 0.000000
0.000000 0.444336 0.000000
0.022980 0.444336 0.000000
0.049194 0.444336 0.000000
0.076813 0.444336 0.000000
0.105377 0.444336 0.000000
0.134644 0.444336 0.000000
0.164520 0.444336 0.000000
0.194885 0.444336 0.000000
0.225708 0.444336 0.000000
0.256897 0.444336 0.000000
0.288422 0.444336 0.000000
0.320282 0.444336 0.000000
0.352417 0.444336 0.000000
0.384796 0.444336 0.000000
0.417450 0.444336 0.000000
0.450348 0.444336 0.000000
0.483459 0.444336 0.000000
0.516754 0.444336 0.000000
0.550262 0.444336 0.000000
0.583954 0.444336 0.000000
0.617798 0.444336 0.000000
0.651825 0.444336 0.000000
0.686035 0.444336 0.000000
0.720367 0.444336 0.000000
0.754852 0.444336 0.000000
0.789490 0.444336 0.000000
0.824249 0.444336 0.000000
0.859161 0.444336 0.000000
0.894196 0.444336 0.000000
0.929352 0.444336 0.000000
0.964600 0.444336 0.000000
1.000000 0.444336 0.000000
0.000000 0.476746 0.000000
0.022980 0.476746 0.000000
0.049194 0.476746 0.000000
0.076813 0.476746 0.000000
0.105377 0.476746 0.000000
0.134644 0.476746 0.000000
0.164520 0.476746 0.000000
0.194885 0.476746 0.000000
0.225708 0.476746 0.000000
0.256897 0.476746 0.000000
0.288422 0.476746 0.000000
0.320282 0.476746 0.000000
0.352417 0.476746 0.000000
0.384796 0.476746 0.000000
0.417450 0.476746 0.000000
0.450348 0.476746 0.000000
0.483459 0.476746 0.000000
0.516754 0.476746 0.000000
0.550262 0.476746 0.000000
0.583954 0.476746 0.000000
0.617798 0.476746 0.000000
0.651825 0.476746 0.000000
0.686035 0.476746 0.000000
0.720367 0.476746 0.000000
0.754852 0.476746 0.000000
0.789490 0.476746 0.000000
0.824249 0.476746 0.000000
0.859161 0.476746 0.000000
0.894196 0.476746 0.000000
0.929352 0.476746 0.000000
0.964600 0.476746 0.000000
1.000000 0.476746 0.000000
0.000000 0.509216 0.000000
0.022980 0.509216 0.000000
0.049194 0.509216 0.000000
0.076813 0.509216 0.000000
0.105377 0.509216 0.000000
0.134644 0.509216 0.000000
0.164520 0.509216 0.000000
0.194885 0.509216 0.000000
0.225708 0.509216 0.000000
0.256897 0.509216 0.000000
0.288422 0.509216 0.000000
0.320282 0.509216 0.000000
0.352417 0.509216 0.000000
0.384796 0.509216 0.000000
0.417450 0.509216 0.000000
0.450348 0.509216 0.000000
0.483459 0.509216 0.000000
0.516754 0.509216 0.000000
0.550262 0.509216 0.000000
0.583954 0.509216 0.000000
0.617798 0.509216 0.000000
0.651825 0.509216 0.000000
0.686035 0.509216 0.000000
0.720367 0.509216 0.000000
0.754852 0.509216 0.000000
0.789490 0.509216 0.000000
0.824249 0.509216 0.000000
0.859161 0.509216 0.000000
0.894196 0.509216 0.000000
0.929352 0.509216 0.000000
0.964600 0.509216 0.000000
1.000000 0.509216 0.000000
0.000000 0.541718 0.000000
0.022980 0.541718 0.000000
0.049194 0.541718 0.000000
0.076813 0.541718 0.000000
0.105377 0.541718 0.000000
0.134644 0.541718 0.000000
0.164520 0.541718 0.000000
0.194885 0.541718 0.000000
0.225708 0.541718 0.000000
0.256897 0.541718 0.000000
0.288422 0.541718 0.000000
0.320282 0.541718 0.000000
0.352417 0.541718 0.000000
0.384796 0.541718 0.000000
0.417450 0.541718 0.000000
0.450348 0.541718 0.000000
0.483459 0.541718 0.000000
0.516754 0.541718 0.000000
0.550262 0.541718 0.000000
0.583954 0.541718 0.000000
0.617798 0.541718 0.000000
0.651825 0.541718 0.000000
0.686035 0.541718 0.000000
0.720367 0.541718 0.000000
0.754852 0.541718 0.000000
0.789490 0.541718 0.000000
0.824249 0.541718 0.000000
0.859161 0.541718 0.000000
0.894196 0.541718 0.000000
0.929352 0.541718 0.000000
0.964600 0.541718 0.000000
1.000000 0.541718 0.000000
0.000000 0.574249 0.000000
0.022980 0.574249 0.000000
0.049194 0.574249 0.000000
0.076813 0.574249 0.000000
0.105377 0.574249 0.000000
0.134644 0.574249 0.000000
0.164520 0.574249 0.000000
0.194885 0.574249 0.000000
0.225708 0.574249 0.000000
0.256897 0.574249 0.000000
0.288422 0.574249 0.000000
0.320282 0.574249 0.000000
0.352417 0.574249 0.000000
0.384796 0.574249 0.000000
0.417450 0.574249 0.000000
0.450348 0.574249 0.000000
0.483459 0.574249 0.000000
0.516754 0.574249 0.000000
0.550262 0.574249 0.000000
0.583954 0.574249 0.000000
0.617798 0.574249 0.000000
0.651825 0.574249 0.000000
0.686035 0.574249 0.000000
0.720367 0.574249 0.000000
0.754852 0.574249 0.000000
0.789490 0.574249 0.000000
0.824249 0.574249 0.000000
0.859161 0.574249 0.000000
0.894196 0.574249 0.000000
0.929352 0.574249 0.000000
0.964600 0.574249 0.000000
1.000000 0.574249 0.000000
0.000000 0.606812 0.000000
0.022980 0.606812 0.000000
0.049194 0.606812 0.000000
0.076813 0.606812 0.000000
0.105377 0.606812 0.000000
0.134644 0.606812 0.000000
0.164520 0.606812 0.000000
0.194885 0.606812 0.000000
0.225708 0.606812 0.000000
0.256897 0.606812 0.000000
0.288422 0.606812 0.000000
0.320282 0.606812 0.000000
0.352417 0.606812 0.000000
0.384796 0.606812 0.000000
0.417450 0.606812 0.000000
0.450348 0.606812 0.000000
0.483459 0.606812 0.000000
0.516754 0.606812 0.000000
0.550262 0.606812 0.000000
0.583954 0.606812 0.000000
0.617798 0.606812 0.000000
0.651825 0.606812 0.000000
0.686035 0.606812 0.000000
0.720367 0.606812 0.000000
0.754852 0.606812 0.000000
0.789490 0.606812 0.000000
0.824249 0.606812 0.000000
0.859161 0.606812 0.000000
0.894196 0.606812 0.000000
0.929352 0.606812 0.000000
0.964600 0.606812 0.000000
1.000000 0.606812 0.000000
0.000000 0.639435 0.000000
0.022980 0.639435 0.000000
0.049194 0.639435 0.000000
0.076813 0.639435 0.000000
0.105377 0.639435 0.000000
0.134644 0.639435 0.000000
0.164520 0.639435 0.000000
0.194885 0.639435 0.000000
0.225708 0.639435 0.000000
0.256897 0.639435 0.000000
0.288422 0.639435 0.000000
0.320282 0.639435 0.000000
0.352417 0.639435 0.000000
0.384796 0.639435 0.000000
0.417450 0.639435 0.000000
0.450348 0.639435 0.000000
0.483459 0.639435 0.000000
0.516754 0.639435 0.000000
0.550262 0.639435 0.000000
0.583954 0.639435 0.000000
0.617798 0.639435 0.000000
0.651825 0.639435 0.000000
0.686035 0.639435 0.000000
0.720367 0.639435 0.000000
0.754852 0.639435 0.000000
0.789490 0.639435 0.000000
0.824249 0.639435 0.000000
0.859161 0.639435 0.000000
0.894196 0.639435 0.000000
0.929352 0.639435 0.000000
0.964600 0.639435 0.000000
1.000000 0.639435 0.000000
0.000000 0.672058 0.000000
0.022980 0.672058 0.000000
0.049194 0.672058 0.000000
0.076813 0.672058 0.000000
0.105377 0.672058 0.000000
0.134644 0.672058 0.000000
0.164520 0.672058 0.000000
0.194885 0.672058 0.000000
0.225708 0.672058 0.000000
0.256897 0.672058 0.000000
0.288422 0.672058 0.000000
0.320282 0.672058 0.000000
0.352417 0.672058 0.000000
0.384796 0.672058 0.000000
0.417450 0.672058 0.000000
0.450348 0.672058 0.000000
0.483459 0.672058 0.000000
0.516754 0.672058 0.000000
0.550262 0.672058 0.000000
0.583954 0.672058 0.000000
0.617798 0.672058 0.000000
0.651825 0.672058 0.000000
0.686035 0.672058 0.000000
0.720367 0.672058 0.000000
0.754852 0.672058 0.000000
0.789490 0.672058 0.000000
0.824249 0.672058 0.000000
0.859161 0.672058 0.000000
0.894196 0.672058 0.000000
0.929352 0.672058 0.000000
0.964600 0.672058 0.000000
1.000000 0.672058 0.000000
0.000000 0.704742 0.000000
0.022980 0.704742 0.000000
0.049194 0.704742 0.000000
0.076813 0.704742 0.000000
0.105377 0.704742 0.000000
0.134644 0.704742 0.000000
0.164520 0.704742 0.000000
0.194885 0.704742 0.000000
0.225708 0.704742 0.000000
0.256897 0.704742 0.000000
0.288422 0.704742 0.000000
0.320282 0.704742 0.000000
0.352417 0.704742 0.000000
0.384796 0.704742 0.000000
0.417450 0.704742 0.000000
0.450348 0.704742 0.000000
0.483459 0.704742 0.000000
0.516754 0.704742 0.000000
0.550262 0.704742 0.000000
0.583954 0.704742 0.000000
0.617798 0.704742 0.000000
0.651825 0.704742 0.000000
0.686035 0.704742 0.000000
0.720367 0.704742 0.000000
0.754852 0.704742 0.000000
0.789490 0.704742 0.000000
0.824249 0.704742 0.000000
0.859161 0.704742 0.000000
0.894196 0.704742 0.000000
0.929352 0.704742 0.000000
0.964600 0.704742 0.000000
1.000000 0.704742 0.000000
0.000000 0.737427 0.000000
0.022980 0.737427 0.000000
0.049194 0.737427 0.000000
0.076813 0.737427 0.000000
0.105377 0.737427 0.000000
0.134644 0.737427 0.000000
0.164520 0.737427 0.000000
0.194885 0.737427 0.000000
0.225708 0.737427 0.000000
0.256897 0.737427 0.000000
0.288422 0.737427 0.000000
0.320282 0.737427 0.000000
0.352417 0.737427 0.000000
0.384796 0.737427 0.000000
0.417450 0.737427 0.000000
0.450348 0.737427 0.000000
0.483459 0.737427 0.000000
0.516754 0.737427 0.000000
0.550262 0.737427 0.000000
0.583954 0.737427 0.000000
0.617798 0.737427 0.000000
0.651825 0.737427 0.000000
0.686035 0.737427 0.000000
0.720367 0.737427 0.000000
0.754852 0.737427 0.000000
0.789490 0.737427 0.000000
0.824249 0.737427 0.000000
0.859161 0.737427 0.000000
0.894196 0.737427 0.000000
0.929352 0.737427 0.000000
0.964600 0.737427 0.000000
1.000000 0.737427 0.000000
0.000000 0.770172 0.000000
0.022980 0.770172 0.000000
0.049194 0.770172 0.000000
0.076813 0.770172 0.000000
0.105377 0.770172 0.000000
0.134644 0.770172 0.000000
0.164520 0.770172 0.000000
0.194885 0.770172 0.000000
0.225708 0.770172 0.000000
0.256897 0.770172 0.000000
0.288422 0.770172 0.000000
0.320282 0.770172 0.000000
0.352417 0.770172 0.000000
0.384796 0.770172 0.000000
0.417450 0.770172 0.000000
0.450348 0.770172 0.000000
0.483459 0.770172 0.000000
0.516754 0.770172 0.000000
0.550262 0.770172 0.000000
0.583954 0.770172 0.000000
0.617798 0.770172 0.000000
0.651825 0.770172 0.000000
0.686035 0.770172 0.000000
0.720367 0.770172 0.000000
0.754852 0.770172 0.000000
0.789490 0.770172 0.000000
0.824249 0.770172 0.000000
0.859161 0.770172 0.000000
0.894196 0.770172 0.000000
0.929352 0.770172 0.000000
0.964600 0.770172 0.000000
1.000000 0.770172 0.000000
0.000000 0.802917 0.000000
0.022980 0.802917 0.000000
0.049194 0.802917 0.000000
0.076813 0.802917 0.000000
0.105377 0.802917 0.000000
0.134644 0.802917 0.000000
0.164520 0.802917 0.000000
0.194885 0.802917 0.000000
0.225708 0.802917 0.000000
0.256897 0.802917 0.000000
0.288422 0.802917 0.000000
0.320282 0.802917 0.000000
0.352417 0.802917 0.000000
0.384796 0.802917 0.000000
0.417450 0.802917 0.000000
0.450348 0.802917 0.000000
0.483459 0.802917 0.000000
0.516754 0.802917 0.000000
0.550262 0.802917 0.000000
0.583954 0.802917 0.000000
0.617798 0.802917 0.000000
0.651825 0.802917 0.000000
0.686035 0.802917 0.000000
0.720367 0.802917 0.000000
0.754852 0.802917 0.000000
0.789490 0.802917 0.000000
0.824249 0.802917 0.000000
0.859161 0.802917 0.000000
0.894196 0.802917 0.000000
0.929352 0.802917 0.000000
0.964600 0.802917 0.000000
1.000000 0.802917 0.000000
0.000000 0.835693 0.000000
0.022980 0.835693 0.000000
0.049194 0.835693 0.000000
0.076813 0.835693 0.000000
0.105377 0.835693 0.000000
0.134644 0.835693 0.000000
0.164520 0.835693 0.000000
0.194885 0.835693 0.000000
0.225708 0.835693 0.000000
0.256897 0.835693 0.000000
0.288422 0.835693 0.000000
0.320282 0.835693 0.000000
0.352417 0.835693 0.000000
0.384796 0.835693 0.000000
0.417450 0.835693 0.000000
0.450348 0.835693 0.000000
0.483459 0.835693 0.000000
0.516754 0.835693 0.000000
0.550262 0.835693 0.000000
0.583954 0.835693 0.000000
0.617798 0.835693 0.000000
0.651825 0.835693 0.000000
0.686035 0.835693 0.000000
0.720367 0.835693 0.000000
0.754852 0.835693 0.000000
0.789490 0.835693 0.000000
0.824249 0.835693 0.000000
0.859161 0.835693 0.000000
0.894196 0.835693 0.000000
0.929352 0.835693 0.000000
0.964600 0.835693 0.000000
1.000000 0.835693 0.000000
0.000000 0.868530 0.000000
0.022980 0.868530 0.000000
0.049194 0.868530 0.000000
0.076813 0.868530 0.000000
0.105377 0.868530 0.000000
0.134644 0.868530 0.000000
0.164520 0.868530 0.000000
0.194885 0.868530 0.000000
0.225708 0.868530 0.000000
0.256897 0.868530 0.000000
0.288422 0.868530 0.000000
0.320282 0.868530 0.000000
0.352417 0.868530 0.000000
0.384796 0.868530 0.000000
0.417450 0.868530 0.000000
0.450348 0.868530 0.000000
